portrait-pop-1.CUBE
#Created by: Adobe Photoshop Export Color Lookup Plugin
TITLE "pp-1"
#LUT size
LUT_3D_SIZE 5
#data domain
#LUT data points
DOMAIN_MIN 0.000000 0.000000 0.000000
DOMAIN_MAX 0.903226 0.903226 0.903226
0.000000 0.000000 0.000000
0.238129 0.008514 0.005524
0.565796 0.017273 0.011139
0.796753 0.026245 0.016815
0.917572 0.035461 0.022675
0.000000 0.291046 0.000000
0.295349 0.291046 0.171936
0.620209 0.305573 0.179962
0.825989 0.320343 0.188202
0.933167 0.335236 0.196472
0.000000 0.662323 0.000000
0.295349 0.662323 0.171936
0.669220 0.662323 0.408081
0.851624 0.673706 0.418518
0.947449 0.684814 0.429047
0.000000 0.869568 0.000000
0.295349 0.869568 0.171936
0.669220 0.869568 0.408081
0.874268 0.869568 0.648285
0.960541 0.874847 0.655975
0.000000 0.969238 0.000000
0.295349 0.969238 0.171936
0.669220 0.969238 0.408081
0.874268 0.969238 0.648285
0.972809 0.969238 0.806244
0.000000 0.000000 0.211823
0.291046 0.000000 0.291046
0.616241 0.008514 0.224518
0.823822 0.017273 0.163330
0.931976 0.026245 0.107666
0.000000 0.291046 0.291046
0.291046 0.291046 0.291046
0.617126 0.305573 0.276398
0.824738 0.320343 0.262054
0.932709 0.335236 0.247894
0.000000 0.662323 0.291046
0.291046 0.662323 0.291046
0.665771 0.662323 0.546906
0.850189 0.673706 0.531952
0.946777 0.684814 0.516541
0.000000 0.869568 0.291046
0.291046 0.869568 0.291046
0.665771 0.869568 0.546906
0.872742 0.869568 0.742371
0.959808 0.874847 0.732697
0.000000 0.969238 0.291046
0.291046 0.969238 0.291046
0.665771 0.969238 0.546906
0.872742 0.969238 0.742371
0.971954 0.969238 0.862976
0.000000 0.000000 0.327271
0.211823 0.000000 0.507904
0.662323 0.000000 0.662323
0.847992 0.008514 0.603333
0.945343 0.017273 0.536713
0.000000 0.211823 0.507904
0.211823 0.211823 0.507904
0.662323 0.291046 0.662323
0.847992 0.305573 0.603333
0.945343 0.320343 0.536713
0.000000 0.662323 0.662323
0.291046 0.662323 0.662323
0.662323 0.662323 0.662323
0.848419 0.673706 0.646210
0.945831 0.684814 0.635590
0.000000 0.869568 0.662323
0.291046 0.869568 0.662323
0.662323 0.869568 0.662323
0.871155 0.869568 0.795593
0.958832 0.874847 0.793427
0.000000 0.969238 0.662323
0.291046 0.969238 0.662323
0.662323 0.969238 0.662323
0.871155 0.969238 0.795593
0.971069 0.969238 0.882263
0.000000 0.000000 0.279266
0.140381 0.000000 0.544800
0.507874 0.000000 0.747223
0.869568 0.000000 0.869568
0.957703 0.008514 0.841919
0.000000 0.140381 0.544800
0.140381 0.140381 0.544800
0.507874 0.211823 0.747223
0.869568 0.291046 0.869568
0.957703 0.305573 0.841919
0.000000 0.507874 0.747223
0.211823 0.507874 0.747223
0.507874 0.507874 0.747223
0.869568 0.662323 0.869568
0.957703 0.673706 0.841919
0.000000 0.869568 0.869568
0.291046 0.869568 0.869568
0.662323 0.869568 0.869568
0.927368 0.922821 0.888000
0.973450 0.925323 0.880829
0.000000 0.969238 0.869568
0.291046 0.969238 0.869568
0.662323 0.969238 0.869568
0.928192 0.980469 0.890564
0.981476 0.980469 0.914032
0.000000 0.000000 0.220520
0.076965 0.000000 0.527832
0.327271 0.000000 0.764801
0.747253 0.000000 0.894928
0.969238 0.000000 0.969238
0.000000 0.076965 0.527832
0.076965 0.076965 0.527832
0.327271 0.140381 0.764801
0.747253 0.211823 0.894928
0.969238 0.291046 0.969238
0.000000 0.327271 0.764801
0.140381 0.327271 0.764801
0.327271 0.327271 0.764801
0.747253 0.507904 0.894928
0.969238 0.662323 0.969238
0.000000 0.747253 0.894928
0.211823 0.747253 0.894928
0.507904 0.747253 0.894928
0.884766 0.878998 0.936859
0.978882 0.923248 0.967133
0.000000 0.969238 0.969238
0.291046 0.969238 0.969238
0.662323 0.969238 0.969238
0.927612 0.980469 0.969238
0.994476 0.994202 0.971832
