portrait-pop-4.CUBE
#Created by: Adobe Photoshop Export Color Lookup Plugin
TITLE "pp-4"
#LUT size
LUT_3D_SIZE 5
#data domain
#LUT data points
DOMAIN_MIN 0.000000 0.000000 0.000000
DOMAIN_MAX 0.903226 0.903226 0.903226
0.000000 0.000000 0.000000
0.000000 0.000000 0.000000
0.000000 0.000000 0.000000
0.026886 0.026886 0.026886
0.098969 0.098969 0.098969
0.000000 0.000000 0.000000
0.000000 0.000000 0.000000
0.029083 0.029083 0.029083
0.101196 0.101196 0.101196
0.173279 0.173279 0.173279
0.000000 0.000000 0.000000
0.031281 0.031281 0.031281
0.103394 0.103394 0.103394
0.175507 0.175507 0.175507
0.247589 0.247589 0.247589
0.033478 0.033478 0.033478
0.105591 0.105591 0.105591
0.177704 0.177704 0.177704
0.249817 0.249817 0.249817
0.321930 0.321930 0.321930
0.107788 0.107788 0.107788
0.179901 0.179901 0.179901
0.252014 0.252014 0.252014
0.324127 0.324127 0.324127
0.396240 0.396240 0.396240
0.000000 0.000000 0.000000
0.056427 0.056427 0.056427
0.128510 0.128510 0.128510
0.200623 0.200623 0.200623
0.272736 0.272736 0.272736
0.058624 0.058624 0.058624
0.130737 0.130737 0.130737
0.202820 0.202820 0.202820
0.274933 0.274933 0.274933
0.347046 0.347046 0.347046
0.132935 0.132935 0.132935
0.205048 0.205048 0.205048
0.277130 0.277130 0.277130
0.349243 0.349243 0.349243
0.421356 0.421356 0.421356
0.207245 0.207245 0.207245
0.279358 0.279358 0.279358
0.351471 0.351471 0.351471
0.423584 0.423584 0.423584
0.495697 0.495697 0.495697
0.281555 0.281555 0.281555
0.353668 0.353668 0.353668
0.425781 0.425781 0.425781
0.497894 0.497894 0.497894
0.570007 0.570007 0.570007
0.158081 0.158081 0.158081
0.230164 0.230164 0.230164
0.302277 0.302277 0.302277
0.374390 0.374390 0.374390
0.446503 0.446503 0.446503
0.232391 0.232391 0.232391
0.304474 0.304474 0.304474
0.376587 0.376587 0.376587
0.448700 0.448700 0.448700
0.520813 0.520813 0.520813
0.306702 0.306702 0.306702
0.378784 0.378784 0.378784
0.450897 0.450897 0.450897
0.523010 0.523010 0.523010
0.595123 0.595123 0.595123
0.381012 0.381012 0.381012
0.453125 0.453125 0.453125
0.525208 0.525208 0.525208
0.597351 0.597351 0.597351
0.669434 0.669434 0.669434
0.455322 0.455322 0.455322
0.527435 0.527435 0.527435
0.599518 0.599518 0.599518
0.671661 0.671661 0.671661
0.743744 0.743744 0.743744
0.331848 0.331848 0.331848
0.403961 0.403961 0.403961
0.476074 0.476074 0.476074
0.548187 0.548187 0.548187
0.620270 0.620270 0.620270
0.406158 0.406158 0.406158
0.478271 0.478271 0.478271
0.550385 0.550385 0.550385
0.622498 0.622498 0.622498
0.694580 0.694580 0.694580
0.480469 0.480469 0.480469
0.552582 0.552582 0.552582
0.624695 0.624695 0.624695
0.696808 0.696808 0.696808
0.768890 0.768890 0.768890
0.554779 0.554779 0.554779
0.626892 0.626892 0.626892
0.699005 0.699005 0.699005
0.771118 0.771118 0.771118
0.843231 0.843231 0.843231
0.629089 0.629089 0.629089
0.701202 0.701202 0.701202
0.773315 0.773315 0.773315
0.845428 0.845428 0.845428
0.917542 0.917542 0.917542
0.505615 0.505615 0.505615
0.577728 0.577728 0.577728
0.649811 0.649811 0.649811
0.721924 0.721924 0.721924
0.794037 0.794037 0.794037
0.579926 0.579926 0.579926
0.652039 0.652039 0.652039
0.724121 0.724121 0.724121
0.796234 0.796234 0.796234
0.868347 0.868347 0.868347
0.654236 0.654236 0.654236
0.726349 0.726349 0.726349
0.798431 0.798431 0.798431
0.870544 0.870544 0.870544
0.942657 0.942657 0.942657
0.728546 0.728546 0.728546
0.800659 0.800659 0.800659
0.872772 0.872772 0.872772
0.944885 0.944885 0.944885
1.000000 1.000000 1.000000
0.802856 0.802856 0.802856
0.874969 0.874969 0.874969
0.947083 0.947083 0.947083
1.000000 1.000000 1.000000
1.000000 1.000000 1.000000
