portrait-pop-5.CUBE
#Created by: Adobe Photoshop Export Color Lookup Plugin
TITLE "pp-5"
#LUT size
LUT_3D_SIZE 5
#data domain
#LUT data points
DOMAIN_MIN 0.000000 0.000000 0.000000
DOMAIN_MAX 0.903226 0.903226 0.903226
0.000000 0.000000 0.000000
0.000000 0.000000 0.000000
0.000000 0.000000 0.000000
0.000000 0.000000 0.000000
0.014313 0.014313 0.014313
0.000000 0.000000 0.000000
0.000000 0.000000 0.000000
0.000000 0.000000 0.000000
0.050476 0.050476 0.050476
0.203949 0.203949 0.203949
0.000000 0.000000 0.000000
0.000000 0.000000 0.000000
0.086609 0.086609 0.086609
0.240112 0.240112 0.240112
0.393585 0.393585 0.393585
0.000000 0.000000 0.000000
0.122803 0.122803 0.122803
0.276276 0.276276 0.276276
0.429779 0.429779 0.429779
0.623077 0.577637 0.518250
0.158966 0.158966 0.158966
0.312439 0.312439 0.312439
0.465912 0.465912 0.465912
0.671387 0.611969 0.533295
0.843658 0.762695 0.654663
0.000000 0.000000 0.000000
0.000000 0.000000 0.000000
0.000000 0.000000 0.000000
0.000000 0.000000 0.000000
0.070770 0.070770 0.070770
0.000000 0.000000 0.000000
0.000000 0.000000 0.000000
0.000000 0.000000 0.000000
0.106873 0.106873 0.106873
0.260376 0.260376 0.260376
0.000000 0.000000 0.000000
0.000000 0.000000 0.000000
0.143066 0.143066 0.143066
0.296539 0.296539 0.296539
0.450012 0.450012 0.450012
0.025787 0.025787 0.025787
0.179260 0.179260 0.179260
0.332733 0.332733 0.332733
0.486206 0.486206 0.486206
0.697205 0.631409 0.543884
0.215424 0.215424 0.215424
0.368896 0.368896 0.368896
0.534729 0.520691 0.502899
0.740875 0.666443 0.566772
0.893677 0.820129 0.723175
0.000000 0.000000 0.000000
0.000000 0.000000 0.000000
0.000000 0.000000 0.000000
0.000000 0.000000 0.000000
0.127228 0.127228 0.127228
0.000000 0.000000 0.000000
0.000000 0.000000 0.000000
0.009918 0.009918 0.009918
0.163361 0.163361 0.163361
0.316833 0.316833 0.316833
0.000000 0.000000 0.000000
0.046112 0.046112 0.046112
0.199524 0.199524 0.199524
0.352997 0.352997 0.352997
0.510162 0.505981 0.500702
0.082184 0.082184 0.082184
0.235687 0.235687 0.235687
0.389160 0.389160 0.389160
0.565155 0.539551 0.506744
0.764160 0.686310 0.581940
0.271851 0.271851 0.271851
0.425323 0.425323 0.425323
0.616913 0.573425 0.516724
0.803253 0.722046 0.613159
0.936462 0.878662 0.803741
0.000000 0.000000 0.000000
0.000000 0.000000 0.000000
0.000000 0.000000 0.000000
0.030182 0.030182 0.030182
0.183655 0.183655 0.183655
0.000000 0.000000 0.000000
0.000000 0.000000 0.000000
0.066345 0.066345 0.066345
0.219818 0.219818 0.219818
0.373291 0.373291 0.373291
0.000000 0.000000 0.000000
0.102509 0.102509 0.102509
0.255981 0.255981 0.255981
0.409454 0.409454 0.409454
0.594574 0.558472 0.511810
0.138672 0.138672 0.138672
0.292145 0.292145 0.292145
0.445618 0.445618 0.445618
0.644653 0.592651 0.524292
0.823914 0.742310 0.633026
0.328308 0.328308 0.328308
0.481781 0.481781 0.481781
0.691620 0.627167 0.541412
0.858459 0.778748 0.672607
0.971771 0.938171 0.895447
0.000000 0.000000 0.000000
0.000000 0.000000 0.000000
0.000000 0.000000 0.000000
0.086639 0.086639 0.086639
0.240112 0.240112 0.240112
0.000000 0.000000 0.000000
0.000000 0.000000 0.000000
0.122772 0.122772 0.122772
0.276276 0.276276 0.276276
0.429749 0.429749 0.429749
0.005463 0.005463 0.005463
0.158936 0.158936 0.158936
0.312408 0.312408 0.312408
0.465912 0.465912 0.465912
0.671356 0.611938 0.533264
0.195129 0.195129 0.195129
0.348602 0.348602 0.348602
0.503265 0.501923 0.500183
0.716766 0.646759 0.553284
0.876526 0.799408 0.697174
0.384766 0.384766 0.384766
0.558594 0.535400 0.505829
0.759155 0.681976 0.578430
0.906433 0.836517 0.744690
0.999451 0.998596 0.997559
