portrait-pop-5.CUBE
#Created by: Adobe Photoshop Export Color Lookup Plugin
TITLE "pp-5"
#LUT size
LUT_3D_SIZE 8
#data domain
#LUT data points
DOMAIN_MIN 0.000000 0.000000 0.000000
DOMAIN_MAX 0.903226 0.903226 0.903226
0.000000 0.000000 0.000000
0.000000 0.000000 0.000000
0.000000 0.000000 0.000000
0.000000 0.000000 0.000000
0.000000 0.000000 0.000000
0.000000 0.000000 0.000000
0.000000 0.000000 0.000000
0.014313 0.014313 0.014313
0.000000 0.000000 0.000000
0.000000 0.000000 0.000000
0.000000 0.000000 0.000000
0.000000 0.000000 0.000000
0.000000 0.000000 0.000000
0.000000 0.000000 0.000000
0.034912 0.034912 0.034912
0.122681 0.122681 0.122681
0.000000 0.000000 0.000000
0.000000 0.000000 0.000000
0.000000 0.000000 0.000000
0.000000 0.000000 0.000000
0.000000 0.000000 0.000000
0.055603 0.055603 0.055603
0.143341 0.143341 0.143341
0.231018 0.231018 0.231018
0.000000 0.000000 0.000000
0.000000 0.000000 0.000000
0.000000 0.000000 0.000000
0.000000 0.000000 0.000000
0.076294 0.076294 0.076294
0.164001 0.164001 0.164001
0.251709 0.251709 0.251709
0.339386 0.339386 0.339386
0.000000 0.000000 0.000000
0.000000 0.000000 0.000000
0.009277 0.009277 0.009277
0.096954 0.096954 0.096954
0.184692 0.184692 0.184692
0.272400 0.272400 0.272400
0.360077 0.360077 0.360077
0.447784 0.447784 0.447784
0.000000 0.000000 0.000000
0.029938 0.029938 0.029938
0.117645 0.117645 0.117645
0.205322 0.205322 0.205322
0.293060 0.293060 0.293060
0.380737 0.380737 0.380737
0.468445 0.468445 0.468445
0.584839 0.552155 0.509979
0.050598 0.050598 0.050598
0.138306 0.138306 0.138306
0.225983 0.225983 0.225983
0.313690 0.313690 0.313690
0.401428 0.401428 0.401428
0.489105 0.489105 0.489105
0.614136 0.571533 0.516052
0.727509 0.655457 0.559021
0.158966 0.158966 0.158966
0.246674 0.246674 0.246674
0.334351 0.334351 0.334351
0.422058 0.422058 0.422058
0.515320 0.509003 0.501129
0.642426 0.591095 0.523621
0.751740 0.675568 0.573517
0.843658 0.762695 0.654663
0.000000 0.000000 0.000000
0.000000 0.000000 0.000000
0.000000 0.000000 0.000000
0.000000 0.000000 0.000000
0.000000 0.000000 0.000000
0.000000 0.000000 0.000000
0.000000 0.000000 0.000000
0.046600 0.046600 0.046600
0.000000 0.000000 0.000000
0.000000 0.000000 0.000000
0.000000 0.000000 0.000000
0.000000 0.000000 0.000000
0.000000 0.000000 0.000000
0.000000 0.000000 0.000000
0.067230 0.067230 0.067230
0.154938 0.154938 0.154938
0.000000 0.000000 0.000000
0.000000 0.000000 0.000000
0.000000 0.000000 0.000000
0.000000 0.000000 0.000000
0.000183 0.000183 0.000183
0.087891 0.087891 0.087891
0.175598 0.175598 0.175598
0.263275 0.263275 0.263275
0.000000 0.000000 0.000000
0.000000 0.000000 0.000000
0.000000 0.000000 0.000000
0.020844 0.020844 0.020844
0.108582 0.108582 0.108582
0.196259 0.196259 0.196259
0.283966 0.283966 0.283966
0.371643 0.371643 0.371643
0.000000 0.000000 0.000000
0.000000 0.000000 0.000000
0.041504 0.041504 0.041504
0.129211 0.129211 0.129211
0.216949 0.216949 0.216949
0.304657 0.304657 0.304657
0.392334 0.392334 0.392334
0.480042 0.480042 0.480042
0.000000 0.000000 0.000000
0.062195 0.062195 0.062195
0.149902 0.149902 0.149902
0.237579 0.237579 0.237579
0.325317 0.325317 0.325317
0.412994 0.412994 0.412994
0.501099 0.500641 0.500061
0.630157 0.582489 0.520142
0.082855 0.082855 0.082855
0.170563 0.170563 0.170563
0.258240 0.258240 0.258240
0.345947 0.345947 0.345947
0.433685 0.433685 0.433685
0.533173 0.519745 0.502777
0.657898 0.602112 0.528503
0.764832 0.686951 0.582397
0.191223 0.191223 0.191223
0.278931 0.278931 0.278931
0.366608 0.366608 0.366608
0.454315 0.454315 0.454315
0.564240 0.538940 0.506622
0.684631 0.621857 0.538483
0.787506 0.707306 0.599640
0.873138 0.795410 0.692291
0.000000 0.000000 0.000000
0.000000 0.000000 0.000000
0.000000 0.000000 0.000000
0.000000 0.000000 0.000000
0.000000 0.000000 0.000000
0.000000 0.000000 0.000000
0.000000 0.000000 0.000000
0.078827 0.078827 0.078827
0.000000 0.000000 0.000000
0.000000 0.000000 0.000000
0.000000 0.000000 0.000000
0.000000 0.000000 0.000000
0.000000 0.000000 0.000000
0.011719 0.011719 0.011719
0.099487 0.099487 0.099487
0.187195 0.187195 0.187195
0.000000 0.000000 0.000000
0.000000 0.000000 0.000000
0.000000 0.000000 0.000000
0.000000 0.000000 0.000000
0.032471 0.032471 0.032471
0.120148 0.120148 0.120148
0.207855 0.207855 0.207855
0.295532 0.295532 0.295532
0.000000 0.000000 0.000000
0.000000 0.000000 0.000000
0.000000 0.000000 0.000000
0.053101 0.053101 0.053101
0.140808 0.140808 0.140808
0.228516 0.228516 0.228516
0.316223 0.316223 0.316223
0.403900 0.403900 0.403900
0.000000 0.000000 0.000000
0.000000 0.000000 0.000000
0.073792 0.073792 0.073792
0.161469 0.161469 0.161469
0.249207 0.249207 0.249207
0.336914 0.336914 0.336914
0.424591 0.424591 0.424591
0.519287 0.511353 0.501434
0.006744 0.006744 0.006744
0.094421 0.094421 0.094421
0.182159 0.182159 0.182159
0.269836 0.269836 0.269836
0.357574 0.357574 0.357574
0.445251 0.445251 0.445251
0.550751 0.530518 0.504761
0.673035 0.613159 0.533905
0.115112 0.115112 0.115112
0.202820 0.202820 0.202820
0.290497 0.290497 0.290497
0.378204 0.378204 0.378204
0.465942 0.465942 0.465942
0.581177 0.549774 0.509308
0.699249 0.632996 0.544739
0.799835 0.718811 0.610138
0.223480 0.223480 0.223480
0.311188 0.311188 0.311188
0.398865 0.398865 0.398865
0.486572 0.486572 0.486572
0.610626 0.569153 0.515228
0.724487 0.652954 0.557373
0.821075 0.739410 0.630096
0.900269 0.828461 0.734009
0.000000 0.000000 0.000000
0.000000 0.000000 0.000000
0.000000 0.000000 0.000000
0.000000 0.000000 0.000000
0.000000 0.000000 0.000000
0.000000 0.000000 0.000000
0.023376 0.023376 0.023376
0.111084 0.111084 0.111084
0.000000 0.000000 0.000000
0.000000 0.000000 0.000000
0.000000 0.000000 0.000000
0.000000 0.000000 0.000000
0.000000 0.000000 0.000000
0.044037 0.044037 0.044037
0.131744 0.131744 0.131744
0.219452 0.219452 0.219452
0.000000 0.000000 0.000000
0.000000 0.000000 0.000000
0.000000 0.000000 0.000000
0.000000 0.000000 0.000000
0.064697 0.064697 0.064697
0.152405 0.152405 0.152405
0.240112 0.240112 0.240112
0.327789 0.327789 0.327789
0.000000 0.000000 0.000000
0.000000 0.000000 0.000000
0.000000 0.000000 0.000000
0.085388 0.085388 0.085388
0.173065 0.173065 0.173065
0.260773 0.260773 0.260773
0.348480 0.348480 0.348480
0.436157 0.436157 0.436157
0.000000 0.000000 0.000000
0.018341 0.018341 0.018341
0.106049 0.106049 0.106049
0.193726 0.193726 0.193726
0.281464 0.281464 0.281464
0.369171 0.369171 0.369171
0.456848 0.456848 0.456848
0.567932 0.541290 0.507141
0.039001 0.039001 0.039001
0.126709 0.126709 0.126709
0.214417 0.214417 0.214417
0.302094 0.302094 0.302094
0.389832 0.389832 0.389832
0.477509 0.477509 0.477509
0.597839 0.560638 0.512482
0.713562 0.644196 0.551636
0.147369 0.147369 0.147369
0.235077 0.235077 0.235077
0.322754 0.322754 0.322754
0.410461 0.410461 0.410461
0.498199 0.498199 0.498199
0.626678 0.580109 0.519196
0.738251 0.664246 0.565186
0.832489 0.751038 0.642090
0.255737 0.255737 0.255737
0.343445 0.343445 0.343445
0.431122 0.431122 0.431122
0.529358 0.517395 0.502380
0.654541 0.599701 0.527405
0.761993 0.684448 0.580414
0.852173 0.771851 0.664795
0.925018 0.861847 0.779572
0.000000 0.000000 0.000000
0.000000 0.000000 0.000000
0.000000 0.000000 0.000000
0.000000 0.000000 0.000000
0.000000 0.000000 0.000000
0.000000 0.000000 0.000000
0.055603 0.055603 0.055603
0.143341 0.143341 0.143341
0.000000 0.000000 0.000000
0.000000 0.000000 0.000000
0.000000 0.000000 0.000000
0.000000 0.000000 0.000000
0.000000 0.000000 0.000000
0.076294 0.076294 0.076294
0.164001 0.164001 0.164001
0.251709 0.251709 0.251709
0.000000 0.000000 0.000000
0.000000 0.000000 0.000000
0.000000 0.000000 0.000000
0.009247 0.009247 0.009247
0.096985 0.096985 0.096985
0.184662 0.184662 0.184662
0.272369 0.272369 0.272369
0.360077 0.360077 0.360077
0.000000 0.000000 0.000000
0.000000 0.000000 0.000000
0.029907 0.029907 0.029907
0.117615 0.117615 0.117615
0.205322 0.205322 0.205322
0.293030 0.293030 0.293030
0.380737 0.380737 0.380737
0.468445 0.468445 0.468445
0.000000 0.000000 0.000000
0.050598 0.050598 0.050598
0.138306 0.138306 0.138306
0.226013 0.226013 0.226013
0.313721 0.313721 0.313721
0.401428 0.401428 0.401428
0.489136 0.489136 0.489136
0.614136 0.571533 0.516052
0.071259 0.071259 0.071259
0.158966 0.158966 0.158966
0.246674 0.246674 0.246674
0.334381 0.334381 0.334381
0.422089 0.422089 0.422089
0.515350 0.509033 0.501129
0.642426 0.591095 0.523621
0.751740 0.675568 0.573517
0.179626 0.179626 0.179626
0.267334 0.267334 0.267334
0.355042 0.355042 0.355042
0.442719 0.442719 0.442719
0.546997 0.528168 0.504303
0.669800 0.610779 0.532745
0.774933 0.695862 0.589783
0.862823 0.783600 0.678284
0.287994 0.287994 0.287994
0.375702 0.375702 0.375702
0.463409 0.463409 0.463409
0.577545 0.547394 0.508698
0.696136 0.630585 0.543396
0.797180 0.716309 0.607788
0.881012 0.804657 0.703583
0.947296 0.895569 0.828827
0.000000 0.000000 0.000000
0.000000 0.000000 0.000000
0.000000 0.000000 0.000000
0.000000 0.000000 0.000000
0.000000 0.000000 0.000000
0.000214 0.000214 0.000214
0.087891 0.087891 0.087891
0.175598 0.175598 0.175598
0.000000 0.000000 0.000000
0.000000 0.000000 0.000000
0.000000 0.000000 0.000000
0.000000 0.000000 0.000000
0.020874 0.020874 0.020874
0.108582 0.108582 0.108582
0.196259 0.196259 0.196259
0.283966 0.283966 0.283966
0.000000 0.000000 0.000000
0.000000 0.000000 0.000000
0.000000 0.000000 0.000000
0.041473 0.041473 0.041473
0.129242 0.129242 0.129242
0.216919 0.216919 0.216919
0.304626 0.304626 0.304626
0.392334 0.392334 0.392334
0.000000 0.000000 0.000000
0.000000 0.000000 0.000000
0.062164 0.062164 0.062164
0.149872 0.149872 0.149872
0.237579 0.237579 0.237579
0.325287 0.325287 0.325287
0.412994 0.412994 0.412994
0.501099 0.500641 0.500061
0.000000 0.000000 0.000000
0.082855 0.082855 0.082855
0.170563 0.170563 0.170563
0.258270 0.258270 0.258270
0.345978 0.345978 0.345978
0.433685 0.433685 0.433685
0.533264 0.519775 0.502747
0.657898 0.602112 0.528503
0.103485 0.103485 0.103485
0.191223 0.191223 0.191223
0.278931 0.278931 0.278931
0.366638 0.366638 0.366638
0.454346 0.454346 0.454346
0.564270 0.538971 0.506622
0.684631 0.621857 0.538483
0.787506 0.707306 0.599640
0.211884 0.211884 0.211884
0.299591 0.299591 0.299591
0.387299 0.387299 0.387299
0.474976 0.474976 0.474976
0.594269 0.558289 0.511749
0.710480 0.641785 0.550140
0.809265 0.727814 0.618713
0.890839 0.816528 0.718506
0.320251 0.320251 0.320251
0.407959 0.407959 0.407959
0.495667 0.495667 0.495667
0.623199 0.577698 0.518280
0.735321 0.661804 0.563446
0.830017 0.748474 0.639496
0.907471 0.837799 0.746399
0.967224 0.929626 0.881744
0.000000 0.000000 0.000000
0.000000 0.000000 0.000000
0.000000 0.000000 0.000000
0.000000 0.000000 0.000000
0.000000 0.000000 0.000000
0.032501 0.032501 0.032501
0.120148 0.120148 0.120148
0.207855 0.207855 0.207855
0.000000 0.000000 0.000000
0.000000 0.000000 0.000000
0.000000 0.000000 0.000000
0.000000 0.000000 0.000000
0.053131 0.053131 0.053131
0.140808 0.140808 0.140808
0.228516 0.228516 0.228516
0.316223 0.316223 0.316223
0.000000 0.000000 0.000000
0.000000 0.000000 0.000000
0.000000 0.000000 0.000000
0.073761 0.073761 0.073761
0.161499 0.161499 0.161499
0.249176 0.249176 0.249176
0.336884 0.336884 0.336884
0.424591 0.424591 0.424591
0.000000 0.000000 0.000000
0.006744 0.006744 0.006744
0.094391 0.094391 0.094391
0.182129 0.182129 0.182129
0.269836 0.269836 0.269836
0.357544 0.357544 0.357544
0.445251 0.445251 0.445251
0.550751 0.530518 0.504761
0.027435 0.027435 0.027435
0.115112 0.115112 0.115112
0.202820 0.202820 0.202820
0.290527 0.290527 0.290527
0.378235 0.378235 0.378235
0.465942 0.465942 0.465942
0.581207 0.549805 0.509338
0.699249 0.632996 0.544739
0.135773 0.135773 0.135773
0.223480 0.223480 0.223480
0.311188 0.311188 0.311188
0.398895 0.398895 0.398895
0.486603 0.486603 0.486603
0.610657 0.569183 0.515259
0.724487 0.652954 0.557373
0.821075 0.739410 0.630096
0.244141 0.244141 0.244141
0.331848 0.331848 0.331848
0.419556 0.419556 0.419556
0.511383 0.506653 0.500793
0.639069 0.588715 0.522614
0.748840 0.673126 0.571655
0.841278 0.760132 0.651825
0.916351 0.849823 0.762787
0.352509 0.352509 0.352509
0.440216 0.440216 0.440216
0.543152 0.525848 0.503845
0.666473 0.608337 0.531464
0.772156 0.693390 0.587738
0.860535 0.781036 0.675262
0.931519 0.871307 0.793060
0.984619 0.963959 0.937988
0.000000 0.000000 0.000000
0.000000 0.000000 0.000000
0.000000 0.000000 0.000000
0.000000 0.000000 0.000000
0.000000 0.000000 0.000000
0.064728 0.064728 0.064728
0.152405 0.152405 0.152405
0.240112 0.240112 0.240112
0.000000 0.000000 0.000000
0.000000 0.000000 0.000000
0.000000 0.000000 0.000000
0.000000 0.000000 0.000000
0.085419 0.085419 0.085419
0.173065 0.173065 0.173065
0.260773 0.260773 0.260773
0.348480 0.348480 0.348480
0.000000 0.000000 0.000000
0.000000 0.000000 0.000000
0.018311 0.018311 0.018311
0.106018 0.106018 0.106018
0.193756 0.193756 0.193756
0.281433 0.281433 0.281433
0.369141 0.369141 0.369141
0.456848 0.456848 0.456848
0.000000 0.000000 0.000000
0.039001 0.039001 0.039001
0.126678 0.126678 0.126678
0.214386 0.214386 0.214386
0.302094 0.302094 0.302094
0.389801 0.389801 0.389801
0.477509 0.477509 0.477509
0.597839 0.560638 0.512482
0.059662 0.059662 0.059662
0.147369 0.147369 0.147369
0.235077 0.235077 0.235077
0.322784 0.322784 0.322784
0.410492 0.410492 0.410492
0.498199 0.498199 0.498199
0.626709 0.580139 0.519196
0.738251 0.664246 0.565186
0.168030 0.168030 0.168030
0.255737 0.255737 0.255737
0.343445 0.343445 0.343445
0.431152 0.431152 0.431152
0.529388 0.517426 0.502380
0.654572 0.599731 0.527374
0.761993 0.684448 0.580414
0.852173 0.771851 0.664795
0.276398 0.276398 0.276398
0.364105 0.364105 0.364105
0.451813 0.451813 0.451813
0.560486 0.536591 0.506073
0.681458 0.619476 0.537170
0.784851 0.704834 0.597504
0.870911 0.792816 0.689209
0.939575 0.883423 0.810699
0.384766 0.384766 0.384766
0.472473 0.472473 0.472473
0.590668 0.555908 0.511047
0.707336 0.639313 0.548584
0.806671 0.725342 0.616241
0.888672 0.813934 0.715271
0.953125 0.905121 0.843414
0.999451 0.998596 0.997559
