portrait-pop-2.CUBE
#Created by: Adobe Photoshop Export Color Lookup Plugin
TITLE "pp-2.psd"
#LUT size
LUT_3D_SIZE 5
#data domain
#LUT data points
DOMAIN_MIN 0.000000 0.000000 0.000000
DOMAIN_MAX 0.903226 0.903226 0.903226
0.000000 0.000000 0.000000
0.165131 0.044525 0.047241
0.599731 0.161987 0.171631
0.899658 0.242981 0.257446
1.000000 0.323944 0.343262
0.000000 0.111023 0.000000
0.111023 0.111023 0.000000
0.545715 0.326843 0.085785
0.845612 0.407806 0.171631
1.000000 0.488800 0.257446
0.000000 0.444122 0.000000
0.222076 0.444122 0.000000
0.444122 0.444122 0.000000
0.791626 0.572693 0.085815
1.000000 0.653656 0.171631
0.000000 0.737610 0.000000
0.245850 0.737610 0.000000
0.491699 0.737610 0.000000
0.737610 0.737610 0.000000
1.000000 0.816925 0.085785
0.000000 0.983459 0.000000
0.245850 0.983459 0.000000
0.491699 0.983459 0.000000
0.737610 0.983459 0.000000
0.983459 0.983459 0.000000
0.000000 0.000000 0.111023
0.111023 0.000000 0.111023
0.545715 0.080963 0.331696
0.845612 0.161987 0.417511
1.000000 0.242981 0.503296
0.000000 0.111023 0.111023
0.111023 0.111023 0.111023
0.545715 0.326843 0.331696
0.845612 0.407806 0.417511
1.000000 0.488800 0.503296
0.000000 0.444122 0.222076
0.222076 0.444122 0.222076
0.444122 0.444122 0.222076
0.791626 0.572693 0.331696
1.000000 0.653656 0.417511
0.000000 0.737610 0.245850
0.245850 0.737610 0.245850
0.491699 0.737610 0.245850
0.737610 0.737610 0.245850
1.000000 0.816925 0.331696
0.000000 0.983459 0.245850
0.245850 0.983459 0.245850
0.491699 0.983459 0.245850
0.737610 0.983459 0.245850
0.983459 0.983459 0.245850
0.000000 0.000000 0.444122
0.222076 0.000000 0.444122
0.444122 0.000000 0.444122
0.791626 0.080994 0.577545
1.000000 0.161987 0.663361
0.000000 0.222076 0.444122
0.222076 0.222076 0.444122
0.444122 0.222076 0.444122
0.791626 0.326843 0.577545
1.000000 0.407806 0.663361
0.000000 0.444122 0.444122
0.222076 0.444122 0.444122
0.444122 0.444122 0.444122
0.791626 0.572693 0.577545
1.000000 0.653656 0.663361
0.000000 0.737610 0.491699
0.245850 0.737610 0.491699
0.491699 0.737610 0.491699
0.737610 0.737610 0.491699
1.000000 0.816925 0.577545
0.000000 0.983459 0.491699
0.245850 0.983459 0.491699
0.491699 0.983459 0.491699
0.737610 0.983459 0.491699
0.983459 0.983459 0.491699
0.000000 0.000000 0.737610
0.245850 0.000000 0.737610
0.491699 0.000000 0.737610
0.737610 0.000000 0.737610
1.000000 0.080963 0.816925
0.000000 0.245850 0.737610
0.245850 0.245850 0.737610
0.491699 0.245850 0.737610
0.737610 0.245850 0.737610
1.000000 0.326843 0.816925
0.000000 0.491699 0.737610
0.245850 0.491699 0.737610
0.491699 0.491699 0.737610
0.737610 0.491699 0.737610
1.000000 0.572693 0.816925
0.000000 0.737610 0.737610
0.245850 0.737610 0.737610
0.491699 0.737610 0.737610
0.737610 0.737610 0.737610
1.000000 0.816925 0.816925
0.000000 0.983459 0.737610
0.245850 0.983459 0.737610
0.491699 0.983459 0.737610
0.737610 0.983459 0.737610
0.983459 0.983459 0.737610
0.000000 0.000000 0.983459
0.245850 0.000000 0.983459
0.491699 0.000000 0.983459
0.737610 0.000000 0.983459
0.983459 0.000000 0.983459
0.000000 0.245850 0.983459
0.245850 0.245850 0.983459
0.491699 0.245850 0.983459
0.737610 0.245850 0.983459
0.983459 0.245850 0.983459
0.000000 0.491699 0.983459
0.245850 0.491699 0.983459
0.491699 0.491699 0.983459
0.737610 0.491699 0.983459
0.983459 0.491699 0.983459
0.000000 0.737610 0.983459
0.245850 0.737610 0.983459
0.491699 0.737610 0.983459
0.737610 0.737610 0.983459
0.983459 0.737610 0.983459
0.000000 0.983459 0.983459
0.245850 0.983459 0.983459
0.491699 0.983459 0.983459
0.737610 0.983459 0.983459
0.983459 0.983459 0.983459
