portrait-pop-2.CUBE
#Created by: Adobe Photoshop Export Color Lookup Plugin
TITLE "pp-2.psd"
#LUT size
LUT_3D_SIZE 32
#data domain
DOMAIN_MIN 0.0 0.0 0.0
DOMAIN_MAX 1.0 1.0 1.0
#LUT data points
0.000000 0.000000 0.000000
0.000336 0.000000 0.000000
0.007202 0.000397 0.000488
0.030182 0.002441 0.002716
0.053894 0.008514 0.009705
0.084259 0.022766 0.023895
0.121338 0.032623 0.034546
0.165131 0.044525 0.047241
0.215729 0.058228 0.061737
0.273010 0.073730 0.078125
0.337067 0.091034 0.096466
0.407837 0.110168 0.116699
0.485352 0.131073 0.138885
0.556885 0.150391 0.159363
0.599731 0.161987 0.171631
0.642578 0.173553 0.183899
0.685455 0.185120 0.196136
0.728302 0.196686 0.208405
0.771118 0.208282 0.220673
0.813965 0.219849 0.232941
0.856812 0.231415 0.245178
0.899658 0.242981 0.257446
0.942505 0.254517 0.269714
0.985352 0.266113 0.281982
1.000000 0.277679 0.294250
1.000000 0.289246 0.306458
1.000000 0.300812 0.318726
1.000000 0.312378 0.330994
1.000000 0.323944 0.343262
1.000000 0.335541 0.355499
1.000000 0.347107 0.367767
1.000000 0.358673 0.380035
0.000000 0.000122 0.000000
0.000122 0.000122 0.000000
0.004730 0.001526 0.000122
0.026398 0.006531 0.001007
0.049133 0.019104 0.004639
0.078308 0.030792 0.014587
0.114166 0.042542 0.027710
0.156769 0.056061 0.039368
0.206116 0.071442 0.052765
0.262177 0.088593 0.068054
0.325043 0.107574 0.085236
0.394623 0.128387 0.104370
0.470917 0.151031 0.125397
0.549164 0.173950 0.147095
0.591980 0.185516 0.159363
0.634857 0.197113 0.171631
0.677765 0.208679 0.183899
0.720581 0.220245 0.196136
0.763428 0.231812 0.208405
0.806244 0.243408 0.220673
0.849091 0.254974 0.232941
0.891937 0.266510 0.245178
0.934784 0.278076 0.257446
0.977631 0.289642 0.269714
1.000000 0.301239 0.281982
1.000000 0.312805 0.294250
1.000000 0.324371 0.306458
1.000000 0.335938 0.318726
1.000000 0.347504 0.330994
1.000000 0.359070 0.343262
1.000000 0.370667 0.355499
1.000000 0.382233 0.367767
0.000000 0.003021 0.000000
0.000641 0.003021 0.000000
0.003021 0.003021 0.000000
0.023376 0.011963 0.000183
0.044586 0.026367 0.001678
0.072540 0.038269 0.007141
0.107208 0.051697 0.020630
0.148590 0.066895 0.031952
0.196747 0.083954 0.044159
0.251617 0.102814 0.058319
0.313202 0.123474 0.074341
0.381592 0.145996 0.092377
0.456696 0.170288 0.112274
0.538513 0.196442 0.134094
0.584290 0.209076 0.147095
0.627106 0.220642 0.159363
0.670013 0.232239 0.171631
0.712891 0.243805 0.183899
0.755707 0.255371 0.196136
0.798553 0.266937 0.208405
0.841370 0.278534 0.220673
0.884216 0.290070 0.232941
0.927063 0.301636 0.245178
0.969910 0.313202 0.257446
1.000000 0.324768 0.269714
1.000000 0.336365 0.281982
1.000000 0.347931 0.294250
1.000000 0.359497 0.306458
1.000000 0.371063 0.318726
1.000000 0.382629 0.330994
1.000000 0.394196 0.343262
1.000000 0.405792 0.355499
0.000000 0.017883 0.000000
0.001556 0.017883 0.000000
0.007324 0.017883 0.000000
0.017883 0.017883 0.000000
0.040222 0.031769 0.000336
0.067017 0.045013 0.002655
0.100433 0.060150 0.010193
0.140656 0.077087 0.024597
0.187561 0.095795 0.035858
0.241241 0.116333 0.048920
0.301605 0.138702 0.063843
0.368744 0.162872 0.080719
0.442657 0.188904 0.099487
0.523285 0.216736 0.120178
0.576569 0.232635 0.134827
0.619415 0.244202 0.147095
0.662292 0.255798 0.159363
0.705139 0.267365 0.171631
0.748016 0.278931 0.183899
0.790833 0.290497 0.196136
0.833679 0.302032 0.208405
0.876495 0.313629 0.220673
0.919373 0.325195 0.232941
0.962189 0.336761 0.245178
1.000000 0.348328 0.257446
1.000000 0.359894 0.269714
1.000000 0.371490 0.281982
1.000000 0.383057 0.294250
1.000000 0.394623 0.306458
1.000000 0.406189 0.318726
1.000000 0.417755 0.330994
1.000000 0.429321 0.343262
0.000000 0.036133 0.000000
0.003021 0.036133 0.000000
0.013824 0.036133 0.000000
0.026794 0.036133 0.000000
0.036133 0.036133 0.000000
0.061737 0.051208 0.000549
0.093933 0.067963 0.003937
0.132904 0.086548 0.013885
0.178619 0.106995 0.027710
0.231079 0.129211 0.039856
0.290253 0.153259 0.053680
0.356171 0.179138 0.069366
0.428802 0.206818 0.087036
0.508301 0.236389 0.106598
0.568878 0.256195 0.122589
0.611694 0.267761 0.134827
0.654602 0.279358 0.147095
0.697418 0.290924 0.159363
0.740265 0.302490 0.171631
0.783112 0.314026 0.183899
0.825958 0.325592 0.196136
0.868774 0.337158 0.208405
0.911652 0.348755 0.220673
0.954468 0.360321 0.232941
0.997314 0.371887 0.245178
1.000000 0.383453 0.257446
1.000000 0.395020 0.269714
1.000000 0.406616 0.281982
1.000000 0.418182 0.294250
1.000000 0.429749 0.306458
1.000000 0.441315 0.318726
1.000000 0.452881 0.330994
0.000000 0.056610 0.000000
0.004913 0.056610 0.000000
0.022552 0.056610 0.000000
0.033813 0.056610 0.000000
0.045258 0.056610 0.000000
0.056610 0.056610 0.000000
0.087646 0.075104 0.000793
0.125397 0.095367 0.005341
0.169861 0.117493 0.018158
0.221130 0.141418 0.031250
0.279083 0.167175 0.043823
0.343811 0.194702 0.058441
0.415253 0.224091 0.074921
0.493439 0.255280 0.093323
0.561157 0.279755 0.110321
0.604004 0.291321 0.122589
0.646881 0.302887 0.134888
0.689728 0.314484 0.147095
0.732544 0.326050 0.159363
0.775391 0.337585 0.171631
0.818237 0.349152 0.183899
0.861084 0.360718 0.196136
0.903900 0.372284 0.208405
0.946777 0.383881 0.220673
0.989594 0.395447 0.232941
1.000000 0.407013 0.245178
1.000000 0.418579 0.257446
1.000000 0.430145 0.269714
1.000000 0.441742 0.281982
1.000000 0.453308 0.294250
1.000000 0.464874 0.306458
1.000000 0.476440 0.318726
0.000000 0.081573 0.000000
0.007324 0.081573 0.000000
0.026794 0.081573 0.000000
0.040680 0.081573 0.000000
0.054352 0.081573 0.000000
0.067993 0.081573 0.000000
0.081573 0.081573 0.000000
0.118103 0.103546 0.001129
0.161346 0.127319 0.007050
0.211365 0.152924 0.022888
0.268158 0.180389 0.034241
0.331665 0.209625 0.047821
0.401886 0.240692 0.063171
0.478851 0.273590 0.080475
0.553406 0.303284 0.098053
0.596283 0.314850 0.110321
0.639160 0.326447 0.122620
0.682007 0.338013 0.134888
0.724854 0.349548 0.147095
0.767670 0.361115 0.159363
0.810516 0.372681 0.171631
0.853363 0.384277 0.183899
0.896210 0.395844 0.196136
0.939026 0.407410 0.208405
0.981903 0.418976 0.220673
1.000000 0.430542 0.232941
1.000000 0.442108 0.245178
1.000000 0.453674 0.257446
1.000000 0.465271 0.269714
1.000000 0.476837 0.281982
1.000000 0.488403 0.294250
1.000000 0.499939 0.306458
0.000000 0.111023 0.000000
0.010254 0.111023 0.000000
0.031677 0.111023 0.000000
0.047577 0.111023 0.000000
0.063416 0.111023 0.000000
0.079315 0.111023 0.000000
0.095154 0.111023 0.000000
0.111023 0.111023 0.000000
0.153076 0.136505 0.001434
0.201874 0.163788 0.008972
0.257446 0.192932 0.024933
0.319733 0.223877 0.037567
0.388733 0.256653 0.051788
0.464508 0.291199 0.067963
0.545715 0.326843 0.085785
0.588531 0.338409 0.098053
0.631439 0.350006 0.110352
0.674255 0.361542 0.122620
0.717133 0.373108 0.134888
0.759949 0.384674 0.147095
0.802795 0.396240 0.159363
0.845612 0.407806 0.171631
0.888489 0.419403 0.183899
0.931335 0.430969 0.196136
0.974152 0.442535 0.208405
1.000000 0.454102 0.220673
1.000000 0.465668 0.232941
1.000000 0.477234 0.245178
1.000000 0.488800 0.257446
1.000000 0.500397 0.269714
1.000000 0.511963 0.281982
1.000000 0.523499 0.294250
0.000000 0.145020 0.000000
0.013824 0.145020 0.000000
0.036133 0.145020 0.000000
0.054352 0.145020 0.000000
0.072510 0.145020 0.000000
0.090637 0.145020 0.000000
0.108765 0.145020 0.000000
0.126892 0.145020 0.000000
0.145020 0.145020 0.000000
0.192596 0.174011 0.001862
0.246918 0.204834 0.011200
0.308014 0.237457 0.027283
0.375854 0.271912 0.040649
0.450378 0.308197 0.055725
0.531647 0.346283 0.072693
0.580841 0.361969 0.085785
0.623718 0.373566 0.098083
0.666565 0.385101 0.110352
0.709381 0.396667 0.122620
0.752258 0.408234 0.134888
0.795074 0.419800 0.147095
0.837921 0.431366 0.159363
0.880768 0.442932 0.171631
0.923615 0.454529 0.183899
0.966431 0.466095 0.196136
0.993652 0.477661 0.208405
1.000000 0.489227 0.220673
1.000000 0.500793 0.232941
1.000000 0.512360 0.245178
1.000000 0.523926 0.257446
1.000000 0.535522 0.269714
1.000000 0.547058 0.281982
0.000000 0.183563 0.000000
0.017883 0.183563 0.000000
0.040680 0.183563 0.000000
0.061157 0.183563 0.000000
0.081573 0.183563 0.000000
0.101990 0.183563 0.000000
0.122345 0.183563 0.000000
0.142761 0.183563 0.000000
0.163147 0.183563 0.000000
0.183563 0.183563 0.000000
0.236664 0.216003 0.002319
0.296509 0.250336 0.013794
0.363129 0.286499 0.029846
0.436462 0.324463 0.043854
0.516541 0.364258 0.059692
0.573120 0.385529 0.073547
0.616028 0.397064 0.085815
0.658844 0.408661 0.098083
0.701691 0.420227 0.110352
0.744507 0.431793 0.122620
0.787384 0.443359 0.134888
0.830200 0.454926 0.147095
0.873047 0.466492 0.159363
0.915894 0.478058 0.171631
0.958740 0.489655 0.183899
0.986847 0.501221 0.196136
1.000000 0.512787 0.208405
1.000000 0.524353 0.220673
1.000000 0.535919 0.232941
1.000000 0.547455 0.245178
1.000000 0.559021 0.257446
1.000000 0.570618 0.269714
0.000000 0.226593 0.000000
0.022552 0.226593 0.000000
0.045258 0.226593 0.000000
0.067993 0.226593 0.000000
0.090637 0.226593 0.000000
0.113312 0.226593 0.000000
0.135925 0.226593 0.000000
0.158600 0.226593 0.000000
0.181274 0.226593 0.000000
0.203918 0.226593 0.000000
0.226593 0.226593 0.000000
0.285217 0.262604 0.002869
0.350586 0.300415 0.016510
0.422760 0.340088 0.032318
0.501617 0.381561 0.047058
0.565399 0.409088 0.061310
0.608307 0.420624 0.073547
0.651154 0.432190 0.085815
0.693970 0.443787 0.098083
0.736816 0.455353 0.110352
0.779633 0.466919 0.122620
0.822510 0.478485 0.134888
0.865326 0.490051 0.147095
0.908173 0.501617 0.159363
0.951019 0.513184 0.171631
0.980072 0.524780 0.183899
1.000000 0.536346 0.196136
1.000000 0.547913 0.208405
1.000000 0.559479 0.220673
1.000000 0.571014 0.232941
1.000000 0.582581 0.245178
1.000000 0.594147 0.257446
0.000000 0.274170 0.000000
0.024597 0.274170 0.000000
0.049805 0.274170 0.000000
0.074768 0.274170 0.000000
0.099670 0.274170 0.000000
0.124634 0.274170 0.000000
0.149567 0.274170 0.000000
0.174469 0.274170 0.000000
0.199402 0.274170 0.000000
0.224335 0.274170 0.000000
0.249237 0.274170 0.000000
0.274170 0.274170 0.000000
0.338318 0.313690 0.003510
0.409241 0.355011 0.019623
0.486938 0.398163 0.034607
0.557709 0.432617 0.048981
0.600555 0.444183 0.061310
0.643433 0.455750 0.073547
0.686249 0.467316 0.085815
0.729095 0.478912 0.098083
0.771912 0.490479 0.110352
0.814758 0.502045 0.122620
0.857635 0.513611 0.134888
0.900452 0.525177 0.147095
0.943298 0.536743 0.159363
0.973267 0.548309 0.171631
0.998169 0.559906 0.183899
1.000000 0.571472 0.196136
1.000000 0.583038 0.208405
1.000000 0.594574 0.220673
1.000000 0.606140 0.232941
1.000000 0.617706 0.245178
0.000000 0.326294 0.000000
0.026794 0.326294 0.000000
0.054352 0.326294 0.000000
0.081573 0.326294 0.000000
0.108765 0.326294 0.000000
0.135925 0.326294 0.000000
0.163147 0.326294 0.000000
0.190338 0.326294 0.000000
0.217499 0.326294 0.000000
0.244720 0.326294 0.000000
0.271912 0.326294 0.000000
0.299103 0.326294 0.000000
0.326294 0.326294 0.000000
0.395996 0.369293 0.004150
0.472412 0.414154 0.022827
0.549988 0.456146 0.036713
0.592865 0.467743 0.048981
0.635681 0.479309 0.061310
0.678558 0.490875 0.073547
0.721375 0.502441 0.085815
0.764221 0.514038 0.098083
0.807037 0.525604 0.110352
0.849915 0.537170 0.122620
0.892731 0.548737 0.134888
0.935577 0.560303 0.147095
0.966492 0.571869 0.159363
0.992523 0.583435 0.171631
1.000000 0.595032 0.183899
1.000000 0.606567 0.196136
1.000000 0.618134 0.208405
1.000000 0.629700 0.220673
1.000000 0.641266 0.232941
0.000000 0.382935 0.000000
0.029175 0.382935 0.000000
0.058899 0.382935 0.000000
0.088348 0.382935 0.000000
0.117828 0.382935 0.000000
0.147278 0.382935 0.000000
0.176727 0.382935 0.000000
0.206177 0.382935 0.000000
0.235657 0.382935 0.000000
0.265106 0.382935 0.000000
0.294556 0.382935 0.000000
0.324005 0.382935 0.000000
0.353485 0.382935 0.000000
0.382935 0.382935 0.000000
0.458160 0.429474 0.004852
0.540100 0.477814 0.024170
0.585144 0.491302 0.036713
0.627991 0.502869 0.048981
0.670807 0.514435 0.061310
0.713684 0.526001 0.073547
0.756500 0.537567 0.085815
0.799347 0.549164 0.098083
0.842163 0.560730 0.110352
0.885040 0.572296 0.122620
0.927856 0.583862 0.134888
0.959656 0.595428 0.147095
0.986847 0.606995 0.159363
1.000000 0.618530 0.171631
1.000000 0.630127 0.183899
1.000000 0.641693 0.196136
1.000000 0.653259 0.208405
1.000000 0.664825 0.220673
0.000000 0.444122 0.000000
0.031677 0.444122 0.000000
0.063416 0.444122 0.000000
0.095154 0.444122 0.000000
0.126892 0.444122 0.000000
0.158600 0.444122 0.000000
0.190338 0.444122 0.000000
0.222076 0.444122 0.000000
0.253754 0.444122 0.000000
0.285492 0.444122 0.000000
0.317230 0.444122 0.000000
0.348938 0.444122 0.000000
0.380676 0.444122 0.000000
0.412384 0.444122 0.000000
0.444122 0.444122 0.000000
0.524841 0.494141 0.005646
0.577454 0.514862 0.024261
0.620270 0.526428 0.036713
0.663116 0.537994 0.048981
0.705933 0.549561 0.061310
0.748810 0.561127 0.073547
0.791626 0.572693 0.085815
0.834473 0.584290 0.098083
0.877289 0.595856 0.110352
0.920166 0.607422 0.122620
0.952881 0.618988 0.134888
0.981201 0.630554 0.147095
1.000000 0.642090 0.159363
1.000000 0.653656 0.171631
1.000000 0.665253 0.183899
1.000000 0.676819 0.196136
1.000000 0.688385 0.208405
0.000000 0.509827 0.000000
0.033813 0.509827 0.000000
0.067993 0.509827 0.000000
0.101990 0.509827 0.000000
0.135925 0.509827 0.000000
0.169922 0.509827 0.000000
0.203918 0.509827 0.000000
0.237915 0.509827 0.000000
0.271912 0.509827 0.000000
0.305908 0.509827 0.000000
0.339905 0.509827 0.000000
0.373871 0.509827 0.000000
0.407837 0.509827 0.000000
0.441833 0.509827 0.000000
0.475830 0.509827 0.000000
0.509827 0.509827 0.000000
0.569702 0.538391 0.005829
0.612549 0.549988 0.024261
0.655396 0.561554 0.036713
0.698212 0.573120 0.048981
0.741058 0.584686 0.061310
0.783936 0.596252 0.073547
0.826752 0.607819 0.085815
0.869598 0.619415 0.098083
0.912415 0.630981 0.110352
0.946075 0.642548 0.122620
0.975525 0.654083 0.134888
1.000000 0.665649 0.147095
1.000000 0.677216 0.159363
1.000000 0.688782 0.171631
1.000000 0.700378 0.183899
1.000000 0.711945 0.196136
0.000000 0.561981 0.000000
0.034943 0.561981 0.000000
0.070251 0.561981 0.000000
0.105377 0.561981 0.000000
0.140472 0.561981 0.000000
0.175598 0.561981 0.000000
0.210724 0.561981 0.000000
0.245850 0.561981 0.000000
0.280975 0.561981 0.000000
0.316101 0.561981 0.000000
0.351227 0.561981 0.000000
0.386353 0.561981 0.000000
0.421478 0.561981 0.000000
0.456604 0.561981 0.000000
0.491699 0.561981 0.000000
0.526825 0.561981 0.000000
0.561981 0.561981 0.000000
0.604828 0.573547 0.005829
0.647644 0.585114 0.024261
0.690521 0.596680 0.036713
0.733337 0.608246 0.048981
0.776184 0.619843 0.061310
0.819031 0.631409 0.073547
0.861877 0.642975 0.085785
0.904694 0.654541 0.098053
0.939270 0.666107 0.110321
0.969879 0.677643 0.122589
0.998169 0.689209 0.134827
1.000000 0.700775 0.147095
1.000000 0.712372 0.159363
1.000000 0.723938 0.171631
1.000000 0.735504 0.183899
0.000000 0.597107 0.000000
0.034943 0.597107 0.000000
0.070251 0.597107 0.000000
0.105377 0.597107 0.000000
0.140472 0.597107 0.000000
0.175598 0.597107 0.000000
0.210724 0.597107 0.000000
0.245850 0.597107 0.000000
0.280975 0.597107 0.000000
0.316101 0.597107 0.000000
0.351227 0.597107 0.000000
0.386353 0.597107 0.000000
0.421478 0.597107 0.000000
0.456604 0.597107 0.000000
0.491699 0.597107 0.000000
0.526825 0.597107 0.000000
0.561981 0.597107 0.000000
0.597107 0.597107 0.000000
0.639954 0.608673 0.005829
0.682770 0.620239 0.024261
0.725647 0.631805 0.036713
0.768463 0.643372 0.048981
0.811310 0.654968 0.061310
0.854156 0.666534 0.073547
0.897003 0.678101 0.085785
0.932495 0.689667 0.098053
0.964172 0.701202 0.110321
0.993652 0.712769 0.122589
1.000000 0.724335 0.134827
1.000000 0.735901 0.147095
1.000000 0.747498 0.159363
1.000000 0.759064 0.171631
0.000000 0.632233 0.000000
0.034943 0.632233 0.000000
0.070251 0.632233 0.000000
0.105377 0.632233 0.000000
0.140472 0.632233 0.000000
0.175598 0.632233 0.000000
0.210724 0.632233 0.000000
0.245850 0.632233 0.000000
0.280975 0.632233 0.000000
0.316101 0.632233 0.000000
0.351227 0.632233 0.000000
0.386353 0.632233 0.000000
0.421478 0.632233 0.000000
0.456604 0.632233 0.000000
0.491699 0.632233 0.000000
0.526825 0.632233 0.000000
0.561981 0.632233 0.000000
0.597107 0.632233 0.000000
0.632233 0.632233 0.000000
0.675079 0.643799 0.005829
0.717896 0.655365 0.024261
0.760773 0.666931 0.036713
0.803589 0.678497 0.048981
0.846436 0.690094 0.061310
0.889282 0.701660 0.073547
0.925659 0.713226 0.085785
0.958527 0.724762 0.098053
0.989105 0.736328 0.110321
1.000000 0.747894 0.122589
1.000000 0.759460 0.134827
1.000000 0.771027 0.147095
1.000000 0.782623 0.159363
0.000000 0.667358 0.000000
0.034943 0.667358 0.000000
0.070251 0.667358 0.000000
0.105377 0.667358 0.000000
0.140472 0.667358 0.000000
0.175598 0.667358 0.000000
0.210724 0.667358 0.000000
0.245850 0.667358 0.000000
0.280975 0.667358 0.000000
0.316101 0.667358 0.000000
0.351227 0.667358 0.000000
0.386353 0.667358 0.000000
0.421478 0.667358 0.000000
0.456604 0.667358 0.000000
0.491699 0.667358 0.000000
0.526825 0.667358 0.000000
0.561981 0.667358 0.000000
0.597107 0.667358 0.000000
0.632233 0.667358 0.000000
0.667358 0.667358 0.000000
0.710175 0.678925 0.005829
0.753021 0.690491 0.024261
0.795868 0.702057 0.036713
0.838715 0.713623 0.048981
0.881561 0.725220 0.061310
0.918854 0.736755 0.073547
0.952850 0.748322 0.085785
0.984589 0.759888 0.098053
1.000000 0.771454 0.110321
1.000000 0.783020 0.122589
1.000000 0.794586 0.134827
1.000000 0.806152 0.147095
0.000000 0.702484 0.000000
0.034943 0.702484 0.000000
0.070251 0.702484 0.000000
0.105377 0.702484 0.000000
0.140472 0.702484 0.000000
0.175598 0.702484 0.000000
0.210724 0.702484 0.000000
0.245850 0.702484 0.000000
0.280975 0.702484 0.000000
0.316101 0.702484 0.000000
0.351227 0.702484 0.000000
0.386353 0.702484 0.000000
0.421478 0.702484 0.000000
0.456604 0.702484 0.000000
0.491699 0.702484 0.000000
0.526825 0.702484 0.000000
0.561981 0.702484 0.000000
0.597107 0.702484 0.000000
0.632233 0.702484 0.000000
0.667358 0.702484 0.000000
0.702484 0.702484 0.000000
0.745300 0.714050 0.005829
0.788177 0.725616 0.024261
0.830994 0.737183 0.036713
0.873840 0.748718 0.048981
0.912079 0.760315 0.061310
0.947205 0.771881 0.073547
0.980072 0.783447 0.085785
1.000000 0.795013 0.098053
1.000000 0.806580 0.110321
1.000000 0.818146 0.122589
1.000000 0.829712 0.134827
0.000000 0.737610 0.000000
0.034943 0.737610 0.000000
0.070251 0.737610 0.000000
0.105377 0.737610 0.000000
0.140472 0.737610 0.000000
0.175598 0.737610 0.000000
0.210724 0.737610 0.000000
0.245850 0.737610 0.000000
0.280975 0.737610 0.000000
0.316101 0.737610 0.000000
0.351227 0.737610 0.000000
0.386353 0.737610 0.000000
0.421478 0.737610 0.000000
0.456604 0.737610 0.000000
0.491699 0.737610 0.000000
0.526825 0.737610 0.000000
0.561981 0.737610 0.000000
0.597107 0.737610 0.000000
0.632233 0.737610 0.000000
0.667358 0.737610 0.000000
0.702484 0.737610 0.000000
0.737610 0.737610 0.000000
0.780426 0.748932 0.005829
0.823303 0.760254 0.024261
0.866119 0.771606 0.036713
0.905273 0.782928 0.048981
0.941528 0.794250 0.061310
0.975525 0.805573 0.073547
1.000000 0.816925 0.085785
1.000000 0.828247 0.098053
1.000000 0.839569 0.110321
1.000000 0.850922 0.122589
0.000000 0.772736 0.000000
0.034943 0.772736 0.000000
0.070251 0.772736 0.000000
0.105377 0.772736 0.000000
0.140472 0.772736 0.000000
0.175598 0.772736 0.000000
0.210724 0.772736 0.000000
0.245850 0.772736 0.000000
0.280975 0.772736 0.000000
0.316101 0.772736 0.000000
0.351227 0.772736 0.000000
0.386353 0.772736 0.000000
0.421478 0.772736 0.000000
0.456604 0.772736 0.000000
0.491699 0.772736 0.000000
0.526825 0.772736 0.000000
0.561981 0.772736 0.000000
0.597107 0.772736 0.000000
0.632233 0.772736 0.000000
0.667358 0.772736 0.000000
0.702484 0.772736 0.000000
0.737610 0.772736 0.000000
0.772736 0.772736 0.000000
0.815552 0.782928 0.005829
0.858429 0.793121 0.024261
0.898499 0.803314 0.036713
0.935883 0.813507 0.048981
0.971008 0.823700 0.061310
1.000000 0.833893 0.073547
1.000000 0.844086 0.085785
1.000000 0.854309 0.098053
1.000000 0.864502 0.110321
0.000000 0.807831 0.000000
0.034943 0.807831 0.000000
0.070251 0.807831 0.000000
0.105377 0.807831 0.000000
0.140472 0.807831 0.000000
0.175598 0.807831 0.000000
0.210724 0.807831 0.000000
0.245850 0.807831 0.000000
0.280975 0.807831 0.000000
0.316101 0.807831 0.000000
0.351227 0.807831 0.000000
0.386353 0.807831 0.000000
0.421478 0.807831 0.000000
0.456604 0.807831 0.000000
0.491699 0.807831 0.000000
0.526825 0.807831 0.000000
0.561981 0.807831 0.000000
0.597107 0.807831 0.000000
0.632233 0.807831 0.000000
0.667358 0.807831 0.000000
0.702484 0.807831 0.000000
0.737610 0.807831 0.000000
0.772736 0.807831 0.000000
0.807831 0.807831 0.000000
0.850677 0.816925 0.005829
0.891693 0.825989 0.024261
0.930206 0.835022 0.036713
0.966492 0.844086 0.048981
1.000000 0.853180 0.061310
1.000000 0.862244 0.073547
1.000000 0.871277 0.085785
1.000000 0.880341 0.098053
0.000000 0.842957 0.000000
0.034943 0.842957 0.000000
0.070251 0.842957 0.000000
0.105377 0.842957 0.000000
0.140472 0.842957 0.000000
0.175598 0.842957 0.000000
0.210724 0.842957 0.000000
0.245850 0.842957 0.000000
0.280975 0.842957 0.000000
0.316101 0.842957 0.000000
0.351227 0.842957 0.000000
0.386353 0.842957 0.000000
0.421478 0.842957 0.000000
0.456604 0.842957 0.000000
0.491699 0.842957 0.000000
0.526825 0.842957 0.000000
0.561981 0.842957 0.000000
0.597107 0.842957 0.000000
0.632233 0.842957 0.000000
0.667358 0.842957 0.000000
0.702484 0.842957 0.000000
0.737610 0.842957 0.000000
0.772736 0.842957 0.000000
0.807831 0.842957 0.000000
0.842957 0.842957 0.000000
0.884888 0.850922 0.005829
0.924530 0.858826 0.024261
0.961914 0.866760 0.036713
0.997040 0.874695 0.048981
1.000000 0.882599 0.061310
1.000000 0.890564 0.073547
1.000000 0.898499 0.085785
0.000000 0.878082 0.000000
0.034943 0.878082 0.000000
0.070251 0.878082 0.000000
0.105377 0.878082 0.000000
0.140472 0.878082 0.000000
0.175598 0.878082 0.000000
0.210724 0.878082 0.000000
0.245850 0.878082 0.000000
0.280975 0.878082 0.000000
0.316101 0.878082 0.000000
0.351227 0.878082 0.000000
0.386353 0.878082 0.000000
0.421478 0.878082 0.000000
0.456604 0.878082 0.000000
0.491699 0.878082 0.000000
0.526825 0.878082 0.000000
0.561981 0.878082 0.000000
0.597107 0.878082 0.000000
0.632233 0.878082 0.000000
0.667358 0.878082 0.000000
0.702484 0.878082 0.000000
0.737610 0.878082 0.000000
0.772736 0.878082 0.000000
0.807831 0.878082 0.000000
0.842957 0.878082 0.000000
0.878082 0.878082 0.000000
0.918854 0.884888 0.005829
0.957397 0.891693 0.024261
0.993652 0.898499 0.036713
1.000000 0.905273 0.048981
1.000000 0.912079 0.061310
1.000000 0.918854 0.073547
0.000000 0.913208 0.000000
0.034943 0.913208 0.000000
0.070251 0.913208 0.000000
0.105377 0.913208 0.000000
0.140472 0.913208 0.000000
0.175598 0.913208 0.000000
0.210724 0.913208 0.000000
0.245850 0.913208 0.000000
0.280975 0.913208 0.000000
0.316101 0.913208 0.000000
0.351227 0.913208 0.000000
0.386353 0.913208 0.000000
0.421478 0.913208 0.000000
0.456604 0.913208 0.000000
0.491699 0.913208 0.000000
0.526825 0.913208 0.000000
0.561981 0.913208 0.000000
0.597107 0.913208 0.000000
0.632233 0.913208 0.000000
0.667358 0.913208 0.000000
0.702484 0.913208 0.000000
0.737610 0.913208 0.000000
0.772736 0.913208 0.000000
0.807831 0.913208 0.000000
0.842957 0.913208 0.000000
0.878082 0.913208 0.000000
0.913208 0.913208 0.000000
0.952850 0.918854 0.005829
0.990265 0.924530 0.024261
1.000000 0.930206 0.036713
1.000000 0.935883 0.048981
1.000000 0.941528 0.061310
0.000000 0.948334 0.000000
0.034943 0.948334 0.000000
0.070251 0.948334 0.000000
0.105377 0.948334 0.000000
0.140472 0.948334 0.000000
0.175598 0.948334 0.000000
0.210724 0.948334 0.000000
0.245850 0.948334 0.000000
0.280975 0.948334 0.000000
0.316101 0.948334 0.000000
0.351227 0.948334 0.000000
0.386353 0.948334 0.000000
0.421478 0.948334 0.000000
0.456604 0.948334 0.000000
0.491699 0.948334 0.000000
0.526825 0.948334 0.000000
0.561981 0.948334 0.000000
0.597107 0.948334 0.000000
