portrait-pop-8.CUBE
#Created by: Adobe Photoshop Export Color Lookup Plugin
TITLE "pp-8"
#LUT size
LUT_3D_SIZE 32
#data domain
DOMAIN_MIN 0.0 0.0 0.0
DOMAIN_MAX 1.0 1.0 1.0
#LUT data points
0.026886 0.026886 0.026886
0.032379 0.032379 0.032379
0.037811 0.037811 0.037811
0.043274 0.043274 0.043274
0.048737 0.048737 0.048737
0.054199 0.054199 0.054199
0.059692 0.059692 0.059692
0.065094 0.065094 0.065094
0.070557 0.070557 0.070557
0.076019 0.076019 0.076019
0.081482 0.081482 0.081482
0.086945 0.086945 0.086945
0.092377 0.092377 0.092377
0.097839 0.097839 0.097839
0.103302 0.103302 0.103302
0.108734 0.108734 0.108734
0.114197 0.114197 0.114197
0.119598 0.119598 0.119598
0.125031 0.125031 0.125031
0.130493 0.130493 0.130493
0.135925 0.135925 0.135925
0.141357 0.141357 0.141357
0.146790 0.146790 0.146790
0.152191 0.152191 0.152191
0.157654 0.157654 0.157654
0.163025 0.163025 0.163025
0.168488 0.168488 0.168488
0.173889 0.173889 0.173889
0.179260 0.179260 0.179260
0.184692 0.184692 0.184692
0.190063 0.190063 0.190063
0.195465 0.195465 0.195465
0.049957 0.049957 0.049957
0.055420 0.055420 0.055420
0.060883 0.060883 0.060883
0.066315 0.066315 0.066315
0.071808 0.071808 0.071808
0.077271 0.077271 0.077271
0.082703 0.082703 0.082703
0.088165 0.088165 0.088165
0.093597 0.093597 0.093597
0.099060 0.099060 0.099060
0.104523 0.104523 0.104523
0.109955 0.109955 0.109955
0.115387 0.115387 0.115387
0.120819 0.120819 0.120819
0.126282 0.126282 0.126282
0.131714 0.131714 0.131714
0.137115 0.137115 0.137115
0.142578 0.142578 0.142578
0.148010 0.148010 0.148010
0.153412 0.153412 0.153412
0.158844 0.158844 0.158844
0.164246 0.164246 0.164246
0.169678 0.169678 0.169678
0.175110 0.175110 0.175110
0.180481 0.180481 0.180481
0.185913 0.185913 0.185913
0.191284 0.191284 0.191284
0.196686 0.196686 0.196686
0.202087 0.202087 0.202087
0.207458 0.207458 0.207458
0.212860 0.212860 0.212860
0.218201 0.218201 0.218201
0.073029 0.073029 0.073029
0.078491 0.078491 0.078491
0.083923 0.083923 0.083923
0.089386 0.089386 0.089386
0.094818 0.094818 0.094818
0.100281 0.100281 0.100281
0.105743 0.105743 0.105743
0.111145 0.111145 0.111145
0.116608 0.116608 0.116608
0.122040 0.122040 0.122040
0.127472 0.127472 0.127472
0.132935 0.132935 0.132935
0.138336 0.138336 0.138336
0.143799 0.143799 0.143799
0.149170 0.149170 0.149170
0.154633 0.154633 0.154633
0.160065 0.160065 0.160065
0.165466 0.165466 0.165466
0.170868 0.170868 0.170868
0.176300 0.176300 0.176300
0.181702 0.181702 0.181702
0.187103 0.187103 0.187103
0.192505 0.192505 0.192505
0.197906 0.197906 0.197906
0.203308 0.203308 0.203308
0.208649 0.208649 0.208649
0.214050 0.214050 0.214050
0.219391 0.219391 0.219391
0.224792 0.224792 0.224792
0.230164 0.230164 0.230164
0.235504 0.235504 0.235504
0.240875 0.240875 0.240875
0.096039 0.096039 0.096039
0.101501 0.101501 0.101501
0.106964 0.106964 0.106964
0.112366 0.112366 0.112366
0.117828 0.117828 0.117828
0.123260 0.123260 0.123260
0.128693 0.128693 0.128693
0.134155 0.134155 0.134155
0.139557 0.139557 0.139557
0.144989 0.144989 0.144989
0.150421 0.150421 0.150421
0.155853 0.155853 0.155853
0.161285 0.161285 0.161285
0.166656 0.166656 0.166656
0.172089 0.172089 0.172089
0.177521 0.177521 0.177521
0.182892 0.182892 0.182892
0.188324 0.188324 0.188324
0.193695 0.193695 0.193695
0.199097 0.199097 0.199097
0.204498 0.204498 0.204498
0.209869 0.209869 0.209869
0.215271 0.215271 0.215271
0.220642 0.220642 0.220642
0.225983 0.225983 0.225983
0.231354 0.231354 0.231354
0.236725 0.236725 0.236725
0.242065 0.242065 0.242065
0.247437 0.247437 0.247437
0.252777 0.252777 0.252777
0.258118 0.258118 0.258118
0.263428 0.263428 0.263428
0.119049 0.119049 0.119049
0.124451 0.124451 0.124451
0.129913 0.129913 0.129913
0.135345 0.135345 0.135345
0.140778 0.140778 0.140778
0.146210 0.146210 0.146210
0.151642 0.151642 0.151642
0.157043 0.157043 0.157043
0.162476 0.162476 0.162476
0.167877 0.167877 0.167877
0.173309 0.173309 0.173309
0.178741 0.178741 0.178741
0.184113 0.184113 0.184113
0.189514 0.189514 0.189514
0.194885 0.194885 0.194885
0.200317 0.200317 0.200317
0.205688 0.205688 0.205688
0.211060 0.211060 0.211060
0.216461 0.216461 0.216461
0.221832 0.221832 0.221832
0.227203 0.227203 0.227203
0.232574 0.232574 0.232574
0.237915 0.237915 0.237915
0.243256 0.243256 0.243256
0.248627 0.248627 0.248627
0.253967 0.253967 0.253967
0.259308 0.259308 0.259308
0.264618 0.264618 0.264618
0.269958 0.269958 0.269958
0.275299 0.275299 0.275299
0.280579 0.280579 0.280579
0.285919 0.285919 0.285919
0.141968 0.141968 0.141968
0.147430 0.147430 0.147430
0.152863 0.152863 0.152863
0.158264 0.158264 0.158264
0.163696 0.163696 0.163696
0.169098 0.169098 0.169098
0.174500 0.174500 0.174500
0.179932 0.179932 0.179932
0.185303 0.185303 0.185303
0.190735 0.190735 0.190735
0.196106 0.196106 0.196106
0.201508 0.201508 0.201508
0.206909 0.206909 0.206909
0.212280 0.212280 0.212280
0.217651 0.217651 0.217651
0.222992 0.222992 0.222992
0.228394 0.228394 0.228394
0.233765 0.233765 0.233765
0.239105 0.239105 0.239105
0.244476 0.244476 0.244476
0.249847 0.249847 0.249847
0.255157 0.255157 0.255157
0.260498 0.260498 0.260498
0.265808 0.265808 0.265808
0.271149 0.271149 0.271149
0.276489 0.276489 0.276489
0.281769 0.281769 0.281769
0.287109 0.287109 0.287109
0.292389 0.292389 0.292389
0.297699 0.297699 0.297699
0.302979 0.302979 0.302979
0.308258 0.308258 0.308258
0.164917 0.164917 0.164917
0.170288 0.170288 0.170288
0.175720 0.175720 0.175720
0.181152 0.181152 0.181152
0.186523 0.186523 0.186523
0.191925 0.191925 0.191925
0.197296 0.197296 0.197296
0.202728 0.202728 0.202728
0.208099 0.208099 0.208099
0.213470 0.213470 0.213470
0.218842 0.218842 0.218842
0.224213 0.224213 0.224213
0.229584 0.229584 0.229584
0.234985 0.234985 0.234985
0.240295 0.240295 0.240295
0.245667 0.245667 0.245667
0.251038 0.251038 0.251038
0.256348 0.256348 0.256348
0.261719 0.261719 0.261719
0.266998 0.266998 0.266998
0.272339 0.272339 0.272339
0.277679 0.277679 0.277679
0.282959 0.282959 0.282959
0.288300 0.288300 0.288300
0.293610 0.293610 0.293610
0.298889 0.298889 0.298889
0.304169 0.304169 0.304169
0.309448 0.309448 0.309448
0.314728 0.314728 0.314728
0.320007 0.320007 0.320007
0.325226 0.325226 0.325226
0.330505 0.330505 0.330505
0.187744 0.187744 0.187744
0.193146 0.193146 0.193146
0.198517 0.198517 0.198517
0.203918 0.203918 0.203918
0.209320 0.209320 0.209320
0.214691 0.214691 0.214691
0.220062 0.220062 0.220062
0.225464 0.225464 0.225464
0.230774 0.230774 0.230774
0.236176 0.236176 0.236176
0.241486 0.241486 0.241486
0.246857 0.246857 0.246857
0.252228 0.252228 0.252228
0.257538 0.257538 0.257538
0.262909 0.262909 0.262909
0.268188 0.268188 0.268188
0.273529 0.273529 0.273529
0.278870 0.278870 0.278870
0.284149 0.284149 0.284149
0.289459 0.289459 0.289459
0.294800 0.294800 0.294800
0.300049 0.300049 0.300049
0.305359 0.305359 0.305359
0.310608 0.310608 0.310608
0.315887 0.315887 0.315887
0.321167 0.321167 0.321167
0.326416 0.326416 0.326416
0.331696 0.331696 0.331696
0.336884 0.336884 0.336884
0.342163 0.342163 0.342163
0.347382 0.347382 0.347382
0.352600 0.352600 0.352600
0.210510 0.210510 0.210510
0.215881 0.215881 0.215881
0.221252 0.221252 0.221252
0.226654 0.226654 0.226654
0.231995 0.231995 0.231995
0.237366 0.237366 0.237366
0.242676 0.242676 0.242676
0.248047 0.248047 0.248047
0.253418 0.253418 0.253418
0.258728 0.258728 0.258728
0.264069 0.264069 0.264069
0.269379 0.269379 0.269379
0.274719 0.274719 0.274719
0.280060 0.280060 0.280060
0.285339 0.285339 0.285339
0.290649 0.290649 0.290649
0.295990 0.295990 0.295990
0.301239 0.301239 0.301239
0.306549 0.306549 0.306549
0.311798 0.311798 0.311798
0.317078 0.317078 0.317078
0.322357 0.322357 0.322357
0.327576 0.327576 0.327576
0.332855 0.332855 0.332855
0.338074 0.338074 0.338074
0.343323 0.343323 0.343323
0.348541 0.348541 0.348541
0.353760 0.353760 0.353760
0.358978 0.358978 0.358978
0.364197 0.364197 0.364197
0.369354 0.369354 0.369354
0.374573 0.374573 0.374573
0.233185 0.233185 0.233185
0.238556 0.238556 0.238556
0.243896 0.243896 0.243896
0.249268 0.249268 0.249268
0.254608 0.254608 0.254608
0.259918 0.259918 0.259918
0.265259 0.265259 0.265259
0.270569 0.270569 0.270569
0.275909 0.275909 0.275909
0.281250 0.281250 0.281250
0.286530 0.286530 0.286530
0.291840 0.291840 0.291840
0.297119 0.297119 0.297119
0.302429 0.302429 0.302429
0.307709 0.307709 0.307709
0.312958 0.312958 0.312958
0.318268 0.318268 0.318268
0.323517 0.323517 0.323517
0.328766 0.328766 0.328766
0.334015 0.334015 0.334015
0.339233 0.339233 0.339233
0.344482 0.344482 0.344482
0.349701 0.349701 0.349701
0.354919 0.354919 0.354919
0.360138 0.360138 0.360138
0.365356 0.365356 0.365356
0.370514 0.370514 0.370514
0.375732 0.375732 0.375732
0.380890 0.380890 0.380890
0.386078 0.386078 0.386078
0.391235 0.391235 0.391235
0.396362 0.396362 0.396362
0.255798 0.255798 0.255798
0.261139 0.261139 0.261139
0.266479 0.266479 0.266479
0.271759 0.271759 0.271759
0.277100 0.277100 0.277100
0.282440 0.282440 0.282440
0.287720 0.287720 0.287720
0.293030 0.293030 0.293030
0.298340 0.298340 0.298340
0.303589 0.303589 0.303589
0.308899 0.308899 0.308899
0.314148 0.314148 0.314148
0.319427 0.319427 0.319427
0.324707 0.324707 0.324707
0.329926 0.329926 0.329926
0.335175 0.335175 0.335175
0.340454 0.340454 0.340454
0.345642 0.345642 0.345642
0.350891 0.350891 0.350891
0.356079 0.356079 0.356079
0.361298 0.361298 0.361298
0.366516 0.366516 0.366516
0.371674 0.371674 0.371674
0.376892 0.376892 0.376892
0.382019 0.382019 0.382019
0.387207 0.387207 0.387207
0.392365 0.392365 0.392365
0.397522 0.397522 0.397522
0.402649 0.402649 0.402649
0.407776 0.407776 0.407776
0.412903 0.412903 0.412903
0.418030 0.418030 0.418030
0.278290 0.278290 0.278290
0.283630 0.283630 0.283630
0.288879 0.288879 0.288879
0.294220 0.294220 0.294220
0.299500 0.299500 0.299500
0.304779 0.304779 0.304779
0.310059 0.310059 0.310059
0.315308 0.315308 0.315308
0.320618 0.320618 0.320618
0.325867 0.325867 0.325867
0.331116 0.331116 0.331116
0.336365 0.336365 0.336365
0.341583 0.341583 0.341583
0.346802 0.346802 0.346802
0.352051 0.352051 0.352051
0.357239 0.357239 0.357239
0.362488 0.362488 0.362488
0.367676 0.367676 0.367676
0.372833 0.372833 0.372833
0.378052 0.378052 0.378052
0.383179 0.383179 0.383179
0.388367 0.388367 0.388367
0.393524 0.393524 0.393524
0.398682 0.398682 0.398682
0.403809 0.403809 0.403809
0.408936 0.408936 0.408936
0.414062 0.414062 0.414062
0.419189 0.419189 0.419189
0.424255 0.424255 0.424255
0.429352 0.429352 0.429352
0.434448 0.434448 0.434448
0.439484 0.439484 0.439484
0.300690 0.300690 0.300690
0.305969 0.305969 0.305969
0.311249 0.311249 0.311249
0.316498 0.316498 0.316498
0.321777 0.321777 0.321777
0.327057 0.327057 0.327057
0.332275 0.332275 0.332275
0.337524 0.337524 0.337524
0.342743 0.342743 0.342743
0.347992 0.347992 0.347992
0.353241 0.353241 0.353241
0.358398 0.358398 0.358398
0.363647 0.363647 0.363647
0.368805 0.368805 0.368805
0.374023 0.374023 0.374023
0.379181 0.379181 0.379181
0.384338 0.384338 0.384338
0.389526 0.389526 0.389526
0.394684 0.394684 0.394684
0.399811 0.399811 0.399811
0.404968 0.404968 0.404968
0.410065 0.410065 0.410065
0.415192 0.415192 0.415192
0.420319 0.420319 0.420319
0.425385 0.425385 0.425385
0.430511 0.430511 0.430511
0.435577 0.435577 0.435577
0.440613 0.440613 0.440613
0.445709 0.445709 0.445709
0.450745 0.450745 0.450745
0.455811 0.455811 0.455811
0.460815 0.460815 0.460815
0.322937 0.322937 0.322937
0.328217 0.328217 0.328217
0.333435 0.333435 0.333435
0.338715 0.338715 0.338715
0.343933 0.343933 0.343933
0.349152 0.349152 0.349152
0.354401 0.354401 0.354401
0.359558 0.359558 0.359558
0.364807 0.364807 0.364807
0.369995 0.369995 0.369995
0.375183 0.375183 0.375183
0.380341 0.380341 0.380341
0.385498 0.385498 0.385498
0.390686 0.390686 0.390686
0.395844 0.395844 0.395844
0.400970 0.400970 0.400970
0.406097 0.406097 0.406097
0.411255 0.411255 0.411255
0.416321 0.416321 0.416321
0.421478 0.421478 0.421478
0.426514 0.426514 0.426514
0.431641 0.431641 0.431641
0.436707 0.436707 0.436707
0.441772 0.441772 0.441772
0.446838 0.446838 0.446838
0.451843 0.451843 0.451843
0.456909 0.456909 0.456909
0.461945 0.461945 0.461945
0.466949 0.466949 0.466949
0.471954 0.471954 0.471954
0.476959 0.476959 0.476959
0.481934 0.481934 0.481934
0.345123 0.345123 0.345123
0.350342 0.350342 0.350342
0.355560 0.355560 0.355560
0.360718 0.360718 0.360718
0.365967 0.365967 0.365967
0.371155 0.371155 0.371155
0.376343 0.376343 0.376343
0.381500 0.381500 0.381500
0.386658 0.386658 0.386658
0.391815 0.391815 0.391815
0.397003 0.397003 0.397003
0.402100 0.402100 0.402100
0.407257 0.407257 0.407257
0.412354 0.412354 0.412354
0.417480 0.417480 0.417480
0.422607 0.422607 0.422607
0.427673 0.427673 0.427673
0.432770 0.432770 0.432770
0.437836 0.437836 0.437836
0.442902 0.442902 0.442902
0.447968 0.447968 0.447968
0.453003 0.453003 0.453003
0.458038 0.458038 0.458038
0.463104 0.463104 0.463104
0.468079 0.468079 0.468079
0.473083 0.473083 0.473083
0.478058 0.478058 0.478058
0.483063 0.483063 0.483063
0.488037 0.488037 0.488037
0.492981 0.492981 0.492981
0.497955 0.497955 0.497955
0.502899 0.502899 0.502899
0.367126 0.367126 0.367126
0.372314 0.372314 0.372314
0.377472 0.377472 0.377472
0.382660 0.382660 0.382660
0.387817 0.387817 0.387817
0.392975 0.392975 0.392975
0.398132 0.398132 0.398132
0.403259 0.403259 0.403259
0.408417 0.408417 0.408417
0.413483 0.413483 0.413483
0.418640 0.418640 0.418640
0.423737 0.423737 0.423737
0.428802 0.428802 0.428802
0.433899 0.433899 0.433899
0.438934 0.438934 0.438934
0.444031 0.444031 0.444031
0.449097 0.449097 0.449097
0.454132 0.454132 0.454132
0.459167 0.459167 0.459167
0.464203 0.464203 0.464203
0.469177 0.469177 0.469177
0.474213 0.474213 0.474213
0.479187 0.479187 0.479187
0.484161 0.484161 0.484161
0.489166 0.489166 0.489166
0.494080 0.494080 0.494080
0.499054 0.499054 0.499054
0.503998 0.503998 0.503998
0.508911 0.508911 0.508911
0.513824 0.513824 0.513824
0.518707 0.518707 0.518707
0.523590 0.523590 0.523590
0.389008 0.389008 0.389008
0.394165 0.394165 0.394165
0.399292 0.399292 0.399292
0.404419 0.404419 0.404419
0.409546 0.409546 0.409546
0.414673 0.414673 0.414673
0.419800 0.419800 0.419800
0.424866 0.424866 0.424866
0.429993 0.429993 0.429993
0.435059 0.435059 0.435059
0.440125 0.440125 0.440125
0.445190 0.445190 0.445190
0.450226 0.450226 0.450226
0.455292 0.455292 0.455292
0.460327 0.460327 0.460327
0.465332 0.465332 0.465332
0.470337 0.470337 0.470337
0.475372 0.475372 0.475372
0.480316 0.480316 0.480316
0.485321 0.485321 0.485321
0.490265 0.490265 0.490265
0.495239 0.495239 0.495239
0.500183 0.500183 0.500183
0.505096 0.505096 0.505096
0.510040 0.510040 0.510040
0.514923 0.514923 0.514923
0.519836 0.519836 0.519836
0.524719 0.524719 0.524719
0.529572 0.529572 0.529572
0.534454 0.534454 0.534454
0.539276 0.539276 0.539276
0.544128 0.544128 0.544128
0.410706 0.410706 0.410706
0.415802 0.415802 0.415802
0.420929 0.420929 0.420929
0.425995 0.425995 0.425995
0.431122 0.431122 0.431122
0.436188 0.436188 0.436188
0.441254 0.441254 0.441254
0.446320 0.446320 0.446320
0.451355 0.451355 0.451355
0.456421 0.456421 0.456421
0.461456 0.461456 0.461456
0.466461 0.466461 0.466461
0.471466 0.471466 0.471466
0.476440 0.476440 0.476440
0.481445 0.481445 0.481445
0.486420 0.486420 0.486420
0.491364 0.491364 0.491364
0.496338 0.496338 0.496338
0.501282 0.501282 0.501282
0.506195 0.506195 0.506195
0.511139 0.511139 0.511139
0.515991 0.515991 0.515991
0.520935 0.520935 0.520935
0.525818 0.525818 0.525818
0.530670 0.530670 0.530670
0.535522 0.535522 0.535522
0.540375 0.540375 0.540375
0.545197 0.545197 0.545197
0.550049 0.550049 0.550049
0.554840 0.554840 0.554840
0.559662 0.559662 0.559662
0.564392 0.564392 0.564392
0.432251 0.432251 0.432251
0.437317 0.437317 0.437317
0.442383 0.442383 0.442383
0.447449 0.447449 0.447449
0.452484 0.452484 0.452484
0.457520 0.457520 0.457520
0.462585 0.462585 0.462585
0.467560 0.467560 0.467560
0.472595 0.472595 0.472595
0.477570 0.477570 0.477570
0.482544 0.482544 0.482544
0.487549 0.487549 0.487549
0.492462 0.492462 0.492462
0.497437 0.497437 0.497437
0.502350 0.502350 0.502350
0.507294 0.507294 0.507294
0.512207 0.512207 0.512207
0.517120 0.517120 0.517120
0.522003 0.522003 0.522003
0.526917 0.526917 0.526917
0.531769 0.531769 0.531769
0.536621 0.536621 0.536621
0.541443 0.541443 0.541443
0.546295 0.546295 0.546295
0.551117 0.551117 0.551117
0.555908 0.555908 0.555908
0.560730 0.560730 0.560730
0.565491 0.565491 0.565491
0.570251 0.570251 0.570251
0.575012 0.575012 0.575012
0.579742 0.579742 0.579742
0.584473 0.584473 0.584473
0.453613 0.453613 0.453613
0.458649 0.458649 0.458649
0.463684 0.463684 0.463684
0.468689 0.468689 0.468689
0.473694 0.473694 0.473694
0.478668 0.478668 0.478668
0.483673 0.483673 0.483673
0.488647 0.488647 0.488647
0.493561 0.493561 0.493561
0.498535 0.498535 0.498535
0.503479 0.503479 0.503479
0.508392 0.508392 0.508392
0.513306 0.513306 0.513306
0.518219 0.518219 0.518219
0.523102 0.523102 0.523102
0.528015 0.528015 0.528015
0.532837 0.532837 0.532837
0.537720 0.537720 0.537720
0.542572 0.542572 0.542572
0.547363 0.547363 0.547363
0.552185 0.552185 0.552185
0.556976 0.556976 0.556976
0.561798 0.561798 0.561798
0.566559 0.566559 0.566559
0.571320 0.571320 0.571320
0.576080 0.576080 0.576080
0.580811 0.580811 0.580811
0.585541 0.585541 0.585541
0.590271 0.590271 0.590271
0.594940 0.594940 0.594940
0.599609 0.599609 0.599609
0.604279 0.604279 0.604279
0.474823 0.474823 0.474823
0.479767 0.479767 0.479767
0.484772 0.484772 0.484772
0.489746 0.489746 0.489746
0.494690 0.494690 0.494690
0.499634 0.499634 0.499634
0.504608 0.504608 0.504608
0.509491 0.509491 0.509491
0.514404 0.514404 0.514404
0.519287 0.519287 0.519287
0.524200 0.524200 0.524200
0.529083 0.529083 0.529083
0.533936 0.533936 0.533936
0.538788 0.538788 0.538788
0.543610 0.543610 0.543610
0.548462 0.548462 0.548462
0.553284 0.553284 0.553284
0.558044 0.558044 0.558044
0.562836 0.562836 0.562836
0.567627 0.567627 0.567627
0.572388 0.572388 0.572388
0.577118 0.577118 0.577118
0.581848 0.581848 0.581848
0.586578 0.586578 0.586578
0.591309 0.591309 0.591309
0.595978 0.595978 0.595978
0.600677 0.600677 0.600677
0.605316 0.605316 0.605316
0.609985 0.609985 0.609985
0.614624 0.614624 0.614624
0.619232 0.619232 0.619232
0.623871 0.623871 0.623871
0.495819 0.495819 0.495819
0.500763 0.500763 0.500763
0.505707 0.505707 0.505707
0.510590 0.510590 0.510590
0.515533 0.515533 0.515533
0.520386 0.520386 0.520386
0.525269 0.525269 0.525269
0.530182 0.530182 0.530182
0.535004 0.535004 0.535004
0.539886 0.539886 0.539886
0.544678 0.544678 0.544678
0.549530 0.549530 0.549530
0.554352 0.554352 0.554352
0.559143 0.559143 0.559143
0.563904 0.563904 0.563904
0.568665 0.568665 0.568665
0.573425 0.573425 0.573425
0.578186 0.578186 0.578186
0.582916 0.582916 0.582916
0.587646 0.587646 0.587646
0.592346 0.592346 0.592346
0.597015 0.597015 0.597015
0.601715 0.601715 0.601715
0.606354 0.606354 0.606354
0.611023 0.611023 0.611023
0.615662 0.615662 0.615662
0.620270 0.620270 0.620270
0.624908 0.624908 0.624908
0.629517 0.629517 0.629517
0.634064 0.634064 0.634064
0.638672 0.638672 0.638672
0.643188 0.643188 0.643188
0.516632 0.516632 0.516632
0.521484 0.521484 0.521484
0.526398 0.526398 0.526398
0.531250 0.531250 0.531250
0.536102 0.536102 0.536102
0.540955 0.540955 0.540955
0.545746 0.545746 0.545746
0.550598 0.550598 0.550598
0.555420 0.555420 0.555420
0.560211 0.560211 0.560211
0.564972 0.564972 0.564972
0.569763 0.569763 0.569763
0.574493 0.574493 0.574493
0.579254 0.579254 0.579254
0.583954 0.583954 0.583954
0.588684 0.588684 0.588684
0.593414 0.593414 0.593414
0.598083 0.598083 0.598083
0.602753 0.602753 0.602753
0.607422 0.607422 0.607422
0.612061 0.612061 0.612061
0.616699 0.616699 0.616699
0.621307 0.621307 0.621307
0.625916 0.625916 0.625916
0.630524 0.630524 0.630524
0.635101 0.635101 0.635101
0.639679 0.639679 0.639679
0.644226 0.644226 0.644226
0.648773 0.648773 0.648773
0.653320 0.653320 0.653320
0.657837 0.657837 0.657837
0.662354 0.662354 0.662354
0.537201 0.537201 0.537201
0.542023 0.542023 0.542023
0.546844 0.546844 0.546844
0.551666 0.551666 0.551666
0.556488 0.556488 0.556488
0.561279 0.561279 0.561279
0.566040 0.566040 0.566040
0.570831 0.570831 0.570831
0.575562 0.575562 0.575562
0.580322 0.580322 0.580322
0.585022 0.585022 0.585022
0.589752 0.589752 0.589752
0.594452 0.594452 0.594452
0.599121 0.599121 0.599121
0.603790 0.603790 0.603790
0.608429 0.608429 0.608429
0.613098 0.613098 0.613098
0.617737 0.617737 0.617737
0.622345 0.622345 0.622345
0.626953 0.626953 0.626953
0.631561 0.631561 0.631561
0.636108 0.636108 0.636108
0.640717 0.640717 0.640717
0.645233 0.645233 0.645233
0.649780 0.649780 0.649780
0.654327 0.654327 0.654327
0.658844 0.658844 0.658844
0.663361 0.663361 0.663361
0.667847 0.667847 0.667847
0.672333 0.672333 0.672333
0.676819 0.676819 0.676819
0.681274 0.681274 0.681274
0.557556 0.557556 0.557556
0.562317 0.562317 0.562317
0.567108 0.567108 0.567108
0.571899 0.571899 0.571899
0.576630 0.576630 0.576630
0.581360 0.581360 0.581360
0.586060 0.586060 0.586060
0.590790 0.590790 0.590790
0.595490 0.595490 0.595490
0.600159 0.600159 0.600159
0.604858 0.604858 0.604858
0.609467 0.609467 0.609467
0.614136 0.614136 0.614136
0.618774 0.618774 0.618774
0.623383 0.623383 0.623383
0.627991 0.627991 0.627991
0.632599 0.632599 0.632599
0.637146 0.637146 0.637146
0.641724 0.641724 0.641724
0.646240 0.646240 0.646240
0.650818 0.650818 0.650818
0.655334 0.655334 0.655334
0.659851 0.659851 0.659851
0.664368 0.664368 0.664368
0.668823 0.668823 0.668823
0.673340 0.673340 0.673340
0.677826 0.677826 0.677826
0.682251 0.682251 0.682251
0.686707 0.686707 0.686707
0.691162 0.691162 0.691162
0.695587 0.695587 0.695587
0.700012 0.700012 0.700012
0.577667 0.577667 0.577667
0.582428 0.582428 0.582428
0.587128 0.587128 0.587128
0.591858 0.591858 0.591858
0.596558 0.596558 0.596558
0.601196 0.601196 0.601196
0.605896 0.605896 0.605896
0.610535 0.610535 0.610535
0.615173 0.615173 0.615173
0.619812 0.619812 0.619812
0.624390 0.624390 0.624390
0.628998 0.628998 0.628998
0.633606 0.633606 0.633606
0.638153 0.638153 0.638153
0.642731 0.642731 0.642731
0.647278 0.647278 0.647278
0.651825 0.651825 0.651825
0.656372 0.656372 0.656372
0.660858 0.660858 0.660858
0.665375 0.665375 0.665375
0.669861 0.669861 0.669861
0.674316 0.674316 0.674316
0.678802 0.678802 0.678802
0.683258 0.683258 0.683258
0.687714 0.687714 0.687714
0.692169 0.692169 0.692169
0.696564 0.696564 0.696564
0.700989 0.700989 0.700989
0.705383 0.705383 0.705383
0.709778 0.709778 0.709778
0.714172 0.714172 0.714172
0.718536 0.718536 0.718536
0.597595 0.597595 0.597595
0.602264 0.602264 0.602264
0.606934 0.606934 0.606934
0.611603 0.611603 0.611603
0.616211 0.616211 0.616211
0.620850 0.620850 0.620850
0.625427 0.625427 0.625427
0.630035 0.630035 0.630035
0.634644 0.634644 0.634644
0.639191 0.639191 0.639191
0.643768 0.643768 0.643768
0.648285 0.648285 0.648285
0.652832 0.652832 0.652832
0.657379 0.657379 0.657379
0.661865 0.661865 0.661865
0.666382 0.666382 0.666382
0.670868 0.670868 0.670868
0.675323 0.675323 0.675323
0.679810 0.679810 0.679810
0.684235 0.684235 0.684235
0.688690 0.688690 0.688690
0.693146 0.693146 0.693146
0.697540 0.697540 0.697540
0.701965 0.701965 0.701965
0.706360 0.706360 0.706360
0.710754 0.710754 0.710754
0.715149 0.715149 0.715149
0.719513 0.719513 0.719513
0.723877 0.723877 0.723877
0.728210 0.728210 0.728210
0.732574 0.732574 0.732574
0.736938 0.736938 0.736938
0.617249 0.617249 0.617249
0.621857 0.621857 0.621857
0.626465 0.626465 0.626465
0.631073 0.631073 0.631073
0.635651 0.635651 0.635651
0.640198 0.640198 0.640198
0.644775 0.644775 0.644775
0.649292 0.649292 0.649292
0.653839 0.653839 0.653839
0.658386 0.658386 0.658386
0.662872 0.662872 0.662872
0.667389 0.667389 0.667389
0.671844 0.671844 0.671844
0.676331 0.676331 0.676331
0.680817 0.680817 0.680817
0.685242 0.685242 0.685242
0.689697 0.689697 0.689697
0.694122 0.694122 0.694122
