portrait-pop-8.CUBE
#Created by: Adobe Photoshop Export Color Lookup Plugin
TITLE "pp-8"
#LUT size
LUT_3D_SIZE 8
#data domain
#LUT data points
DOMAIN_MIN 0.000000 0.000000 0.000000
DOMAIN_MAX 0.903226 0.903226 0.903226
0.026886 0.026886 0.026886
0.048737 0.048737 0.048737
0.070557 0.070557 0.070557
0.092377 0.092377 0.092377
0.114197 0.114197 0.114197
0.135925 0.135925 0.135925
0.157654 0.157654 0.157654
0.179260 0.179260 0.179260
0.119049 0.119049 0.119049
0.140778 0.140778 0.140778
0.162476 0.162476 0.162476
0.184113 0.184113 0.184113
0.205688 0.205688 0.205688
0.227203 0.227203 0.227203
0.248627 0.248627 0.248627
0.269958 0.269958 0.269958
0.210510 0.210510 0.210510
0.231995 0.231995 0.231995
0.253418 0.253418 0.253418
0.274719 0.274719 0.274719
0.295990 0.295990 0.295990
0.317078 0.317078 0.317078
0.338074 0.338074 0.338074
0.358978 0.358978 0.358978
0.300690 0.300690 0.300690
0.321777 0.321777 0.321777
0.342743 0.342743 0.342743
0.363647 0.363647 0.363647
0.384338 0.384338 0.384338
0.404968 0.404968 0.404968
0.425385 0.425385 0.425385
0.445709 0.445709 0.445709
0.389008 0.389008 0.389008
0.409546 0.409546 0.409546
0.429993 0.429993 0.429993
0.450226 0.450226 0.450226
0.470337 0.470337 0.470337
0.490265 0.490265 0.490265
0.510040 0.510040 0.510040
0.529572 0.529572 0.529572
0.474823 0.474823 0.474823
0.494690 0.494690 0.494690
0.514404 0.514404 0.514404
0.533936 0.533936 0.533936
0.553284 0.553284 0.553284
0.572388 0.572388 0.572388
0.591309 0.591309 0.591309
0.609985 0.609985 0.609985
0.557556 0.557556 0.557556
0.576630 0.576630 0.576630
0.595490 0.595490 0.595490
0.614136 0.614136 0.614136
0.632599 0.632599 0.632599
0.650818 0.650818 0.650818
0.668823 0.668823 0.668823
0.686707 0.686707 0.686707
0.636688 0.636688 0.636688
0.654846 0.654846 0.654846
0.672852 0.672852 0.672852
0.690674 0.690674 0.690674
0.708313 0.708313 0.708313
0.725830 0.725830 0.725830
0.743164 0.743164 0.743164
0.760376 0.760376 0.760376
0.137756 0.137756 0.137756
0.159424 0.159424 0.159424
0.181122 0.181122 0.181122
0.202667 0.202667 0.202667
0.224213 0.224213 0.224213
0.245636 0.245636 0.245636
0.266968 0.266968 0.266968
0.288269 0.288269 0.288269
0.229004 0.229004 0.229004
0.250427 0.250427 0.250427
0.271729 0.271729 0.271729
0.292999 0.292999 0.292999
0.314117 0.314117 0.314117
0.335144 0.335144 0.335144
0.356049 0.356049 0.356049
0.376862 0.376862 0.376862
0.318817 0.318817 0.318817
0.339844 0.339844 0.339844
0.360687 0.360687 0.360687
0.381470 0.381470 0.381470
0.402069 0.402069 0.402069
0.422577 0.422577 0.422577
0.442871 0.442871 0.442871
0.463043 0.463043 0.463043
0.406647 0.406647 0.406647
0.427124 0.427124 0.427124
0.447388 0.447388 0.447388
0.467529 0.467529 0.467529
0.487488 0.487488 0.487488
0.507263 0.507263 0.507263
0.526825 0.526825 0.526825
0.546234 0.546234 0.546234
0.491943 0.491943 0.491943
0.511658 0.511658 0.511658
0.531219 0.531219 0.531219
0.550568 0.550568 0.550568
0.569733 0.569733 0.569733
0.588654 0.588654 0.588654
0.607361 0.607361 0.607361
0.625885 0.625885 0.625885
0.573975 0.573975 0.573975
0.592865 0.592865 0.592865
0.611542 0.611542 0.611542
0.630005 0.630005 0.630005
0.648254 0.648254 0.648254
0.666351 0.666351 0.666351
0.684204 0.684204 0.684204
0.701935 0.701935 0.701935
0.652313 0.652313 0.652313
0.670349 0.670349 0.670349
0.688202 0.688202 0.688202
0.705872 0.705872 0.705872
0.723389 0.723389 0.723389
0.740753 0.740753 0.740753
0.757965 0.757965 0.757965
0.775055 0.775055 0.775055
0.727295 0.727295 0.727295
0.744629 0.744629 0.744629
0.761780 0.761780 0.761780
0.778870 0.778870 0.778870
0.795776 0.795776 0.795776
0.812622 0.812622 0.812622
0.829315 0.829315 0.829315
0.845917 0.845917 0.845917
0.247406 0.247406 0.247406
0.268768 0.268768 0.268768
0.290009 0.290009 0.290009
0.311188 0.311188 0.311188
0.332214 0.332214 0.332214
0.353149 0.353149 0.353149
0.373932 0.373932 0.373932
0.394623 0.394623 0.394623
0.336884 0.336884 0.336884
0.357819 0.357819 0.357819
0.378571 0.378571 0.378571
0.399231 0.399231 0.399231
0.419678 0.419678 0.419678
0.440033 0.440033 0.440033
0.460236 0.460236 0.460236
0.480225 0.480225 0.480225
0.424255 0.424255 0.424255
0.444580 0.444580 0.444580
0.464722 0.464722 0.464722
0.484680 0.484680 0.484680
0.504486 0.504486 0.504486
0.524109 0.524109 0.524109
0.543549 0.543549 0.543549
0.562744 0.562744 0.562744
0.508911 0.508911 0.508911
0.528442 0.528442 0.528442
0.547852 0.547852 0.547852
0.567017 0.567017 0.567017
0.585999 0.585999 0.585999
0.604767 0.604767 0.604767
0.623322 0.623322 0.623322
0.641632 0.641632 0.641632
0.590210 0.590210 0.590210
0.608948 0.608948 0.608948
0.627411 0.627411 0.627411
0.645721 0.645721 0.645721
0.663818 0.663818 0.663818
0.681732 0.681732 0.681732
0.699463 0.699463 0.699463
0.717041 0.717041 0.717041
0.667847 0.667847 0.667847
0.685730 0.685730 0.685730
0.703400 0.703400 0.703400
0.720947 0.720947 0.720947
0.738342 0.738342 0.738342
0.755585 0.755585 0.755585
0.772675 0.772675 0.772675
0.789612 0.789612 0.789612
0.742188 0.742188 0.742188
0.759399 0.759399 0.759399
0.776489 0.776489 0.776489
0.793396 0.793396 0.793396
0.810242 0.810242 0.810242
0.826965 0.826965 0.826965
0.843597 0.843597 0.843597
0.860138 0.860138 0.860138
0.813995 0.813995 0.813995
0.830688 0.830688 0.830688
0.847321 0.847321 0.847321
0.863800 0.863800 0.863800
0.880280 0.880280 0.880280
0.896637 0.896637 0.896637
0.912964 0.912964 0.912964
0.929230 0.929230 0.929230
0.354889 0.354889 0.354889
0.375702 0.375702 0.375702
0.396332 0.396332 0.396332
0.416809 0.416809 0.416809
0.437195 0.437195 0.437195
0.457397 0.457397 0.457397
0.477478 0.477478 0.477478
0.497284 0.497284 0.497284
0.441711 0.441711 0.441711
0.461884 0.461884 0.461884
0.481903 0.481903 0.481903
0.501740 0.501740 0.501740
0.521393 0.521393 0.521393
0.540802 0.540802 0.540802
0.560089 0.560089 0.560089
0.579132 0.579132 0.579132
0.525757 0.525757 0.525757
0.545135 0.545135 0.545135
0.564362 0.564362 0.564362
0.583374 0.583374 0.583374
0.602142 0.602142 0.602142
0.620697 0.620697 0.620697
0.639099 0.639099 0.639099
0.657257 0.657257 0.657257
0.606323 0.606323 0.606323
0.624847 0.624847 0.624847
0.643158 0.643158 0.643158
0.661285 0.661285 0.661285
0.679230 0.679230 0.679230
0.696991 0.696991 0.696991
0.714569 0.714569 0.714569
0.732025 0.732025 0.732025
0.683228 0.683228 0.683228
0.700958 0.700958 0.700958
0.718506 0.718506 0.718506
0.735901 0.735901 0.735901
0.753174 0.753174 0.753174
0.770264 0.770264 0.770264
0.787292 0.787292 0.787292
0.804138 0.804138 0.804138
0.757019 0.757019 0.757019
0.774078 0.774078 0.774078
0.791046 0.791046 0.791046
0.807892 0.807892 0.807892
0.824646 0.824646 0.824646
0.841278 0.841278 0.841278
0.857849 0.857849 0.857849
0.874298 0.874298 0.874298
0.828369 0.828369 0.828369
0.844971 0.844971 0.844971
0.861511 0.861511 0.861511
0.877960 0.877960 0.877960
0.894379 0.894379 0.894379
0.910675 0.910675 0.910675
0.926971 0.926971 0.926971
0.943176 0.943176 0.943176
0.898010 0.898010 0.898010
0.914307 0.914307 0.914307
0.930603 0.930603 0.930603
0.946808 0.946808 0.946808
0.963013 0.963013 0.963013
0.979156 0.979156 0.979156
0.995300 0.995300 0.995300
1.000000 1.000000 1.000000
0.459137 0.459137 0.459137
0.479156 0.479156 0.479156
0.498993 0.498993 0.498993
0.518646 0.518646 0.518646
0.538116 0.538116 0.538116
0.557434 0.557434 0.557434
0.576508 0.576508 0.576508
0.595367 0.595367 0.595367
0.542480 0.542480 0.542480
0.561737 0.561737 0.561737
0.580719 0.580719 0.580719
0.599548 0.599548 0.599548
0.618134 0.618134 0.618134
0.636566 0.636566 0.636566
0.654724 0.654724 0.654724
0.672760 0.672760 0.672760
0.622284 0.622284 0.622284
0.640625 0.640625 0.640625
0.658783 0.658783 0.658783
0.676758 0.676758 0.676758
0.694519 0.694519 0.694519
0.712158 0.712158 0.712158
0.729614 0.729614 0.729614
0.746887 0.746887 0.746887
0.698486 0.698486 0.698486
0.716064 0.716064 0.716064
0.733490 0.733490 0.733490
0.750763 0.750763 0.750763
0.767914 0.767914 0.767914
0.784912 0.784912 0.784912
0.801788 0.801788 0.801788
0.818573 0.818573 0.818573
0.771759 0.771759 0.771759
0.788696 0.788696 0.788696
0.805573 0.805573 0.805573
0.822327 0.822327 0.822327
0.838959 0.838959 0.838959
0.855530 0.855530 0.855530
0.872009 0.872009 0.872009
0.888428 0.888428 0.888428
0.842682 0.842682 0.842682
0.859253 0.859253 0.859253
0.875702 0.875702 0.875702
0.892090 0.892090 0.892090
0.908417 0.908417 0.908417
0.924713 0.924713 0.924713
0.940948 0.940948 0.940948
0.957153 0.957153 0.957153
0.912048 0.912048 0.912048
0.928345 0.928345 0.928345
0.944550 0.944550 0.944550
0.960754 0.960754 0.960754
0.976929 0.976929 0.976929
0.993103 0.993103 0.993103
1.000000 1.000000 1.000000
1.000000 1.000000 1.000000
0.980530 0.980530 0.980530
0.996704 0.996704 0.996704
1.000000 1.000000 1.000000
1.000000 1.000000 1.000000
1.000000 1.000000 1.000000
1.000000 1.000000 1.000000
1.000000 1.000000 1.000000
1.000000 1.000000 1.000000
0.559021 0.559021 0.559021
0.578094 0.578094 0.578094
0.596924 0.596924 0.596924
0.615570 0.615570 0.615570
0.633972 0.633972 0.633972
0.652222 0.652222 0.652222
0.670227 0.670227 0.670227
0.688080 0.688080 0.688080
0.638062 0.638062 0.638062
0.656281 0.656281 0.656281
0.674255 0.674255 0.674255
0.692047 0.692047 0.692047
0.709686 0.709686 0.709686
0.727173 0.727173 0.727173
0.744507 0.744507 0.744507
0.761688 0.761688 0.761688
0.713623 0.713623 0.713623
0.731049 0.731049 0.731049
0.748352 0.748352 0.748352
0.765503 0.765503 0.765503
0.782532 0.782532 0.782532
0.799438 0.799438 0.799438
0.816254 0.816254 0.816254
0.832916 0.832916 0.832916
0.786346 0.786346 0.786346
0.803192 0.803192 0.803192
0.819977 0.819977 0.819977
0.836639 0.836639 0.836639
0.853210 0.853210 0.853210
0.869720 0.869720 0.869720
0.886139 0.886139 0.886139
0.902466 0.902466 0.902466
0.856903 0.856903 0.856903
0.873413 0.873413 0.873413
0.889771 0.889771 0.889771
0.906128 0.906128 0.906128
0.922424 0.922424 0.922424
0.938690 0.938690 0.938690
0.954865 0.954865 0.954865
0.971039 0.971039 0.971039
0.926056 0.926056 0.926056
0.942291 0.942291 0.942291
0.958496 0.958496 0.958496
0.974670 0.974670 0.974670
0.990845 0.990845 0.990845
1.000000 1.000000 1.000000
1.000000 1.000000 1.000000
1.000000 1.000000 1.000000
0.994446 0.994446 0.994446
1.000000 1.000000 1.000000
1.000000 1.000000 1.000000
1.000000 1.000000 1.000000
1.000000 1.000000 1.000000
1.000000 1.000000 1.000000
1.000000 1.000000 1.000000
1.000000 1.000000 1.000000
1.000000 1.000000 1.000000
1.000000 1.000000 1.000000
1.000000 1.000000 1.000000
1.000000 1.000000 1.000000
1.000000 1.000000 1.000000
1.000000 1.000000 1.000000
1.000000 1.000000 1.000000
1.000000 1.000000 1.000000
0.653717 0.653717 0.653717
0.671722 0.671722 0.671722
0.689575 0.689575 0.689575
0.707214 0.707214 0.707214
0.724731 0.724731 0.724731
0.742096 0.742096 0.742096
0.759308 0.759308 0.759308
0.776367 0.776367 0.776367
0.728638 0.728638 0.728638
0.745941 0.745941 0.745941
0.763123 0.763123 0.763123
0.780151 0.780151 0.780151
0.797089 0.797089 0.797089
0.813873 0.813873 0.813873
0.830597 0.830597 0.830597
0.847198 0.847198 0.847198
0.800842 0.800842 0.800842
0.817627 0.817627 0.817627
0.834320 0.834320 0.834320
0.850891 0.850891 0.850891
0.867401 0.867401 0.867401
0.883820 0.883820 0.883820
0.900177 0.900177 0.900177
0.916504 0.916504 0.916504
0.871094 0.871094 0.871094
0.887512 0.887512 0.887512
0.903839 0.903839 0.903839
0.920135 0.920135 0.920135
0.936371 0.936371 0.936371
0.952576 0.952576 0.952576
0.968781 0.968781 0.968781
0.984955 0.984955 0.984955
0.940033 0.940033 0.940033
0.956207 0.956207 0.956207
0.972412 0.972412 0.972412
0.988556 0.988556 0.988556
1.000000 1.000000 1.000000
1.000000 1.000000 1.000000
1.000000 1.000000 1.000000
1.000000 1.000000 1.000000
1.000000 1.000000 1.000000
1.000000 1.000000 1.000000
1.000000 1.000000 1.000000
1.000000 1.000000 1.000000
1.000000 1.000000 1.000000
1.000000 1.000000 1.000000
1.000000 1.000000 1.000000
1.000000 1.000000 1.000000
1.000000 1.000000 1.000000
1.000000 1.000000 1.000000
1.000000 1.000000 1.000000
1.000000 1.000000 1.000000
1.000000 1.000000 1.000000
1.000000 1.000000 1.000000
1.000000 1.000000 1.000000
1.000000 1.000000 1.000000
1.000000 1.000000 1.000000
1.000000 1.000000 1.000000
1.000000 1.000000 1.000000
1.000000 1.000000 1.000000
1.000000 1.000000 1.000000
1.000000 1.000000 1.000000
1.000000 1.000000 1.000000
1.000000 1.000000 1.000000
0.743530 0.743530 0.743530
0.760712 0.760712 0.760712
0.777802 0.777802 0.777802
0.794708 0.794708 0.794708
0.811554 0.811554 0.811554
0.828247 0.828247 0.828247
0.844879 0.844879 0.844879
0.861420 0.861420 0.861420
0.815308 0.815308 0.815308
0.832001 0.832001 0.832001
0.848572 0.848572 0.848572
0.865082 0.865082 0.865082
0.881531 0.881531 0.881531
0.897919 0.897919 0.897919
0.914215 0.914215 0.914215
0.930481 0.930481 0.930481
0.885193 0.885193 0.885193
0.901550 0.901550 0.901550
0.917847 0.917847 0.917847
0.934113 0.934113 0.934113
0.950317 0.950317 0.950317
0.966522 0.966522 0.966522
0.982666 0.982666 0.982666
0.998840 0.998840 0.998840
0.953918 0.953918 0.953918
0.970123 0.970123 0.970123
0.986298 0.986298 0.986298
1.000000 1.000000 1.000000
1.000000 1.000000 1.000000
1.000000 1.000000 1.000000
1.000000 1.000000 1.000000
1.000000 1.000000 1.000000
1.000000 1.000000 1.000000
1.000000 1.000000 1.000000
1.000000 1.000000 1.000000
1.000000 1.000000 1.000000
1.000000 1.000000 1.000000
1.000000 1.000000 1.000000
1.000000 1.000000 1.000000
1.000000 1.000000 1.000000
1.000000 1.000000 1.000000
1.000000 1.000000 1.000000
1.000000 1.000000 1.000000
1.000000 1.000000 1.000000
1.000000 1.000000 1.000000
1.000000 1.000000 1.000000
1.000000 1.000000 1.000000
1.000000 1.000000 1.000000
1.000000 1.000000 1.000000
1.000000 1.000000 1.000000
1.000000 1.000000 1.000000
1.000000 1.000000 1.000000
1.000000 1.000000 1.000000
1.000000 1.000000 1.000000
1.000000 1.000000 1.000000
1.000000 1.000000 1.000000
1.000000 1.000000 1.000000
1.000000 1.000000 1.000000
1.000000 1.000000 1.000000
1.000000 1.000000 1.000000
1.000000 1.000000 1.000000
1.000000 1.000000 1.000000
1.000000 1.000000 1.000000
1.000000 1.000000 1.000000
