portrait-pop-6.CUBE
#Created by: Adobe Photoshop Export Color Lookup Plugin
TITLE "pp-6"
#LUT size
LUT_3D_SIZE 8
#data domain
#LUT data points
DOMAIN_MIN 0.000000 0.000000 0.000000
DOMAIN_MAX 0.903226 0.903226 0.903226
0.000000 0.000000 0.000000
0.251221 0.000000 0.049438
0.473572 0.000000 0.099304
0.647003 0.000000 0.144165
0.769440 0.000000 0.180664
0.856293 0.000000 0.210175
0.919861 0.000000 0.234589
0.968933 0.000000 0.255737
0.000000 0.295654 0.000000
0.182709 0.182709 0.000000
0.420502 0.161865 0.049866
0.607819 0.143097 0.094727
0.741577 0.127838 0.131226
0.837585 0.115509 0.160736
0.908691 0.105316 0.185150
0.964325 0.096466 0.206299
0.000000 0.538116 0.000000
0.158783 0.456604 0.000000
0.366974 0.366974 0.000000
0.568329 0.352448 0.044861
0.713470 0.340637 0.081360
0.818695 0.331085 0.110870
0.897430 0.323181 0.135284
0.959686 0.316315 0.156433
0.000000 0.700836 0.000000
0.135040 0.649902 0.000000
0.320251 0.594055 0.000000
0.532776 0.532776 0.000000
0.688202 0.524048 0.036499
0.801697 0.516998 0.066010
0.887329 0.511169 0.090424
0.955505 0.506104 0.111572
0.000000 0.810150 0.000000
0.111389 0.778015 0.000000
0.272675 0.743713 0.000000
0.495636 0.706970 0.000000
0.667633 0.667633 0.000000
0.787872 0.662628 0.029510
0.879089 0.658478 0.053925
0.952087 0.654877 0.075073
0.000000 0.886383 0.000000
0.087830 0.866119 0.000000
0.224731 0.845154 0.000000
0.456512 0.823334 0.000000
0.644135 0.800537 0.000000
0.776703 0.776703 0.000000
0.872437 0.773926 0.024414
0.949341 0.771484 0.045563
0.000000 0.941040 0.000000
0.064362 0.929199 0.000000
0.176697 0.917145 0.000000
0.415558 0.904938 0.000000
0.619659 0.892548 0.000000
0.762756 0.879852 0.000000
0.866913 0.866913 0.000000
0.947083 0.865479 0.021149
0.000000 0.979858 0.000000
0.040924 0.974945 0.000000
0.129089 0.970032 0.000000
0.373169 0.965057 0.000000
0.594177 0.960114 0.000000
0.748413 0.955109 0.000000
0.859467 0.950134 0.000000
0.945099 0.945099 0.000000
0.000000 0.000000 0.182709
0.182709 0.000000 0.182709
0.420502 0.000000 0.223450
0.607819 0.000000 0.260132
0.741577 0.000000 0.289948
0.837585 0.000000 0.314087
0.908691 0.000000 0.334015
0.964325 0.000000 0.351318
0.000000 0.182709 0.182709
0.182709 0.182709 0.182709
0.420502 0.161865 0.223450
0.607819 0.143097 0.260132
0.741577 0.127838 0.289948
0.837585 0.115509 0.314087
0.908691 0.105316 0.334015
0.964325 0.096466 0.351318
0.000000 0.456604 0.158783
0.158783 0.456604 0.158783
0.366974 0.366974 0.182709
0.568329 0.352448 0.219391
0.713470 0.340637 0.249207
0.818695 0.331085 0.273315
0.897430 0.323181 0.293274
0.959686 0.316315 0.310577
0.000000 0.649902 0.135040
0.135040 0.649902 0.135040
0.320251 0.594055 0.158783
0.532776 0.532776 0.182709
0.688202 0.524048 0.212524
0.801697 0.516998 0.236664
0.887329 0.511169 0.256592
0.955505 0.506104 0.273895
0.000000 0.778015 0.111389
0.111389 0.778015 0.111389
0.272675 0.743713 0.135040
0.495636 0.706970 0.158783
0.667633 0.667633 0.182709
0.787872 0.662628 0.206818
0.879089 0.658478 0.226776
0.952087 0.654877 0.244080
0.000000 0.866119 0.087830
0.087830 0.866119 0.087830
0.224731 0.845154 0.111389
0.456512 0.823334 0.135040
0.644135 0.800537 0.158783
0.776703 0.776703 0.182709
0.872437 0.773926 0.202667
0.949341 0.771484 0.219940
0.000000 0.929199 0.064362
0.064362 0.929199 0.064362
0.176697 0.917145 0.087830
0.415558 0.904938 0.111389
0.619659 0.892548 0.135040
0.762756 0.879852 0.158783
0.866913 0.866913 0.182709
0.947083 0.865479 0.200012
0.000000 0.974945 0.040924
0.040924 0.974945 0.040924
0.129089 0.970032 0.064362
0.373169 0.965057 0.087830
0.594177 0.960114 0.111389
0.748413 0.955109 0.135040
0.859467 0.950134 0.158783
0.945099 0.945099 0.182709
0.000000 0.000000 0.366974
0.182709 0.000000 0.366974
0.366974 0.000000 0.366974
0.568329 0.000000 0.395386
0.713470 0.000000 0.418488
0.818695 0.000000 0.437164
0.897430 0.000000 0.452606
0.959686 0.000000 0.466003
0.000000 0.182709 0.366974
0.182709 0.182709 0.366974
0.366974 0.182709 0.366974
0.568329 0.163940 0.395386
0.713470 0.148682 0.418488
0.818695 0.136353 0.437164
0.897430 0.126160 0.452606
0.959686 0.117310 0.466003
0.000000 0.366974 0.366974
0.182709 0.366974 0.366974
0.366974 0.366974 0.366974
0.568329 0.352448 0.395386
0.713470 0.340637 0.418488
0.818695 0.331085 0.437164
0.897430 0.323181 0.452606
0.959686 0.316315 0.466003
0.000000 0.594055 0.320251
0.158783 0.594055 0.320251
0.320251 0.594055 0.320251
0.532776 0.532776 0.366974
0.688202 0.524048 0.390076
0.801697 0.516998 0.408752
0.887329 0.511169 0.424225
0.955505 0.506104 0.437592
0.000000 0.743713 0.272675
0.135040 0.743713 0.272675
0.272675 0.743713 0.272675
0.495636 0.706970 0.320251
0.667633 0.667633 0.366974
0.787872 0.662628 0.385651
0.879089 0.658478 0.401123
0.952087 0.654877 0.414490
0.000000 0.845154 0.224731
0.111389 0.845154 0.224731
0.224731 0.845154 0.224731
0.456512 0.823334 0.272675
0.644135 0.800537 0.320251
0.776703 0.776703 0.366974
0.872437 0.773926 0.382416
0.949341 0.771484 0.395813
0.000000 0.917145 0.176697
0.087830 0.917145 0.176697
0.176697 0.917145 0.176697
0.415558 0.904938 0.224731
0.619659 0.892548 0.272675
0.762756 0.879852 0.320251
0.866913 0.866913 0.366974
0.947083 0.865479 0.380371
0.000000 0.970032 0.129089
0.064362 0.970032 0.129089
0.129089 0.970032 0.129089
0.373169 0.965057 0.176697
0.594177 0.960114 0.224731
0.748413 0.955109 0.272675
0.859467 0.950134 0.320251
0.945099 0.945099 0.366974
0.000000 0.000000 0.532776
0.182709 0.000000 0.532776
0.366974 0.000000 0.532776
0.532776 0.000000 0.532776
0.688202 0.000000 0.549835
0.801697 0.000000 0.563629
0.887329 0.000000 0.575012
0.955505 0.000000 0.584900
0.000000 0.182709 0.532776
0.182709 0.182709 0.532776
0.366974 0.182709 0.532776
0.532776 0.182709 0.532776
0.688202 0.167450 0.549835
0.801697 0.155121 0.563629
0.887329 0.144897 0.575012
0.955505 0.136078 0.584900
0.000000 0.366974 0.532776
0.182709 0.366974 0.532776
0.366974 0.366974 0.532776
0.532776 0.366974 0.532776
0.688202 0.355164 0.549835
0.801697 0.345612 0.563629
0.887329 0.337708 0.575012
0.955505 0.330841 0.584900
0.000000 0.532776 0.532776
0.182709 0.532776 0.532776
0.366974 0.532776 0.532776
0.532776 0.532776 0.532776
0.688202 0.524048 0.549835
0.801697 0.516998 0.563629
0.887329 0.511169 0.575012
0.955505 0.506104 0.584900
0.000000 0.706970 0.476990
0.158783 0.706970 0.476990
0.320251 0.706970 0.476990
0.495636 0.706970 0.476990
0.667633 0.667633 0.532776
0.787872 0.662628 0.546570
0.879089 0.658478 0.557983
0.952087 0.654877 0.567871
0.000000 0.823334 0.416931
0.135040 0.823334 0.416931
0.272675 0.823334 0.416931
0.456512 0.823334 0.416931
0.644135 0.800537 0.476990
0.776703 0.776703 0.532776
0.872437 0.773926 0.544189
0.949341 0.771484 0.554077
0.000000 0.904938 0.353699
0.111389 0.904938 0.353699
0.224731 0.904938 0.353699
0.415558 0.904938 0.353699
0.619659 0.892548 0.416992
0.762756 0.879852 0.476990
0.866913 0.866913 0.532776
0.947083 0.865479 0.542664
0.000000 0.965057 0.288330
0.087830 0.965057 0.288330
0.176697 0.965057 0.288330
0.373169 0.965057 0.288330
0.594177 0.960114 0.353729
0.748413 0.955109 0.416992
0.859467 0.950134 0.476990
0.945099 0.945099 0.532776
0.000000 0.000000 0.667633
0.182709 0.000000 0.667633
0.366974 0.000000 0.667633
0.532776 0.000000 0.667633
0.667633 0.000000 0.667633
0.787872 0.000000 0.677429
0.879089 0.000000 0.685547
0.952087 0.000000 0.692596
0.000000 0.182709 0.667633
0.182709 0.182709 0.667633
0.366974 0.182709 0.667633
0.532776 0.182709 0.667633
0.667633 0.182709 0.667633
0.787872 0.170380 0.677429
0.879089 0.160156 0.685547
0.952087 0.151306 0.692596
0.000000 0.366974 0.667633
0.182709 0.366974 0.667633
0.366974 0.366974 0.667633
0.532776 0.366974 0.667633
0.667633 0.366974 0.667633
0.787872 0.357422 0.677429
0.879089 0.349518 0.685547
0.952087 0.342651 0.692596
0.000000 0.532776 0.667633
0.182709 0.532776 0.667633
0.366974 0.532776 0.667633
0.532776 0.532776 0.667633
0.667633 0.532776 0.667633
0.787872 0.525726 0.677429
0.879089 0.519897 0.685547
0.952087 0.514832 0.692596
0.000000 0.667633 0.667633
0.182709 0.667633 0.667633
0.366974 0.667633 0.667633
0.532776 0.667633 0.667633
0.667633 0.667633 0.667633
0.787872 0.662628 0.677429
0.879089 0.658478 0.685547
0.952087 0.654877 0.692596
0.000000 0.800537 0.632416
0.158783 0.800537 0.632416
0.320251 0.800537 0.632416
0.495636 0.800537 0.632416
0.644135 0.800537 0.632416
0.776703 0.776703 0.667633
0.872437 0.773926 0.675751
0.949341 0.771484 0.682770
0.000000 0.892548 0.595062
0.135040 0.892548 0.595062
0.272675 0.892548 0.595062
0.456512 0.892548 0.595062
0.619659 0.892548 0.595062
0.762756 0.879852 0.632416
0.866913 0.866913 0.667633
0.947083 0.865479 0.674652
0.000000 0.960114 0.555267
0.111389 0.960114 0.555267
0.224731 0.960114 0.555267
0.415588 0.960114 0.555267
0.594177 0.960114 0.555267
0.748413 0.955109 0.595062
0.859467 0.950134 0.632416
0.945099 0.945099 0.667633
0.000000 0.000000 0.776703
0.182709 0.000000 0.776703
0.366974 0.000000 0.776703
0.532776 0.000000 0.776703
0.667633 0.000000 0.776703
0.776703 0.000000 0.776703
0.872437 0.000000 0.782166
0.949341 0.000000 0.786865
0.000000 0.182709 0.776703
0.182709 0.182709 0.776703
0.366974 0.182709 0.776703
0.532776 0.182709 0.776703
0.667633 0.182709 0.776703
0.776703 0.182709 0.776703
0.872437 0.172516 0.782166
0.949341 0.163666 0.786865
0.000000 0.366974 0.776703
0.182709 0.366974 0.776703
0.366974 0.366974 0.776703
0.532776 0.366974 0.776703
0.667633 0.366974 0.776703
0.776703 0.366974 0.776703
0.872437 0.359070 0.782166
0.949341 0.352234 0.786865
0.000000 0.532776 0.776703
0.182709 0.532776 0.776703
0.366974 0.532776 0.776703
0.532776 0.532776 0.776703
0.667633 0.532776 0.776703
0.776703 0.532776 0.776703
0.872437 0.526947 0.782166
0.949341 0.521881 0.786865
0.000000 0.667633 0.776703
0.182709 0.667633 0.776703
0.366974 0.667633 0.776703
0.532776 0.667633 0.776703
0.667633 0.667633 0.776703
0.776703 0.667633 0.776703
0.872437 0.663483 0.782166
0.949341 0.659882 0.786865
0.000000 0.776703 0.776703
0.182709 0.776703 0.776703
0.366974 0.776703 0.776703
0.532776 0.776703 0.776703
0.667633 0.776703 0.776703
0.776703 0.776703 0.776703
0.872437 0.773926 0.782166
0.949341 0.771484 0.786865
0.000000 0.879852 0.755890
0.158783 0.879852 0.755890
0.320251 0.879852 0.755890
0.495636 0.879852 0.755890
0.644135 0.879852 0.755890
0.762756 0.879852 0.755890
0.866913 0.866913 0.776703
0.947083 0.865479 0.781433
0.000000 0.955109 0.734161
0.135040 0.955109 0.734161
0.272675 0.955109 0.734161
0.456512 0.955109 0.734161
0.619659 0.955109 0.734161
0.748413 0.955109 0.734161
0.859467 0.950134 0.755890
0.945099 0.945099 0.776703
0.000000 0.000000 0.866913
0.182709 0.000000 0.866913
0.366974 0.000000 0.866913
0.532776 0.000000 0.866913
0.667633 0.000000 0.866913
0.776703 0.000000 0.866913
0.866913 0.000000 0.866913
0.947083 0.000000 0.869720
0.000000 0.182709 0.866913
0.182709 0.182709 0.866913
0.366974 0.182709 0.866913
0.532776 0.182709 0.866913
0.667633 0.182709 0.866913
0.776703 0.182709 0.866913
0.866913 0.182709 0.866913
0.947083 0.173859 0.869720
0.000000 0.366974 0.866913
0.182709 0.366974 0.866913
0.366974 0.366974 0.866913
0.532776 0.366974 0.866913
0.667633 0.366974 0.866913
0.776703 0.366974 0.866913
0.866913 0.366974 0.866913
0.947083 0.360138 0.869720
0.000000 0.532776 0.866913
0.182709 0.532776 0.866913
0.366974 0.532776 0.866913
0.532776 0.532776 0.866913
0.667633 0.532776 0.866913
0.776703 0.532776 0.866913
0.866913 0.532776 0.866913
0.947083 0.527710 0.869720
0.000000 0.667633 0.866913
0.182709 0.667633 0.866913
0.366974 0.667633 0.866913
0.532776 0.667633 0.866913
0.667633 0.667633 0.866913
0.776703 0.667633 0.866913
0.866913 0.667633 0.866913
0.947083 0.664032 0.869720
0.000000 0.776703 0.866913
0.182709 0.776703 0.866913
0.366974 0.776703 0.866913
0.532776 0.776703 0.866913
0.667633 0.776703 0.866913
0.776703 0.776703 0.866913
0.866913 0.776703 0.866913
0.947083 0.774292 0.869720
0.000000 0.866913 0.866913
0.182709 0.866913 0.866913
0.366974 0.866913 0.866913
0.532776 0.866913 0.866913
0.667633 0.866913 0.866913
0.776703 0.866913 0.866913
0.866913 0.866913 0.866913
0.947083 0.865479 0.869720
0.000000 0.950134 0.855865
0.158783 0.950134 0.855865
0.320251 0.950134 0.855865
0.495636 0.950134 0.855865
0.644135 0.950134 0.855865
0.762756 0.950134 0.855865
0.859467 0.950134 0.855865
0.945099 0.945099 0.866913
0.000000 0.000000 0.945099
0.182709 0.000000 0.945099
0.366974 0.000000 0.945099
0.532776 0.000000 0.945099
0.667633 0.000000 0.945099
0.776703 0.000000 0.945099
0.866913 0.000000 0.945099
0.945099 0.000000 0.945099
0.000000 0.182709 0.945099
0.182709 0.182709 0.945099
0.366974 0.182709 0.945099
0.532776 0.182709 0.945099
0.667633 0.182709 0.945099
0.776703 0.182709 0.945099
0.866913 0.182709 0.945099
0.945099 0.182709 0.945099
0.000000 0.366974 0.945099
0.182709 0.366974 0.945099
0.366974 0.366974 0.945099
0.532776 0.366974 0.945099
0.667633 0.366974 0.945099
0.776703 0.366974 0.945099
0.866913 0.366974 0.945099
0.945099 0.366974 0.945099
0.000000 0.532776 0.945099
0.182709 0.532776 0.945099
0.366974 0.532776 0.945099
0.532776 0.532776 0.945099
0.667633 0.532776 0.945099
0.776703 0.532776 0.945099
0.866913 0.532776 0.945099
0.945099 0.532776 0.945099
0.000000 0.667633 0.945099
0.182709 0.667633 0.945099
0.366974 0.667633 0.945099
0.532776 0.667633 0.945099
0.667633 0.667633 0.945099
0.776703 0.667633 0.945099
0.866913 0.667633 0.945099
0.945099 0.667633 0.945099
0.000000 0.776703 0.945099
0.182709 0.776703 0.945099
0.366974 0.776703 0.945099
0.532776 0.776703 0.945099
0.667633 0.776703 0.945099
0.776703 0.776703 0.945099
0.866913 0.776703 0.945099
0.945099 0.776703 0.945099
0.000000 0.866913 0.945099
0.182709 0.866913 0.945099
0.366974 0.866913 0.945099
0.532776 0.866913 0.945099
0.667633 0.866913 0.945099
0.776703 0.866913 0.945099
0.866913 0.866913 0.945099
0.945099 0.866913 0.945099
0.000000 0.945099 0.945099
0.182709 0.945099 0.945099
0.366974 0.945099 0.945099
0.532776 0.945099 0.945099
0.667633 0.945099 0.945099
0.776703 0.945099 0.945099
0.866913 0.945099 0.945099
0.945099 0.945099 0.945099
