portrait-pop-8.CUBE
#Created by: Adobe Photoshop Export Color Lookup Plugin
TITLE "pp-8"
#LUT size
LUT_3D_SIZE 5
#data domain
#LUT data points
DOMAIN_MIN 0.000000 0.000000 0.000000
DOMAIN_MAX 0.903226 0.903226 0.903226
0.026886 0.026886 0.026886
0.065094 0.065094 0.065094
0.103302 0.103302 0.103302
0.141357 0.141357 0.141357
0.179260 0.179260 0.179260
0.187744 0.187744 0.187744
0.225464 0.225464 0.225464
0.262909 0.262909 0.262909
0.300049 0.300049 0.300049
0.336884 0.336884 0.336884
0.345123 0.345123 0.345123
0.381500 0.381500 0.381500
0.417480 0.417480 0.417480
0.453003 0.453003 0.453003
0.488037 0.488037 0.488037
0.495819 0.495819 0.495819
0.530182 0.530182 0.530182
0.563904 0.563904 0.563904
0.597015 0.597015 0.597015
0.629517 0.629517 0.629517
0.636688 0.636688 0.636688
0.668365 0.668365 0.668365
0.699524 0.699524 0.699524
0.730194 0.730194 0.730194
0.760376 0.760376 0.760376
0.220184 0.220184 0.220184
0.257660 0.257660 0.257660
0.294891 0.294891 0.294891
0.331787 0.331787 0.331787
0.368317 0.368317 0.368317
0.376434 0.376434 0.376434
0.412476 0.412476 0.412476
0.448090 0.448090 0.448090
0.483154 0.483154 0.483154
0.517700 0.517700 0.517700
0.525391 0.525391 0.525391
0.559235 0.559235 0.559235
0.592407 0.592407 0.592407
0.624969 0.624969 0.624969
0.656921 0.656921 0.656921
0.663971 0.663971 0.663971
0.695221 0.695221 0.695221
0.725922 0.725922 0.725922
0.756165 0.756165 0.756165
0.786011 0.786011 0.786011
0.792633 0.792633 0.792633
0.822021 0.822021 0.822021
0.851105 0.851105 0.851105
0.879944 0.879944 0.879944
0.908569 0.908569 0.908569
0.407471 0.407471 0.407471
0.443085 0.443085 0.443085
0.478302 0.478302 0.478302
0.512939 0.512939 0.512939
0.546967 0.546967 0.546967
0.554504 0.554504 0.554504
0.587830 0.587830 0.587830
0.620453 0.620453 0.620453
0.652466 0.652466 0.652466
0.683899 0.683899 0.683899
0.690857 0.690857 0.690857
0.721649 0.721649 0.721649
0.751953 0.751953 0.751953
0.781830 0.781830 0.781830
0.811371 0.811371 0.811371
0.817902 0.817902 0.817902
0.847046 0.847046 0.847046
0.875916 0.875916 0.875916
0.904541 0.904541 0.904541
0.933044 0.933044 0.933044
0.939392 0.939392 0.939392
0.967712 0.967712 0.967712
0.996002 0.996002 0.996002
1.000000 1.000000 1.000000
1.000000 1.000000 1.000000
0.583221 0.583221 0.583221
0.615936 0.615936 0.615936
0.648041 0.648041 0.648041
0.679565 0.679565 0.679565
0.710510 0.710510 0.710510
0.717377 0.717377 0.717377
0.747742 0.747742 0.747742
0.777679 0.777679 0.777679
0.807281 0.807281 0.807281
0.836487 0.836487 0.836487
0.842987 0.842987 0.842987
0.871887 0.871887 0.871887
0.900574 0.900574 0.900574
0.929077 0.929077 0.929077
0.957397 0.957397 0.957397
0.963776 0.963776 0.963776
0.992065 0.992065 0.992065
1.000000 1.000000 1.000000
1.000000 1.000000 1.000000
1.000000 1.000000 1.000000
1.000000 1.000000 1.000000
1.000000 1.000000 1.000000
1.000000 1.000000 1.000000
1.000000 1.000000 1.000000
1.000000 1.000000 1.000000
0.743530 0.743530 0.743530
0.773529 0.773529 0.773529
0.803131 0.803131 0.803131
0.832428 0.832428 0.832428
0.861420 0.861420 0.861420
0.867859 0.867859 0.867859
0.896545 0.896545 0.896545
0.925079 0.925079 0.925079
0.953461 0.953461 0.953461
0.981781 0.981781 0.981781
0.988098 0.988098 0.988098
1.000000 1.000000 1.000000
1.000000 1.000000 1.000000
1.000000 1.000000 1.000000
1.000000 1.000000 1.000000
1.000000 1.000000 1.000000
1.000000 1.000000 1.000000
1.000000 1.000000 1.000000
1.000000 1.000000 1.000000
1.000000 1.000000 1.000000
1.000000 1.000000 1.000000
1.000000 1.000000 1.000000
1.000000 1.000000 1.000000
1.000000 1.000000 1.000000
1.000000 1.000000 1.000000
