portrait-pop-9.CUBE
#Created by: Adobe Photoshop Export Color Lookup Plugin
TITLE "pp-9"
#LUT size
LUT_3D_SIZE 5
#data domain
#LUT data points
DOMAIN_MIN 0.000000 0.000000 0.000000
DOMAIN_MAX 0.903226 0.903226 0.903226
0.000000 0.000000 0.000000
0.215668 0.019501 0.019501
0.512634 0.046356 0.046356
0.851196 0.076965 0.076965
1.000000 0.142059 0.142059
0.000031 0.164062 0.000031
0.170288 0.210358 0.000031
0.466431 0.242523 0.000153
0.804993 0.273132 0.030762
1.000000 0.314789 0.095581
0.000031 0.317535 0.000031
0.155334 0.371338 0.000031
0.418091 0.420563 0.000031
0.755341 0.457611 0.000031
1.000000 0.481659 0.023743
0.000031 0.467163 0.000031
0.149017 0.524170 0.000031
0.393707 0.582642 0.000031
0.708160 0.631195 0.000031
0.954590 0.658783 0.000031
0.000031 0.614410 0.000031
0.145538 0.673218 0.000031
0.378876 0.737427 0.000031
0.677399 0.794098 0.000031
0.911926 0.827698 0.000031
0.084229 0.084229 0.385406
0.299896 0.103729 0.404907
0.596863 0.130585 0.431763
0.935455 0.161224 0.462402
1.000000 0.275421 0.493652
0.038055 0.280426 0.339233
0.253693 0.299896 0.358704
0.550659 0.326752 0.385559
0.889252 0.357391 0.416199
1.000000 0.441223 0.484589
0.000031 0.461182 0.296173
0.210480 0.483337 0.315491
0.507477 0.510223 0.342377
0.846039 0.540833 0.372986
1.000000 0.597321 0.470001
0.000031 0.615906 0.268829
0.168365 0.662292 0.273376
0.465332 0.689148 0.300232
0.803925 0.719788 0.330872
1.000000 0.752289 0.441376
0.000031 0.765930 0.254181
0.126892 0.838348 0.231903
0.423859 0.865204 0.258759
0.762451 0.895844 0.289398
1.000000 0.915100 0.357849
0.147308 0.147308 0.674011
0.362946 0.166779 0.693481
0.659943 0.193665 0.720367
0.998505 0.224274 0.750977
1.000000 0.384308 0.708588
0.101105 0.343475 0.627808
0.316772 0.362976 0.647308
0.613739 0.389832 0.674164
0.952301 0.420441 0.704773
1.000000 0.546814 0.716858
0.057922 0.526947 0.584625
0.273560 0.546417 0.604095
0.570526 0.573273 0.630951
0.909119 0.603912 0.661591
1.000000 0.697723 0.730560
0.015747 0.705841 0.542450
0.231415 0.725342 0.561951
0.528412 0.752228 0.588837
0.866974 0.782837 0.619446
1.000000 0.842072 0.758789
0.000031 0.868317 0.503937
0.189941 0.901398 0.520477
0.486938 0.928284 0.547363
0.825500 0.958893 0.577972
1.000000 0.971527 0.854187
0.204285 0.204285 0.934753
0.419952 0.223785 0.954254
0.716919 0.250641 0.981110
1.000000 0.318909 0.961487
1.000000 0.490143 0.862579
0.158081 0.400452 0.888550
0.373749 0.419952 0.908051
0.670715 0.446808 0.934906
1.000000 0.483704 0.957520
1.000000 0.651703 0.876068
0.114868 0.583893 0.845337
0.330566 0.603424 0.864868
0.627533 0.630280 0.891724
0.966095 0.660889 0.922333
1.000000 0.800873 0.898895
0.072754 0.762848 0.803223
0.288422 0.782349 0.822723
0.585388 0.809204 0.849579
0.923950 0.839813 0.880188
1.000000 0.941223 0.948883
0.031281 0.938904 0.761749
0.246948 0.958405 0.781250
0.543915 0.985260 0.808105
0.902283 1.000000 0.870209
1.000000 1.000000 1.000000
0.279755 0.279755 1.000000
0.463898 0.318909 1.000000
0.695740 0.383911 1.000000
0.916992 0.479828 1.000000
1.000000 0.596436 0.968201
0.259338 0.454224 1.000000
0.453491 0.488312 1.000000
0.696716 0.547455 1.000000
0.922302 0.641205 1.000000
1.000000 0.759216 0.974945
0.230530 0.622284 1.000000
0.438080 0.649536 1.000000
0.698273 0.700104 1.000000
0.931702 0.789886 1.000000
1.000000 0.910492 0.986725
0.184418 0.795380 1.000000
0.411804 0.812500 1.000000
0.701263 0.848236 1.000000
0.954254 0.928070 1.000000
1.000000 1.000000 1.000000
0.097717 0.986694 1.000000
0.356415 0.987946 1.000000
0.709442 0.991333 1.000000
1.000000 1.000000 1.000000
1.000000 1.000000 1.000000
