portrait-pop-2.CUBE
#Created by: Adobe Photoshop Export Color Lookup Plugin
TITLE "pp-2.psd"
#LUT size
LUT_3D_SIZE 8
#data domain
#LUT data points
DOMAIN_MIN 0.000000 0.000000 0.000000
DOMAIN_MAX 0.903226 0.903226 0.903226
0.000000 0.000000 0.000000
0.053894 0.008514 0.009705
0.215729 0.058228 0.061737
0.485352 0.131073 0.138885
0.685455 0.185120 0.196136
0.856812 0.231415 0.245178
1.000000 0.277679 0.294250
1.000000 0.323944 0.343262
0.000000 0.036133 0.000000
0.036133 0.036133 0.000000
0.178619 0.106995 0.027710
0.428802 0.206818 0.087036
0.654602 0.279358 0.147095
0.825958 0.325592 0.196136
0.997314 0.371887 0.245178
1.000000 0.418182 0.294250
0.000000 0.145020 0.000000
0.072510 0.145020 0.000000
0.145020 0.145020 0.000000
0.375854 0.271912 0.040649
0.623718 0.373566 0.098083
0.795074 0.419800 0.147095
0.966431 0.466095 0.196136
1.000000 0.512360 0.245178
0.000000 0.326294 0.000000
0.108765 0.326294 0.000000
0.217499 0.326294 0.000000
0.326294 0.326294 0.000000
0.592865 0.467743 0.048981
0.764221 0.514038 0.098083
0.935577 0.560303 0.147095
1.000000 0.606567 0.196136
0.000000 0.561981 0.000000
0.140472 0.561981 0.000000
0.280975 0.561981 0.000000
0.421478 0.561981 0.000000
0.561981 0.561981 0.000000
0.733337 0.608246 0.048981
0.904694 0.654541 0.098053
1.000000 0.700775 0.147095
0.000000 0.702484 0.000000
0.140472 0.702484 0.000000
0.280975 0.702484 0.000000
0.421478 0.702484 0.000000
0.561981 0.702484 0.000000
0.702484 0.702484 0.000000
0.873840 0.748718 0.048981
1.000000 0.795013 0.098053
0.000000 0.842957 0.000000
0.140472 0.842957 0.000000
0.280975 0.842957 0.000000
0.421478 0.842957 0.000000
0.561981 0.842957 0.000000
0.702484 0.842957 0.000000
0.842957 0.842957 0.000000
0.997040 0.874695 0.048981
0.000000 0.983459 0.000000
0.140472 0.983459 0.000000
0.280975 0.983459 0.000000
0.421478 0.983459 0.000000
0.561981 0.983459 0.000000
0.702484 0.983459 0.000000
0.842957 0.983459 0.000000
0.983459 0.983459 0.000000
0.000000 0.000000 0.036133
0.036133 0.000000 0.036133
0.178619 0.026123 0.108551
0.428802 0.082123 0.211731
0.654602 0.138855 0.287628
0.825958 0.185120 0.336670
0.997314 0.231415 0.385681
1.000000 0.277679 0.434723
0.000000 0.036133 0.036133
0.036133 0.036133 0.036133
0.178619 0.106995 0.108551
0.428802 0.206818 0.211731
0.654602 0.279358 0.287628
0.825958 0.325592 0.336670
0.997314 0.371887 0.385681
1.000000 0.418182 0.434723
0.000000 0.145020 0.072510
0.072510 0.145020 0.072510
0.145020 0.145020 0.072510
0.375854 0.271912 0.157471
0.623718 0.373566 0.238586
0.795074 0.419800 0.287628
0.966431 0.466095 0.336670
1.000000 0.512360 0.385681
0.000000 0.326294 0.108765
0.108765 0.326294 0.108765
0.217499 0.326294 0.108765
0.326294 0.326294 0.108765
0.592865 0.467743 0.189545
0.764221 0.514038 0.238586
0.935577 0.560303 0.287628
1.000000 0.606567 0.336670
0.000000 0.561981 0.140472
0.140472 0.561981 0.140472
0.280975 0.561981 0.140472
0.421478 0.561981 0.140472
0.561981 0.561981 0.140472
0.733337 0.608246 0.189545
0.904694 0.654541 0.238586
1.000000 0.700775 0.287598
0.000000 0.702484 0.140472
0.140472 0.702484 0.140472
0.280975 0.702484 0.140472
0.421478 0.702484 0.140472
0.561981 0.702484 0.140472
0.702484 0.702484 0.140472
0.873840 0.748718 0.189545
1.000000 0.795013 0.238586
0.000000 0.842957 0.140472
0.140472 0.842957 0.140472
0.280975 0.842957 0.140472
0.421478 0.842957 0.140472
0.561981 0.842957 0.140472
0.702484 0.842957 0.140472
0.842957 0.842957 0.140472
0.997040 0.874695 0.189545
0.000000 0.983459 0.140472
0.140472 0.983459 0.140472
0.280975 0.983459 0.140472
0.421478 0.983459 0.140472
0.561981 0.983459 0.140472
0.702484 0.983459 0.140472
0.842957 0.983459 0.140472
0.983459 0.983459 0.140472
0.000000 0.000000 0.145020
0.072510 0.000000 0.145020
0.145020 0.000000 0.145020
0.375854 0.038391 0.274200
0.623718 0.092560 0.379059
0.795074 0.138855 0.428101
0.966431 0.185120 0.477173
1.000000 0.231415 0.526184
0.000000 0.072510 0.145020
0.072510 0.072510 0.145020
0.145020 0.072510 0.145020
0.375854 0.155182 0.274200
0.623718 0.233063 0.379059
0.795074 0.279358 0.428101
0.966431 0.325592 0.477173
1.000000 0.371887 0.526184
0.000000 0.145020 0.145020
0.072510 0.145020 0.145020
0.145020 0.145020 0.145020
0.375854 0.271912 0.274200
0.623718 0.373566 0.379059
0.795074 0.419800 0.428101
0.966431 0.466095 0.477173
1.000000 0.512360 0.526184
0.000000 0.326294 0.217499
0.108765 0.326294 0.217499
0.217499 0.326294 0.217499
0.326294 0.326294 0.217499
0.592865 0.467743 0.330017
0.764221 0.514038 0.379059
0.935577 0.560303 0.428101
1.000000 0.606567 0.477173
0.000000 0.561981 0.280975
0.140472 0.561981 0.280975
0.280975 0.561981 0.280975
0.421478 0.561981 0.280975
0.561981 0.561981 0.280975
0.733337 0.608246 0.330017
0.904694 0.654541 0.379059
1.000000 0.700775 0.428070
0.000000 0.702484 0.280975
0.140472 0.702484 0.280975
0.280975 0.702484 0.280975
0.421478 0.702484 0.280975
0.561981 0.702484 0.280975
0.702484 0.702484 0.280975
0.873840 0.748718 0.330017
1.000000 0.795013 0.379059
0.000000 0.842957 0.280975
0.140472 0.842957 0.280975
0.280975 0.842957 0.280975
0.421478 0.842957 0.280975
0.561981 0.842957 0.280975
0.702484 0.842957 0.280975
0.842957 0.842957 0.280975
0.997040 0.874695 0.330017
0.000000 0.983459 0.280975
0.140472 0.983459 0.280975
0.280975 0.983459 0.280975
0.421478 0.983459 0.280975
0.561981 0.983459 0.280975
0.702484 0.983459 0.280975
0.842957 0.983459 0.280975
0.983459 0.983459 0.280975
0.000000 0.000000 0.326294
0.108765 0.000000 0.326294
0.217499 0.000000 0.326294
0.326294 0.000000 0.326294
0.592865 0.046234 0.470520
0.764221 0.092560 0.519562
0.935577 0.138855 0.568604
1.000000 0.185120 0.617645
0.000000 0.108765 0.326294
0.108765 0.108765 0.326294
0.217499 0.108765 0.326294
0.326294 0.108765 0.326294
0.592865 0.186768 0.470520
0.764221 0.233063 0.519562
0.935577 0.279358 0.568604
1.000000 0.325592 0.617645
0.000000 0.217499 0.326294
0.108765 0.217499 0.326294
0.217499 0.217499 0.326294
0.326294 0.217499 0.326294
0.592865 0.327271 0.470520
0.764221 0.373566 0.519562
0.935577 0.419800 0.568604
1.000000 0.466095 0.617645
0.000000 0.326294 0.326294
0.108765 0.326294 0.326294
0.217499 0.326294 0.326294
0.326294 0.326294 0.326294
0.592865 0.467743 0.470520
0.764221 0.514038 0.519562
0.935577 0.560303 0.568604
1.000000 0.606567 0.617645
0.000000 0.561981 0.421478
0.140472 0.561981 0.421478
0.280975 0.561981 0.421478
0.421478 0.561981 0.421478
0.561981 0.561981 0.421478
0.733337 0.608246 0.470520
0.904694 0.654541 0.519562
1.000000 0.700775 0.568604
0.000000 0.702484 0.421478
0.140472 0.702484 0.421478
0.280975 0.702484 0.421478
0.421478 0.702484 0.421478
0.561981 0.702484 0.421478
0.702484 0.702484 0.421478
0.873840 0.748718 0.470520
1.000000 0.795013 0.519562
0.000000 0.842957 0.421478
0.140472 0.842957 0.421478
0.280975 0.842957 0.421478
0.421478 0.842957 0.421478
0.561981 0.842957 0.421478
0.702484 0.842957 0.421478
0.842957 0.842957 0.421478
0.997040 0.874695 0.470520
0.000000 0.983459 0.421478
0.140472 0.983459 0.421478
0.280975 0.983459 0.421478
0.421478 0.983459 0.421478
0.561981 0.983459 0.421478
0.702484 0.983459 0.421478
0.842957 0.983459 0.421478
0.983459 0.983459 0.421478
0.000000 0.000000 0.561981
0.140472 0.000000 0.561981
0.280975 0.000000 0.561981
0.421478 0.000000 0.561981
0.561981 0.000000 0.561981
0.733337 0.046234 0.611023
0.904694 0.092529 0.660095
1.000000 0.138824 0.709137
0.000000 0.140472 0.561981
0.140472 0.140472 0.561981
0.280975 0.140472 0.561981
0.421478 0.140472 0.561981
0.561981 0.140472 0.561981
0.733337 0.186768 0.611023
0.904694 0.233032 0.660095
1.000000 0.279327 0.709137
0.000000 0.280975 0.561981
0.140472 0.280975 0.561981
0.280975 0.280975 0.561981
0.421478 0.280975 0.561981
0.561981 0.280975 0.561981
0.733337 0.327271 0.611023
0.904694 0.373505 0.660095
1.000000 0.419800 0.709137
0.000000 0.421478 0.561981
0.140472 0.421478 0.561981
0.280975 0.421478 0.561981
0.421478 0.421478 0.561981
0.561981 0.421478 0.561981
0.733337 0.467743 0.611023
0.904694 0.514008 0.660095
1.000000 0.560303 0.709137
0.000000 0.561981 0.561981
0.140472 0.561981 0.561981
0.280975 0.561981 0.561981
0.421478 0.561981 0.561981
0.561981 0.561981 0.561981
0.733337 0.608246 0.611023
0.904694 0.654541 0.660095
1.000000 0.700775 0.709137
0.000000 0.702484 0.561981
0.140472 0.702484 0.561981
0.280975 0.702484 0.561981
0.421478 0.702484 0.561981
0.561981 0.702484 0.561981
0.702484 0.702484 0.561981
0.873840 0.748718 0.611023
1.000000 0.795013 0.660095
0.000000 0.842957 0.561981
0.140472 0.842957 0.561981
0.280975 0.842957 0.561981
0.421478 0.842957 0.561981
0.561981 0.842957 0.561981
0.702484 0.842957 0.561981
0.842957 0.842957 0.561981
0.997040 0.874695 0.611023
0.000000 0.983459 0.561981
0.140472 0.983459 0.561981
0.280975 0.983459 0.561981
0.421478 0.983459 0.561981
0.561981 0.983459 0.561981
0.702484 0.983459 0.561981
0.842957 0.983459 0.561981
0.983459 0.983459 0.561981
0.000000 0.000000 0.702484
0.140472 0.000000 0.702484
0.280975 0.000000 0.702484
0.421478 0.000000 0.702484
0.561981 0.000000 0.702484
0.702484 0.000000 0.702484
0.873840 0.046234 0.751526
1.000000 0.092529 0.800568
0.000000 0.140472 0.702484
0.140472 0.140472 0.702484
0.280975 0.140472 0.702484
0.421478 0.140472 0.702484
0.561981 0.140472 0.702484
0.702484 0.140472 0.702484
0.873840 0.186768 0.751526
1.000000 0.233032 0.800568
0.000000 0.280975 0.702484
0.140472 0.280975 0.702484
0.280975 0.280975 0.702484
0.421478 0.280975 0.702484
0.561981 0.280975 0.702484
0.702484 0.280975 0.702484
0.873840 0.327271 0.751526
1.000000 0.373505 0.800568
0.000000 0.421478 0.702484
0.140472 0.421478 0.702484
0.280975 0.421478 0.702484
0.421478 0.421478 0.702484
0.561981 0.421478 0.702484
0.702484 0.421478 0.702484
0.873840 0.467743 0.751526
1.000000 0.514008 0.800568
0.000000 0.561981 0.702484
0.140472 0.561981 0.702484
0.280975 0.561981 0.702484
0.421478 0.561981 0.702484
0.561981 0.561981 0.702484
0.702484 0.561981 0.702484
0.873840 0.608246 0.751526
1.000000 0.654541 0.800568
0.000000 0.702484 0.702484
0.140472 0.702484 0.702484
0.280975 0.702484 0.702484
0.421478 0.702484 0.702484
0.561981 0.702484 0.702484
0.702484 0.702484 0.702484
0.873840 0.748718 0.751526
1.000000 0.795013 0.800568
0.000000 0.842957 0.702484
0.140472 0.842957 0.702484
0.280975 0.842957 0.702484
0.421478 0.842957 0.702484
0.561981 0.842957 0.702484
0.702484 0.842957 0.702484
0.842957 0.842957 0.702484
0.997040 0.874695 0.751526
0.000000 0.983459 0.702484
0.140472 0.983459 0.702484
0.280975 0.983459 0.702484
0.421478 0.983459 0.702484
0.561981 0.983459 0.702484
0.702484 0.983459 0.702484
0.842957 0.983459 0.702484
0.983459 0.983459 0.702484
0.000000 0.000000 0.842957
0.140472 0.000000 0.842957
0.280975 0.000000 0.842957
0.421478 0.000000 0.842957
0.561981 0.000000 0.842957
0.702484 0.000000 0.842957
0.842957 0.000000 0.842957
0.997040 0.046234 0.874695
0.000000 0.140472 0.842957
0.140472 0.140472 0.842957
0.280975 0.140472 0.842957
0.421478 0.140472 0.842957
0.561981 0.140472 0.842957
0.702484 0.140472 0.842957
0.842957 0.140472 0.842957
0.997040 0.186768 0.874695
0.000000 0.280975 0.842957
0.140472 0.280975 0.842957
0.280975 0.280975 0.842957
0.421478 0.280975 0.842957
0.561981 0.280975 0.842957
0.702484 0.280975 0.842957
0.842957 0.280975 0.842957
0.997040 0.327271 0.874695
0.000000 0.421478 0.842957
0.140472 0.421478 0.842957
0.280975 0.421478 0.842957
0.421478 0.421478 0.842957
0.561981 0.421478 0.842957
0.702484 0.421478 0.842957
0.842957 0.421478 0.842957
0.997040 0.467743 0.874695
0.000000 0.561981 0.842957
0.140472 0.561981 0.842957
0.280975 0.561981 0.842957
0.421478 0.561981 0.842957
0.561981 0.561981 0.842957
0.702484 0.561981 0.842957
0.842957 0.561981 0.842957
0.997040 0.608246 0.874695
0.000000 0.702484 0.842957
0.140472 0.702484 0.842957
0.280975 0.702484 0.842957
0.421478 0.702484 0.842957
0.561981 0.702484 0.842957
0.702484 0.702484 0.842957
0.842957 0.702484 0.842957
0.997040 0.748718 0.874695
0.000000 0.842957 0.842957
0.140472 0.842957 0.842957
0.280975 0.842957 0.842957
0.421478 0.842957 0.842957
0.561981 0.842957 0.842957
0.702484 0.842957 0.842957
0.842957 0.842957 0.842957
0.997040 0.874695 0.874695
0.000000 0.983459 0.842957
0.140472 0.983459 0.842957
0.280975 0.983459 0.842957
0.421478 0.983459 0.842957
0.561981 0.983459 0.842957
0.702484 0.983459 0.842957
0.842957 0.983459 0.842957
0.983459 0.983459 0.842957
0.000000 0.000000 0.983459
0.140472 0.000000 0.983459
0.280975 0.000000 0.983459
0.421478 0.000000 0.983459
0.561981 0.000000 0.983459
0.702484 0.000000 0.983459
0.842957 0.000000 0.983459
0.983459 0.000000 0.983459
0.000000 0.140472 0.983459
0.140472 0.140472 0.983459
0.280975 0.140472 0.983459
0.421478 0.140472 0.983459
0.561981 0.140472 0.983459
0.702484 0.140472 0.983459
0.842957 0.140472 0.983459
0.983459 0.140472 0.983459
0.000000 0.280975 0.983459
0.140472 0.280975 0.983459
0.280975 0.280975 0.983459
0.421478 0.280975 0.983459
0.561981 0.280975 0.983459
0.702484 0.280975 0.983459
0.842957 0.280975 0.983459
0.983459 0.280975 0.983459
0.000000 0.421478 0.983459
0.140472 0.421478 0.983459
0.280975 0.421478 0.983459
0.421478 0.421478 0.983459
0.561981 0.421478 0.983459
0.702484 0.421478 0.983459
0.842957 0.421478 0.983459
0.983459 0.421478 0.983459
0.000000 0.561981 0.983459
0.140472 0.561981 0.983459
0.280975 0.561981 0.983459
0.421478 0.561981 0.983459
0.561981 0.561981 0.983459
0.702484 0.561981 0.983459
0.842957 0.561981 0.983459
0.983459 0.561981 0.983459
0.000000 0.702484 0.983459
0.140472 0.702484 0.983459
0.280975 0.702484 0.983459
0.421478 0.702484 0.983459
0.561981 0.702484 0.983459
0.702484 0.702484 0.983459
0.842957 0.702484 0.983459
0.983459 0.702484 0.983459
0.000000 0.842957 0.983459
0.140472 0.842957 0.983459
0.280975 0.842957 0.983459
0.421478 0.842957 0.983459
0.561981 0.842957 0.983459
0.702484 0.842957 0.983459
0.842957 0.842957 0.983459
0.983459 0.842957 0.983459
0.000000 0.983459 0.983459
0.140472 0.983459 0.983459
0.280975 0.983459 0.983459
0.421478 0.983459 0.983459
0.561981 0.983459 0.983459
0.702484 0.983459 0.983459
0.842957 0.983459 0.983459
0.983459 0.983459 0.983459
