portrait-pop-7.CUBE
#Created by: Adobe Photoshop Export Color Lookup Plugin
TITLE "pp-7"
#LUT size
LUT_3D_SIZE 32
#data domain
DOMAIN_MIN 0.0 0.0 0.0
DOMAIN_MAX 1.0 1.0 1.0
#LUT data points
0.000000 0.000000 0.000000
0.024719 0.000000 0.000000
0.050781 0.000000 0.000000
0.077942 0.000000 0.000000
0.107300 0.000000 0.000000
0.139130 0.000000 0.000000
0.173279 0.000000 0.000000
0.209503 0.000000 0.000000
0.247467 0.000000 0.000000
0.287048 0.000000 0.000000
0.327911 0.000000 0.000000
0.369843 0.000000 0.000000
0.412567 0.000000 0.000000
0.455872 0.000000 0.000000
0.499481 0.000000 0.000000
0.543182 0.000000 0.000000
0.586731 0.000000 0.000000
0.629883 0.000000 0.000000
0.672272 0.000000 0.000000
0.713806 0.000000 0.000000
0.754120 0.000000 0.000000
0.793060 0.000000 0.000000
0.830322 0.000000 0.000000
0.865662 0.000000 0.000000
0.898895 0.000000 0.000000
0.929718 0.000000 0.000000
0.957886 0.000000 0.000000
0.983612 0.000000 0.000000
1.000000 0.000000 0.000000
1.000000 0.000000 0.000000
1.000000 0.000000 0.000000
1.000000 0.000000 0.000000
0.000000 0.024719 0.000000
0.024719 0.024719 0.000000
0.050781 0.024719 0.000000
0.077942 0.024719 0.000000
0.107300 0.024719 0.000000
0.139130 0.024719 0.000000
0.173279 0.024719 0.000000
0.209503 0.024719 0.000000
0.247467 0.024719 0.000000
0.287048 0.024719 0.000000
0.327911 0.024719 0.000000
0.369843 0.024719 0.000000
0.412567 0.024719 0.000000
0.455872 0.024719 0.000000
0.499481 0.024719 0.000000
0.543182 0.024719 0.000000
0.586731 0.024719 0.000000
0.629883 0.024719 0.000000
0.672272 0.024719 0.000000
0.713806 0.024719 0.000000
0.754120 0.024719 0.000000
0.793060 0.024719 0.000000
0.830322 0.024719 0.000000
0.865662 0.024719 0.000000
0.898895 0.024719 0.000000
0.929718 0.024719 0.000000
0.957886 0.024719 0.000000
0.983612 0.024719 0.000000
1.000000 0.024719 0.000000
1.000000 0.024719 0.000000
1.000000 0.024719 0.000000
1.000000 0.024719 0.000000
0.000000 0.050781 0.000000
0.024719 0.050781 0.000000
0.050781 0.050781 0.000000
0.077942 0.050781 0.000000
0.107300 0.050781 0.000000
0.139130 0.050781 0.000000
0.173279 0.050781 0.000000
0.209503 0.050781 0.000000
0.247467 0.050781 0.000000
0.287048 0.050781 0.000000
0.327911 0.050781 0.000000
0.369843 0.050781 0.000000
0.412567 0.050781 0.000000
0.455872 0.050781 0.000000
0.499481 0.050781 0.000000
0.543182 0.050781 0.000000
0.586731 0.050781 0.000000
0.629883 0.050781 0.000000
0.672272 0.050781 0.000000
0.713806 0.050781 0.000000
0.754120 0.050781 0.000000
0.793060 0.050781 0.000000
0.830322 0.050781 0.000000
0.865662 0.050781 0.000000
0.898895 0.050781 0.000000
0.929718 0.050781 0.000000
0.957886 0.050781 0.000000
0.983612 0.050781 0.000000
1.000000 0.050781 0.000000
1.000000 0.050781 0.000000
1.000000 0.050781 0.000000
1.000000 0.050781 0.000000
0.000000 0.077942 0.000000
0.024719 0.077942 0.000000
0.050781 0.077942 0.000000
0.077942 0.077942 0.000000
0.107300 0.077942 0.000000
0.139130 0.077942 0.000000
0.173279 0.077942 0.000000
0.209503 0.077942 0.000000
0.247467 0.077942 0.000000
0.287048 0.077942 0.000000
0.327911 0.077942 0.000000
0.369843 0.077942 0.000000
0.412567 0.077942 0.000000
0.455872 0.077942 0.000000
0.499481 0.077942 0.000000
0.543182 0.077942 0.000000
0.586731 0.077942 0.000000
0.629883 0.077942 0.000000
0.672272 0.077942 0.000000
0.713806 0.077942 0.000000
0.754120 0.077942 0.000000
0.793060 0.077942 0.000000
0.830322 0.077942 0.000000
0.865662 0.077942 0.000000
0.898895 0.077942 0.000000
0.929718 0.077942 0.000000
0.957886 0.077942 0.000000
0.983612 0.077942 0.000000
1.000000 0.077942 0.000000
1.000000 0.077942 0.000000
1.000000 0.077942 0.000000
1.000000 0.077942 0.000000
0.000000 0.107300 0.000000
0.024719 0.107300 0.000000
0.050781 0.107300 0.000000
0.077942 0.107300 0.000000
0.107300 0.107300 0.000000
0.139130 0.107300 0.000000
0.173279 0.107300 0.000000
0.209503 0.107300 0.000000
0.247467 0.107300 0.000000
0.287048 0.107300 0.000000
0.327911 0.107300 0.000000
0.369843 0.107300 0.000000
0.412567 0.107300 0.000000
0.455872 0.107300 0.000000
0.499481 0.107300 0.000000
0.543182 0.107300 0.000000
0.586731 0.107300 0.000000
0.629883 0.107300 0.000000
0.672272 0.107300 0.000000
0.713806 0.107300 0.000000
0.754120 0.107300 0.000000
0.793060 0.107300 0.000000
0.830322 0.107300 0.000000
0.865662 0.107300 0.000000
0.898895 0.107300 0.000000
0.929718 0.107300 0.000000
0.957886 0.107300 0.000000
0.983612 0.107300 0.000000
1.000000 0.107300 0.000000
1.000000 0.107300 0.000000
1.000000 0.107300 0.000000
1.000000 0.107300 0.000000
0.000000 0.139130 0.000000
0.024719 0.139130 0.000000
0.050781 0.139130 0.000000
0.077942 0.139130 0.000000
0.107300 0.139130 0.000000
0.139130 0.139130 0.000000
0.173279 0.139130 0.000000
0.209503 0.139130 0.000000
0.247467 0.139130 0.000000
0.287048 0.139130 0.000000
0.327911 0.139130 0.000000
0.369843 0.139130 0.000000
0.412567 0.139130 0.000000
0.455872 0.139130 0.000000
0.499481 0.139130 0.000000
0.543182 0.139130 0.000000
0.586731 0.139130 0.000000
0.629883 0.139130 0.000000
0.672272 0.139130 0.000000
0.713806 0.139130 0.000000
0.754120 0.139130 0.000000
0.793060 0.139130 0.000000
0.830322 0.139130 0.000000
0.865662 0.139130 0.000000
0.898895 0.139130 0.000000
0.929718 0.139130 0.000000
0.957886 0.139130 0.000000
0.983612 0.139130 0.000000
1.000000 0.139130 0.000000
1.000000 0.139130 0.000000
1.000000 0.139130 0.000000
1.000000 0.139130 0.000000
0.000000 0.173279 0.000000
0.024719 0.173279 0.000000
0.050781 0.173279 0.000000
0.077942 0.173279 0.000000
0.107300 0.173279 0.000000
0.139130 0.173279 0.000000
0.173279 0.173279 0.000000
0.209503 0.173279 0.000000
0.247467 0.173279 0.000000
0.287048 0.173279 0.000000
0.327911 0.173279 0.000000
0.369843 0.173279 0.000000
0.412567 0.173279 0.000000
0.455872 0.173279 0.000000
0.499481 0.173279 0.000000
0.543182 0.173279 0.000000
0.586731 0.173279 0.000000
0.629883 0.173279 0.000000
0.672272 0.173279 0.000000
0.713806 0.173279 0.000000
0.754120 0.173279 0.000000
0.793060 0.173279 0.000000
0.830322 0.173279 0.000000
0.865662 0.173279 0.000000
0.898895 0.173279 0.000000
0.929718 0.173279 0.000000
0.957886 0.173279 0.000000
0.983612 0.173279 0.000000
1.000000 0.173279 0.000000
1.000000 0.173279 0.000000
1.000000 0.173279 0.000000
1.000000 0.173279 0.000000
0.000000 0.209503 0.000000
0.024719 0.209503 0.000000
0.050781 0.209503 0.000000
0.077942 0.209503 0.000000
0.107300 0.209503 0.000000
0.139130 0.209503 0.000000
0.173279 0.209503 0.000000
0.209503 0.209503 0.000000
0.247467 0.209503 0.000000
0.287048 0.209503 0.000000
0.327911 0.209503 0.000000
0.369843 0.209503 0.000000
0.412567 0.209503 0.000000
0.455872 0.209503 0.000000
0.499481 0.209503 0.000000
0.543182 0.209503 0.000000
0.586731 0.209503 0.000000
0.629883 0.209503 0.000000
0.672272 0.209503 0.000000
0.713806 0.209503 0.000000
0.754120 0.209503 0.000000
0.793060 0.209503 0.000000
0.830322 0.209503 0.000000
0.865662 0.209503 0.000000
0.898895 0.209503 0.000000
0.929718 0.209503 0.000000
0.957886 0.209503 0.000000
0.983612 0.209503 0.000000
1.000000 0.209503 0.000000
1.000000 0.209503 0.000000
1.000000 0.209503 0.000000
1.000000 0.209503 0.000000
0.000000 0.247467 0.000000
0.024719 0.247467 0.000000
0.050781 0.247467 0.000000
0.077942 0.247467 0.000000
0.107300 0.247467 0.000000
0.139130 0.247467 0.000000
0.173279 0.247467 0.000000
0.209503 0.247467 0.000000
0.247467 0.247467 0.000000
0.287048 0.247467 0.000000
0.327911 0.247467 0.000000
0.369843 0.247467 0.000000
0.412567 0.247467 0.000000
0.455872 0.247467 0.000000
0.499481 0.247467 0.000000
0.543182 0.247467 0.000000
0.586731 0.247467 0.000000
0.629883 0.247467 0.000000
0.672272 0.247467 0.000000
0.713806 0.247467 0.000000
0.754120 0.247467 0.000000
0.793060 0.247467 0.000000
0.830322 0.247467 0.000000
0.865662 0.247467 0.000000
0.898895 0.247467 0.000000
0.929718 0.247467 0.000000
0.957886 0.247467 0.000000
0.983612 0.247467 0.000000
1.000000 0.247467 0.000000
1.000000 0.247467 0.000000
1.000000 0.247467 0.000000
1.000000 0.247467 0.000000
0.000000 0.287048 0.000000
0.024719 0.287048 0.000000
0.050781 0.287048 0.000000
0.077942 0.287048 0.000000
0.107300 0.287048 0.000000
0.139130 0.287048 0.000000
0.173279 0.287048 0.000000
0.209503 0.287048 0.000000
0.247467 0.287048 0.000000
0.287048 0.287048 0.000000
0.327911 0.287048 0.000000
0.369843 0.287048 0.000000
0.412567 0.287048 0.000000
0.455872 0.287048 0.000000
0.499481 0.287048 0.000000
0.543182 0.287048 0.000000
0.586731 0.287048 0.000000
0.629883 0.287048 0.000000
0.672272 0.287048 0.000000
0.713806 0.287048 0.000000
0.754120 0.287048 0.000000
0.793060 0.287048 0.000000
0.830322 0.287048 0.000000
0.865662 0.287048 0.000000
0.898895 0.287048 0.000000
0.929718 0.287048 0.000000
0.957886 0.287048 0.000000
0.983612 0.287048 0.000000
1.000000 0.287048 0.000000
1.000000 0.287048 0.000000
1.000000 0.287048 0.000000
1.000000 0.287048 0.000000
0.000000 0.327911 0.000000
0.024719 0.327911 0.000000
0.050781 0.327911 0.000000
0.077942 0.327911 0.000000
0.107300 0.327911 0.000000
0.139130 0.327911 0.000000
0.173279 0.327911 0.000000
0.209503 0.327911 0.000000
0.247467 0.327911 0.000000
0.287048 0.327911 0.000000
0.327911 0.327911 0.000000
0.369843 0.327911 0.000000
0.412567 0.327911 0.000000
0.455872 0.327911 0.000000
0.499481 0.327911 0.000000
0.543182 0.327911 0.000000
0.586731 0.327911 0.000000
0.629883 0.327911 0.000000
0.672272 0.327911 0.000000
0.713806 0.327911 0.000000
0.754120 0.327911 0.000000
0.793060 0.327911 0.000000
0.830322 0.327911 0.000000
0.865662 0.327911 0.000000
0.898895 0.327911 0.000000
0.929718 0.327911 0.000000
0.957886 0.327911 0.000000
0.983612 0.327911 0.000000
1.000000 0.327911 0.000000
1.000000 0.327911 0.000000
1.000000 0.327911 0.000000
1.000000 0.327911 0.000000
0.000000 0.369843 0.000000
0.024719 0.369843 0.000000
0.050781 0.369843 0.000000
0.077942 0.369843 0.000000
0.107300 0.369843 0.000000
0.139130 0.369843 0.000000
0.173279 0.369843 0.000000
0.209503 0.369843 0.000000
0.247467 0.369843 0.000000
0.287048 0.369843 0.000000
0.327911 0.369843 0.000000
0.369843 0.369843 0.000000
0.412567 0.369843 0.000000
0.455872 0.369843 0.000000
0.499481 0.369843 0.000000
0.543182 0.369843 0.000000
0.586731 0.369843 0.000000
0.629883 0.369843 0.000000
0.672272 0.369843 0.000000
0.713806 0.369843 0.000000
0.754120 0.369843 0.000000
0.793060 0.369843 0.000000
0.830322 0.369843 0.000000
0.865662 0.369843 0.000000
0.898895 0.369843 0.000000
0.929718 0.369843 0.000000
0.957886 0.369843 0.000000
0.983612 0.369843 0.000000
1.000000 0.369843 0.000000
1.000000 0.369843 0.000000
1.000000 0.369843 0.000000
1.000000 0.369843 0.000000
0.000000 0.412567 0.000000
0.024719 0.412567 0.000000
0.050781 0.412567 0.000000
0.077942 0.412567 0.000000
0.107300 0.412567 0.000000
0.139130 0.412567 0.000000
0.173279 0.412567 0.000000
0.209503 0.412567 0.000000
0.247467 0.412567 0.000000
0.287048 0.412567 0.000000
0.327911 0.412567 0.000000
0.369843 0.412567 0.000000
0.412567 0.412567 0.000000
0.455872 0.412567 0.000000
0.499481 0.412567 0.000000
0.543182 0.412567 0.000000
0.586731 0.412567 0.000000
0.629883 0.412567 0.000000
0.672272 0.412567 0.000000
0.713806 0.412567 0.000000
0.754120 0.412567 0.000000
0.793060 0.412567 0.000000
0.830322 0.412567 0.000000
0.865662 0.412567 0.000000
0.898895 0.412567 0.000000
0.929718 0.412567 0.000000
0.957886 0.412567 0.000000
0.983612 0.412567 0.000000
1.000000 0.412567 0.000000
1.000000 0.412567 0.000000
1.000000 0.412567 0.000000
1.000000 0.412567 0.000000
0.000000 0.455872 0.000000
0.024719 0.455872 0.000000
0.050781 0.455872 0.000000
0.077942 0.455872 0.000000
0.107300 0.455872 0.000000
0.139130 0.455872 0.000000
0.173279 0.455872 0.000000
0.209503 0.455872 0.000000
0.247467 0.455872 0.000000
0.287048 0.455872 0.000000
0.327911 0.455872 0.000000
0.369843 0.455872 0.000000
0.412567 0.455872 0.000000
0.455872 0.455872 0.000000
0.499481 0.455872 0.000000
0.543182 0.455872 0.000000
0.586731 0.455872 0.000000
0.629883 0.455872 0.000000
0.672272 0.455872 0.000000
0.713806 0.455872 0.000000
0.754120 0.455872 0.000000
0.793060 0.455872 0.000000
0.830322 0.455872 0.000000
0.865662 0.455872 0.000000
0.898895 0.455872 0.000000
0.929718 0.455872 0.000000
0.957886 0.455872 0.000000
0.983612 0.455872 0.000000
1.000000 0.455872 0.000000
1.000000 0.455872 0.000000
1.000000 0.455872 0.000000
1.000000 0.455872 0.000000
0.000000 0.499481 0.000000
0.024719 0.499481 0.000000
0.050781 0.499481 0.000000
0.077942 0.499481 0.000000
0.107300 0.499481 0.000000
0.139130 0.499481 0.000000
0.173279 0.499481 0.000000
0.209503 0.499481 0.000000
0.247467 0.499481 0.000000
0.287048 0.499481 0.000000
0.327911 0.499481 0.000000
0.369843 0.499481 0.000000
0.412567 0.499481 0.000000
0.455872 0.499481 0.000000
0.499481 0.499481 0.000000
0.543182 0.499481 0.000000
0.586731 0.499481 0.000000
0.629883 0.499481 0.000000
0.672272 0.499481 0.000000
0.713806 0.499481 0.000000
0.754120 0.499481 0.000000
0.793060 0.499481 0.000000
0.830322 0.499481 0.000000
0.865662 0.499481 0.000000
0.898895 0.499481 0.000000
0.929718 0.499481 0.000000
0.957886 0.499481 0.000000
0.983612 0.499481 0.000000
1.000000 0.499481 0.000000
1.000000 0.499481 0.000000
1.000000 0.499481 0.000000
1.000000 0.499481 0.000000
0.000000 0.543182 0.000000
0.024719 0.543182 0.000000
0.050781 0.543182 0.000000
0.077942 0.543182 0.000000
0.107300 0.543182 0.000000
0.139130 0.543182 0.000000
0.173279 0.543182 0.000000
0.209503 0.543182 0.000000
0.247467 0.543182 0.000000
0.287048 0.543182 0.000000
0.327911 0.543182 0.000000
0.369843 0.543182 0.000000
0.412567 0.543182 0.000000
0.455872 0.543182 0.000000
0.499481 0.543182 0.000000
0.543182 0.543182 0.000000
0.586731 0.543182 0.000000
0.629883 0.543182 0.000000
0.672272 0.543182 0.000000
0.713806 0.543182 0.000000
0.754120 0.543182 0.000000
0.793060 0.543182 0.000000
0.830322 0.543182 0.000000
0.865662 0.543182 0.000000
0.898895 0.543182 0.000000
0.929718 0.543182 0.000000
0.957886 0.543182 0.000000
0.983612 0.543182 0.000000
1.000000 0.543182 0.000000
1.000000 0.543182 0.000000
1.000000 0.543182 0.000000
1.000000 0.543182 0.000000
0.000000 0.586731 0.000000
0.024719 0.586731 0.000000
0.050781 0.586731 0.000000
0.077942 0.586731 0.000000
0.107300 0.586731 0.000000
0.139130 0.586731 0.000000
0.173279 0.586731 0.000000
0.209503 0.586731 0.000000
0.247467 0.586731 0.000000
0.287048 0.586731 0.000000
0.327911 0.586731 0.000000
0.369843 0.586731 0.000000
0.412567 0.586731 0.000000
0.455872 0.586731 0.000000
0.499481 0.586731 0.000000
0.543182 0.586731 0.000000
0.586731 0.586731 0.000000
0.629883 0.586731 0.000000
0.672272 0.586731 0.000000
0.713806 0.586731 0.000000
0.754120 0.586731 0.000000
0.793060 0.586731 0.000000
0.830322 0.586731 0.000000
0.865662 0.586731 0.000000
0.898895 0.586731 0.000000
0.929718 0.586731 0.000000
0.957886 0.586731 0.000000
0.983612 0.586731 0.000000
1.000000 0.586731 0.000000
1.000000 0.586731 0.000000
1.000000 0.586731 0.000000
1.000000 0.586731 0.000000
0.000000 0.629883 0.000000
0.024719 0.629883 0.000000
0.050781 0.629883 0.000000
0.077942 0.629883 0.000000
0.107300 0.629883 0.000000
0.139130 0.629883 0.000000
0.173279 0.629883 0.000000
0.209503 0.629883 0.000000
0.247467 0.629883 0.000000
0.287048 0.629883 0.000000
0.327911 0.629883 0.000000
0.369843 0.629883 0.000000
0.412567 0.629883 0.000000
0.455872 0.629883 0.000000
0.499481 0.629883 0.000000
0.543182 0.629883 0.000000
0.586731 0.629883 0.000000
0.629883 0.629883 0.000000
0.672272 0.629883 0.000000
0.713806 0.629883 0.000000
0.754120 0.629883 0.000000
0.793060 0.629883 0.000000
0.830322 0.629883 0.000000
0.865662 0.629883 0.000000
0.898895 0.629883 0.000000
0.929718 0.629883 0.000000
0.957886 0.629883 0.000000
0.983612 0.629883 0.000000
1.000000 0.629883 0.000000
1.000000 0.629883 0.000000
1.000000 0.629883 0.000000
1.000000 0.629883 0.000000
0.000000 0.672272 0.000000
0.024719 0.672272 0.000000
0.050781 0.672272 0.000000
0.077942 0.672272 0.000000
0.107300 0.672272 0.000000
0.139130 0.672272 0.000000
0.173279 0.672272 0.000000
0.209503 0.672272 0.000000
0.247467 0.672272 0.000000
0.287048 0.672272 0.000000
0.327911 0.672272 0.000000
0.369843 0.672272 0.000000
0.412567 0.672272 0.000000
0.455872 0.672272 0.000000
0.499481 0.672272 0.000000
0.543182 0.672272 0.000000
0.586731 0.672272 0.000000
0.629883 0.672272 0.000000
0.672272 0.672272 0.000000
0.713806 0.672272 0.000000
0.754120 0.672272 0.000000
0.793060 0.672272 0.000000
0.830322 0.672272 0.000000
0.865662 0.672272 0.000000
0.898895 0.672272 0.000000
0.929718 0.672272 0.000000
0.957886 0.672272 0.000000
0.983612 0.672272 0.000000
1.000000 0.672272 0.000000
1.000000 0.672272 0.000000
1.000000 0.672272 0.000000
1.000000 0.672272 0.000000
0.000000 0.713806 0.000000
0.024719 0.713806 0.000000
0.050781 0.713806 0.000000
0.077942 0.713806 0.000000
0.107300 0.713806 0.000000
0.139130 0.713806 0.000000
0.173279 0.713806 0.000000
0.209503 0.713806 0.000000
0.247467 0.713806 0.000000
0.287048 0.713806 0.000000
0.327911 0.713806 0.000000
0.369843 0.713806 0.000000
0.412567 0.713806 0.000000
0.455872 0.713806 0.000000
0.499481 0.713806 0.000000
0.543182 0.713806 0.000000
0.586731 0.713806 0.000000
0.629883 0.713806 0.000000
0.672272 0.713806 0.000000
0.713806 0.713806 0.000000
0.754120 0.713806 0.000000
0.793060 0.713806 0.000000
0.830322 0.713806 0.000000
0.865662 0.713806 0.000000
0.898895 0.713806 0.000000
0.929718 0.713806 0.000000
0.957886 0.713806 0.000000
0.983612 0.713806 0.000000
1.000000 0.713806 0.000000
1.000000 0.713806 0.000000
1.000000 0.713806 0.000000
1.000000 0.713806 0.000000
0.000000 0.754120 0.000000
0.024719 0.754120 0.000000
0.050781 0.754120 0.000000
0.077942 0.754120 0.000000
0.107300 0.754120 0.000000
0.139130 0.754120 0.000000
0.173279 0.754120 0.000000
0.209503 0.754120 0.000000
0.247467 0.754120 0.000000
0.287048 0.754120 0.000000
0.327911 0.754120 0.000000
0.369843 0.754120 0.000000
0.412567 0.754120 0.000000
0.455872 0.754120 0.000000
0.499481 0.754120 0.000000
0.543182 0.754120 0.000000
0.586731 0.754120 0.000000
0.629883 0.754120 0.000000
0.672272 0.754120 0.000000
0.713806 0.754120 0.000000
0.754120 0.754120 0.000000
0.793060 0.754120 0.000000
0.830322 0.754120 0.000000
0.865662 0.754120 0.000000
0.898895 0.754120 0.000000
0.929718 0.754120 0.000000
0.957886 0.754120 0.000000
0.983612 0.754120 0.000000
1.000000 0.754120 0.000000
1.000000 0.754120 0.000000
1.000000 0.754120 0.000000
1.000000 0.754120 0.000000
0.000000 0.793060 0.000000
0.024719 0.793060 0.000000
0.050781 0.793060 0.000000
0.077942 0.793060 0.000000
0.107300 0.793060 0.000000
0.139130 0.793060 0.000000
0.173279 0.793060 0.000000
0.209503 0.793060 0.000000
0.247467 0.793060 0.000000
0.287048 0.793060 0.000000
0.327911 0.793060 0.000000
0.369843 0.793060 0.000000
0.412567 0.793060 0.000000
0.455872 0.793060 0.000000
0.499481 0.793060 0.000000
0.543182 0.793060 0.000000
0.586731 0.793060 0.000000
0.629883 0.793060 0.000000
0.672272 0.793060 0.000000
0.713806 0.793060 0.000000
0.754120 0.793060 0.000000
0.793060 0.793060 0.000000
0.830322 0.793060 0.000000
0.865662 0.793060 0.000000
0.898895 0.793060 0.000000
0.929718 0.793060 0.000000
0.957886 0.793060 0.000000
0.983612 0.793060 0.000000
1.000000 0.793060 0.000000
1.000000 0.793060 0.000000
1.000000 0.793060 0.000000
1.000000 0.793060 0.000000
0.000000 0.830322 0.000000
0.024719 0.830322 0.000000
0.050781 0.830322 0.000000
0.077942 0.830322 0.000000
0.107300 0.830322 0.000000
0.139130 0.830322 0.000000
0.173279 0.830322 0.000000
0.209503 0.830322 0.000000
0.247467 0.830322 0.000000
0.287048 0.830322 0.000000
0.327911 0.830322 0.000000
0.369843 0.830322 0.000000
0.412567 0.830322 0.000000
0.455872 0.830322 0.000000
0.499481 0.830322 0.000000
0.543182 0.830322 0.000000
0.586731 0.830322 0.000000
0.629883 0.830322 0.000000
0.672272 0.830322 0.000000
0.713806 0.830322 0.000000
0.754120 0.830322 0.000000
0.793060 0.830322 0.000000
0.830322 0.830322 0.000000
0.865662 0.830322 0.000000
0.898895 0.830322 0.000000
0.929718 0.830322 0.000000
0.957886 0.830322 0.000000
0.983612 0.830322 0.000000
1.000000 0.830322 0.000000
1.000000 0.830322 0.000000
1.000000 0.830322 0.000000
1.000000 0.830322 0.000000
0.000000 0.865662 0.000000
0.024719 0.865662 0.000000
0.050781 0.865662 0.000000
0.077942 0.865662 0.000000
0.107300 0.865662 0.000000
0.139130 0.865662 0.000000
0.173279 0.865662 0.000000
0.209503 0.865662 0.000000
0.247467 0.865662 0.000000
0.287048 0.865662 0.000000
0.327911 0.865662 0.000000
0.369843 0.865662 0.000000
0.412567 0.865662 0.000000
0.455872 0.865662 0.000000
0.499481 0.865662 0.000000
0.543182 0.865662 0.000000
0.586731 0.865662 0.000000
0.629883 0.865662 0.000000
0.672272 0.865662 0.000000
0.713806 0.865662 0.000000
0.754120 0.865662 0.000000
0.793060 0.865662 0.000000
0.830322 0.865662 0.000000
0.865662 0.865662 0.000000
0.898895 0.865662 0.000000
0.929718 0.865662 0.000000
0.957886 0.865662 0.000000
0.983612 0.865662 0.000000
1.000000 0.865662 0.000000
1.000000 0.865662 0.000000
1.000000 0.865662 0.000000
1.000000 0.865662 0.000000
0.000000 0.898895 0.000000
0.024719 0.898895 0.000000
0.050781 0.898895 0.000000
0.077942 0.898895 0.000000
0.107300 0.898895 0.000000
0.139130 0.898895 0.000000
0.173279 0.898895 0.000000
0.209503 0.898895 0.000000
0.247467 0.898895 0.000000
0.287048 0.898895 0.000000
0.327911 0.898895 0.000000
0.369843 0.898895 0.000000
0.412567 0.898895 0.000000
0.455872 0.898895 0.000000
0.499481 0.898895 0.000000
0.543182 0.898895 0.000000
0.586731 0.898895 0.000000
0.629883 0.898895 0.000000
0.672272 0.898895 0.000000
0.713806 0.898895 0.000000
0.754120 0.898895 0.000000
0.793060 0.898895 0.000000
0.830322 0.898895 0.000000
0.865662 0.898895 0.000000
0.898895 0.898895 0.000000
0.929718 0.898895 0.000000
0.957886 0.898895 0.000000
0.983612 0.898895 0.000000
1.000000 0.898895 0.000000
1.000000 0.898895 0.000000
1.000000 0.898895 0.000000
1.000000 0.898895 0.000000
0.000000 0.929718 0.000000
0.024719 0.929718 0.000000
0.050781 0.929718 0.000000
0.077942 0.929718 0.000000
0.107300 0.929718 0.000000
0.139130 0.929718 0.000000
0.173279 0.929718 0.000000
0.209503 0.929718 0.000000
0.247467 0.929718 0.000000
0.287048 0.929718 0.000000
0.327911 0.929718 0.000000
0.369843 0.929718 0.000000
0.412567 0.929718 0.000000
0.455872 0.929718 0.000000
0.499481 0.929718 0.000000
0.543182 0.929718 0.000000
0.586731 0.929718 0.000000
0.629883 0.929718 0.000000
0.672272 0.929718 0.000000
0.713806 0.929718 0.000000
0.754120 0.929718 0.000000
0.793060 0.929718 0.000000
0.830322 0.929718 0.000000
0.865662 0.929718 0.000000
0.898895 0.929718 0.000000
0.929718 0.929718 0.000000
0.957886 0.929718 0.000000
0.983612 0.929718 0.000000
1.000000 0.929718 0.000000
1.000000 0.929718 0.000000
1.000000 0.929718 0.000000
1.000000 0.929718 0.000000
0.000000 0.957886 0.000000
0.024719 0.957886 0.000000
0.050781 0.957886 0.000000
0.077942 0.957886 0.000000
0.107300 0.957886 0.000000
0.139130 0.957886 0.000000
0.173279 0.957886 0.000000
0.209503 0.957886 0.000000
0.247467 0.957886 0.000000
0.287048 0.957886 0.000000
0.327911 0.957886 0.000000
0.369843 0.957886 0.000000
0.412567 0.957886 0.000000
0.455872 0.957886 0.000000
0.499481 0.957886 0.000000
0.543182 0.957886 0.000000
0.586731 0.957886 0.000000
0.629883 0.957886 0.000000
0.672272 0.957886 0.000000
0.713806 0.957886 0.000000
0.754120 0.957886 0.000000
0.793060 0.957886 0.000000
0.830322 0.957886 0.000000
0.865662 0.957886 0.000000
0.898895 0.957886 0.000000
0.929718 0.957886 0.000000
0.957886 0.957886 0.000000
0.983612 0.957886 0.000000
1.000000 0.957886 0.000000
1.000000 0.957886 0.000000
1.000000 0.957886 0.000000
1.000000 0.957886 0.000000
0.000000 0.983612 0.000000
0.024719 0.983612 0.000000
0.050781 0.983612 0.000000
0.077942 0.983612 0.000000
0.107300 0.983612 0.000000
0.139130 0.983612 0.000000
0.173279 0.983612 0.000000
0.209503 0.983612 0.000000
0.247467 0.983612 0.000000
0.287048 0.983612 0.000000
0.327911 0.983612 0.000000
0.369843 0.983612 0.000000
0.412567 0.983612 0.000000
0.455872 0.983612 0.000000
0.499481 0.983612 0.000000
0.543182 0.983612 0.000000
0.586731 0.983612 0.000000
0.629883 0.983612 0.000000
