portrait-pop-4.CUBE
#Created by: Adobe Photoshop Export Color Lookup Plugin
TITLE "pp-4"
#LUT size
LUT_3D_SIZE 32
#data domain
DOMAIN_MIN 0.0 0.0 0.0
DOMAIN_MAX 1.0 1.0 1.0
#LUT data points
0.000000 0.000000 0.000000
0.000000 0.000000 0.000000
0.000000 0.000000 0.000000
0.000000 0.000000 0.000000
0.000000 0.000000 0.000000
0.000000 0.000000 0.000000
0.000000 0.000000 0.000000
0.000000 0.000000 0.000000
0.000000 0.000000 0.000000
0.000000 0.000000 0.000000
0.000000 0.000000 0.000000
0.000000 0.000000 0.000000
0.000000 0.000000 0.000000
0.000000 0.000000 0.000000
0.000000 0.000000 0.000000
0.000000 0.000000 0.000000
0.000000 0.000000 0.000000
0.000000 0.000000 0.000000
0.000000 0.000000 0.000000
0.006287 0.006287 0.006287
0.016571 0.016571 0.016571
0.026886 0.026886 0.026886
0.037170 0.037170 0.037170
0.047485 0.047485 0.047485
0.057770 0.057770 0.057770
0.068085 0.068085 0.068085
0.078369 0.078369 0.078369
0.088684 0.088684 0.088684
0.098969 0.098969 0.098969
0.109283 0.109283 0.109283
0.119568 0.119568 0.119568
0.129883 0.129883 0.129883
0.000000 0.000000 0.000000
0.000000 0.000000 0.000000
0.000000 0.000000 0.000000
0.000000 0.000000 0.000000
0.000000 0.000000 0.000000
0.000000 0.000000 0.000000
0.000000 0.000000 0.000000
0.000000 0.000000 0.000000
0.000000 0.000000 0.000000
0.000000 0.000000 0.000000
0.000000 0.000000 0.000000
0.000000 0.000000 0.000000
0.000000 0.000000 0.000000
0.000000 0.000000 0.000000
0.000000 0.000000 0.000000
0.000000 0.000000 0.000000
0.000000 0.000000 0.000000
0.000000 0.000000 0.000000
0.006592 0.006592 0.006592
0.016876 0.016876 0.016876
0.027191 0.027191 0.027191
0.037476 0.037476 0.037476
0.047791 0.047791 0.047791
0.058105 0.058105 0.058105
0.068390 0.068390 0.068390
0.078705 0.078705 0.078705
0.088989 0.088989 0.088989
0.099304 0.099304 0.099304
0.109589 0.109589 0.109589
0.119904 0.119904 0.119904
0.130188 0.130188 0.130188
0.140503 0.140503 0.140503
0.000000 0.000000 0.000000
0.000000 0.000000 0.000000
0.000000 0.000000 0.000000
0.000000 0.000000 0.000000
0.000000 0.000000 0.000000
0.000000 0.000000 0.000000
0.000000 0.000000 0.000000
0.000000 0.000000 0.000000
0.000000 0.000000 0.000000
0.000000 0.000000 0.000000
0.000000 0.000000 0.000000
0.000000 0.000000 0.000000
0.000000 0.000000 0.000000
0.000000 0.000000 0.000000
0.000000 0.000000 0.000000
0.000000 0.000000 0.000000
0.000000 0.000000 0.000000
0.006897 0.006897 0.006897
0.017212 0.017212 0.017212
0.027496 0.027496 0.027496
0.037811 0.037811 0.037811
0.048096 0.048096 0.048096
0.058411 0.058411 0.058411
0.068695 0.068695 0.068695
0.079010 0.079010 0.079010
0.089294 0.089294 0.089294
0.099609 0.099609 0.099609
0.109924 0.109924 0.109924
0.120209 0.120209 0.120209
0.130524 0.130524 0.130524
0.140808 0.140808 0.140808
0.151123 0.151123 0.151123
0.000000 0.000000 0.000000
0.000000 0.000000 0.000000
0.000000 0.000000 0.000000
0.000000 0.000000 0.000000
0.000000 0.000000 0.000000
0.000000 0.000000 0.000000
0.000000 0.000000 0.000000
0.000000 0.000000 0.000000
0.000000 0.000000 0.000000
0.000000 0.000000 0.000000
0.000000 0.000000 0.000000
0.000000 0.000000 0.000000
0.000000 0.000000 0.000000
0.000000 0.000000 0.000000
0.000000 0.000000 0.000000
0.000000 0.000000 0.000000
0.007233 0.007233 0.007233
0.017517 0.017517 0.017517
0.027832 0.027832 0.027832
0.038116 0.038116 0.038116
0.048431 0.048431 0.048431
0.058716 0.058716 0.058716
0.069031 0.069031 0.069031
0.079315 0.079315 0.079315
0.089630 0.089630 0.089630
0.099915 0.099915 0.099915
0.110229 0.110229 0.110229
0.120514 0.120514 0.120514
0.130829 0.130829 0.130829
0.141144 0.141144 0.141144
0.151428 0.151428 0.151428
0.161743 0.161743 0.161743
0.000000 0.000000 0.000000
0.000000 0.000000 0.000000
0.000000 0.000000 0.000000
0.000000 0.000000 0.000000
0.000000 0.000000 0.000000
0.000000 0.000000 0.000000
0.000000 0.000000 0.000000
0.000000 0.000000 0.000000
0.000000 0.000000 0.000000
0.000000 0.000000 0.000000
0.000000 0.000000 0.000000
0.000000 0.000000 0.000000
0.000000 0.000000 0.000000
0.000000 0.000000 0.000000
0.000000 0.000000 0.000000
0.007538 0.007538 0.007538
0.017822 0.017822 0.017822
0.028137 0.028137 0.028137
0.038422 0.038422 0.038422
0.048737 0.048737 0.048737
0.059052 0.059052 0.059052
0.069336 0.069336 0.069336
0.079651 0.079651 0.079651
0.089935 0.089935 0.089935
0.100250 0.100250 0.100250
0.110535 0.110535 0.110535
0.120850 0.120850 0.120850
0.131134 0.131134 0.131134
0.141449 0.141449 0.141449
0.151733 0.151733 0.151733
0.162048 0.162048 0.162048
0.172333 0.172333 0.172333
0.000000 0.000000 0.000000
0.000000 0.000000 0.000000
0.000000 0.000000 0.000000
0.000000 0.000000 0.000000
0.000000 0.000000 0.000000
0.000000 0.000000 0.000000
0.000000 0.000000 0.000000
0.000000 0.000000 0.000000
0.000000 0.000000 0.000000
0.000000 0.000000 0.000000
0.000000 0.000000 0.000000
0.000000 0.000000 0.000000
0.000000 0.000000 0.000000
0.000000 0.000000 0.000000
0.007843 0.007843 0.007843
0.018127 0.018127 0.018127
0.028442 0.028442 0.028442
0.038757 0.038757 0.038757
0.049042 0.049042 0.049042
0.059357 0.059357 0.059357
0.069641 0.069641 0.069641
0.079956 0.079956 0.079956
0.090240 0.090240 0.090240
0.100555 0.100555 0.100555
0.110870 0.110870 0.110870
0.121155 0.121155 0.121155
0.131470 0.131470 0.131470
0.141754 0.141754 0.141754
0.152069 0.152069 0.152069
0.162354 0.162354 0.162354
0.172668 0.172668 0.172668
0.182953 0.182953 0.182953
0.000000 0.000000 0.000000
0.000000 0.000000 0.000000
0.000000 0.000000 0.000000
0.000000 0.000000 0.000000
0.000000 0.000000 0.000000
0.000000 0.000000 0.000000
0.000000 0.000000 0.000000
0.000000 0.000000 0.000000
0.000000 0.000000 0.000000
0.000000 0.000000 0.000000
0.000000 0.000000 0.000000
0.000000 0.000000 0.000000
0.000000 0.000000 0.000000
0.008148 0.008148 0.008148
0.018463 0.018463 0.018463
0.028748 0.028748 0.028748
0.039062 0.039062 0.039062
0.049377 0.049377 0.049377
0.059662 0.059662 0.059662
0.069977 0.069977 0.069977
0.080261 0.080261 0.080261
0.090576 0.090576 0.090576
0.100861 0.100861 0.100861
0.111176 0.111176 0.111176
0.121460 0.121460 0.121460
0.131775 0.131775 0.131775
0.142059 0.142059 0.142059
0.152374 0.152374 0.152374
0.162689 0.162689 0.162689
0.172974 0.172974 0.172974
0.183289 0.183289 0.183289
0.193573 0.193573 0.193573
0.000000 0.000000 0.000000
0.000000 0.000000 0.000000
0.000000 0.000000 0.000000
0.000000 0.000000 0.000000
0.000000 0.000000 0.000000
0.000000 0.000000 0.000000
0.000000 0.000000 0.000000
0.000000 0.000000 0.000000
0.000000 0.000000 0.000000
0.000000 0.000000 0.000000
0.000000 0.000000 0.000000
0.000000 0.000000 0.000000
0.008453 0.008453 0.008453
0.018768 0.018768 0.018768
0.029083 0.029083 0.029083
0.039368 0.039368 0.039368
0.049683 0.049683 0.049683
0.059967 0.059967 0.059967
0.070282 0.070282 0.070282
0.080597 0.080597 0.080597
0.090881 0.090881 0.090881
0.101196 0.101196 0.101196
0.111481 0.111481 0.111481
0.121796 0.121796 0.121796
0.132080 0.132080 0.132080
0.142395 0.142395 0.142395
0.152679 0.152679 0.152679
0.162994 0.162994 0.162994
0.173279 0.173279 0.173279
0.183594 0.183594 0.183594
0.193878 0.193878 0.193878
0.204193 0.204193 0.204193
0.000000 0.000000 0.000000
0.000000 0.000000 0.000000
0.000000 0.000000 0.000000
0.000000 0.000000 0.000000
0.000000 0.000000 0.000000
0.000000 0.000000 0.000000
0.000000 0.000000 0.000000
0.000000 0.000000 0.000000
0.000000 0.000000 0.000000
0.000000 0.000000 0.000000
0.000000 0.000000 0.000000
0.008789 0.008789 0.008789
0.019073 0.019073 0.019073
0.029388 0.029388 0.029388
0.039673 0.039673 0.039673
0.049988 0.049988 0.049988
0.060303 0.060303 0.060303
0.070587 0.070587 0.070587
0.080902 0.080902 0.080902
0.091187 0.091187 0.091187
0.101501 0.101501 0.101501
0.111816 0.111816 0.111816
0.122101 0.122101 0.122101
0.132416 0.132416 0.132416
0.142700 0.142700 0.142700
0.153015 0.153015 0.153015
0.163300 0.163300 0.163300
0.173615 0.173615 0.173615
0.183899 0.183899 0.183899
0.194214 0.194214 0.194214
0.204498 0.204498 0.204498
0.214813 0.214813 0.214813
0.000000 0.000000 0.000000
0.000000 0.000000 0.000000
0.000000 0.000000 0.000000
0.000000 0.000000 0.000000
0.000000 0.000000 0.000000
0.000000 0.000000 0.000000
0.000000 0.000000 0.000000
0.000000 0.000000 0.000000
0.000000 0.000000 0.000000
0.000000 0.000000 0.000000
0.009094 0.009094 0.009094
0.019409 0.019409 0.019409
0.029694 0.029694 0.029694
0.040009 0.040009 0.040009
0.050293 0.050293 0.050293
0.060608 0.060608 0.060608
0.070923 0.070923 0.070923
0.081207 0.081207 0.081207
0.091522 0.091522 0.091522
0.101807 0.101807 0.101807
0.112122 0.112122 0.112122
0.122406 0.122406 0.122406
0.132721 0.132721 0.132721
0.143005 0.143005 0.143005
0.153320 0.153320 0.153320
0.163635 0.163635 0.163635
0.173920 0.173920 0.173920
0.184235 0.184235 0.184235
0.194519 0.194519 0.194519
0.204834 0.204834 0.204834
0.215118 0.215118 0.215118
0.225433 0.225433 0.225433
0.000000 0.000000 0.000000
0.000000 0.000000 0.000000
0.000000 0.000000 0.000000
0.000000 0.000000 0.000000
0.000000 0.000000 0.000000
0.000000 0.000000 0.000000
0.000000 0.000000 0.000000
0.000000 0.000000 0.000000
0.000000 0.000000 0.000000
0.009399 0.009399 0.009399
0.019714 0.019714 0.019714
0.030029 0.030029 0.030029
0.040314 0.040314 0.040314
0.050629 0.050629 0.050629
0.060913 0.060913 0.060913
0.071228 0.071228 0.071228
0.081543 0.081543 0.081543
0.091827 0.091827 0.091827
0.102142 0.102142 0.102142
0.112427 0.112427 0.112427
0.122742 0.122742 0.122742
0.133026 0.133026 0.133026
0.143341 0.143341 0.143341
0.153625 0.153625 0.153625
0.163940 0.163940 0.163940
0.174225 0.174225 0.174225
0.184540 0.184540 0.184540
0.194824 0.194824 0.194824
0.205139 0.205139 0.205139
0.215454 0.215454 0.215454
0.225739 0.225739 0.225739
0.236053 0.236053 0.236053
0.000000 0.000000 0.000000
0.000000 0.000000 0.000000
0.000000 0.000000 0.000000
0.000000 0.000000 0.000000
0.000000 0.000000 0.000000
0.000000 0.000000 0.000000
0.000000 0.000000 0.000000
0.000000 0.000000 0.000000
0.009735 0.009735 0.009735
0.020020 0.020020 0.020020
0.030334 0.030334 0.030334
0.040619 0.040619 0.040619
0.050934 0.050934 0.050934
0.061218 0.061218 0.061218
0.071533 0.071533 0.071533
0.081848 0.081848 0.081848
0.092133 0.092133 0.092133
0.102448 0.102448 0.102448
0.112732 0.112732 0.112732
0.123047 0.123047 0.123047
0.133362 0.133362 0.133362
0.143646 0.143646 0.143646
0.153961 0.153961 0.153961
0.164246 0.164246 0.164246
0.174561 0.174561 0.174561
0.184845 0.184845 0.184845
0.195160 0.195160 0.195160
0.205444 0.205444 0.205444
0.215759 0.215759 0.215759
0.226044 0.226044 0.226044
0.236359 0.236359 0.236359
0.246643 0.246643 0.246643
0.000000 0.000000 0.000000
0.000000 0.000000 0.000000
0.000000 0.000000 0.000000
0.000000 0.000000 0.000000
0.000000 0.000000 0.000000
0.000000 0.000000 0.000000
0.000000 0.000000 0.000000
0.010040 0.010040 0.010040
0.020355 0.020355 0.020355
0.030640 0.030640 0.030640
0.040955 0.040955 0.040955
0.051239 0.051239 0.051239
0.061554 0.061554 0.061554
0.071838 0.071838 0.071838
0.082153 0.082153 0.082153
0.092438 0.092438 0.092438
0.102753 0.102753 0.102753
0.113068 0.113068 0.113068
0.123352 0.123352 0.123352
0.133667 0.133667 0.133667
0.143951 0.143951 0.143951
0.154266 0.154266 0.154266
0.164551 0.164551 0.164551
0.174866 0.174866 0.174866
0.185181 0.185181 0.185181
0.195465 0.195465 0.195465
0.205780 0.205780 0.205780
0.216064 0.216064 0.216064
0.226379 0.226379 0.226379
0.236664 0.236664 0.236664
0.246979 0.246979 0.246979
0.257263 0.257263 0.257263
0.000000 0.000000 0.000000
0.000000 0.000000 0.000000
0.000000 0.000000 0.000000
0.000000 0.000000 0.000000
0.000000 0.000000 0.000000
0.000061 0.000061 0.000061
0.010345 0.010345 0.010345
0.020660 0.020660 0.020660
0.030945 0.030945 0.030945
0.041260 0.041260 0.041260
0.051575 0.051575 0.051575
0.061859 0.061859 0.061859
0.072174 0.072174 0.072174
0.082458 0.082458 0.082458
0.092773 0.092773 0.092773
0.103058 0.103058 0.103058
0.113373 0.113373 0.113373
0.123688 0.123688 0.123688
0.133972 0.133972 0.133972
0.144287 0.144287 0.144287
0.154572 0.154572 0.154572
0.164886 0.164886 0.164886
0.175171 0.175171 0.175171
0.185486 0.185486 0.185486
0.195770 0.195770 0.195770
0.206085 0.206085 0.206085
0.216370 0.216370 0.216370
0.226685 0.226685 0.226685
0.237000 0.237000 0.237000
0.247284 0.247284 0.247284
0.257599 0.257599 0.257599
0.267883 0.267883 0.267883
0.000000 0.000000 0.000000
0.000000 0.000000 0.000000
0.000000 0.000000 0.000000
0.000000 0.000000 0.000000
0.000366 0.000366 0.000366
0.010681 0.010681 0.010681
0.020966 0.020966 0.020966
0.031281 0.031281 0.031281
0.041565 0.041565 0.041565
0.051880 0.051880 0.051880
0.062164 0.062164 0.062164
0.072479 0.072479 0.072479
0.082794 0.082794 0.082794
0.093079 0.093079 0.093079
0.103394 0.103394 0.103394
0.113678 0.113678 0.113678
0.123993 0.123993 0.123993
0.134308 0.134308 0.134308
0.144592 0.144592 0.144592
0.154907 0.154907 0.154907
0.165192 0.165192 0.165192
0.175507 0.175507 0.175507
0.185791 0.185791 0.185791
0.196106 0.196106 0.196106
0.206390 0.206390 0.206390
0.216705 0.216705 0.216705
0.226990 0.226990 0.226990
0.237305 0.237305 0.237305
0.247589 0.247589 0.247589
0.257904 0.257904 0.257904
0.268219 0.268219 0.268219
0.278503 0.278503 0.278503
0.000000 0.000000 0.000000
0.000000 0.000000 0.000000
0.000000 0.000000 0.000000
0.000702 0.000702 0.000702
0.010986 0.010986 0.010986
0.021301 0.021301 0.021301
0.031586 0.031586 0.031586
0.041901 0.041901 0.041901
0.052185 0.052185 0.052185
0.062500 0.062500 0.062500
0.072784 0.072784 0.072784
0.083099 0.083099 0.083099
0.093384 0.093384 0.093384
0.103699 0.103699 0.103699
0.113983 0.113983 0.113983
0.124298 0.124298 0.124298
0.134613 0.134613 0.134613
0.144897 0.144897 0.144897
0.155212 0.155212 0.155212
0.165497 0.165497 0.165497
0.175812 0.175812 0.175812
0.186127 0.186127 0.186127
0.196411 0.196411 0.196411
0.206726 0.206726 0.206726
0.217010 0.217010 0.217010
0.227325 0.227325 0.227325
0.237610 0.237610 0.237610
0.247925 0.247925 0.247925
0.258209 0.258209 0.258209
0.268524 0.268524 0.268524
0.278809 0.278809 0.278809
0.289124 0.289124 0.289124
0.000000 0.000000 0.000000
0.000000 0.000000 0.000000
0.001007 0.001007 0.001007
0.011322 0.011322 0.011322
0.021606 0.021606 0.021606
0.031921 0.031921 0.031921
0.042206 0.042206 0.042206
0.052521 0.052521 0.052521
0.062805 0.062805 0.062805
0.073120 0.073120 0.073120
0.083405 0.083405 0.083405
0.093719 0.093719 0.093719
0.104034 0.104034 0.104034
0.114319 0.114319 0.114319
0.124634 0.124634 0.124634
0.134918 0.134918 0.134918
0.145233 0.145233 0.145233
0.155548 0.155548 0.155548
0.165833 0.165833 0.165833
0.176147 0.176147 0.176147
0.186432 0.186432 0.186432
0.196747 0.196747 0.196747
0.207031 0.207031 0.207031
0.217346 0.217346 0.217346
0.227631 0.227631 0.227631
0.237946 0.237946 0.237946
0.248230 0.248230 0.248230
0.258545 0.258545 0.258545
0.268829 0.268829 0.268829
0.279144 0.279144 0.279144
0.289459 0.289459 0.289459
0.299744 0.299744 0.299744
0.000000 0.000000 0.000000
0.001312 0.001312 0.001312
0.011627 0.011627 0.011627
0.021942 0.021942 0.021942
0.032227 0.032227 0.032227
0.042542 0.042542 0.042542
0.052826 0.052826 0.052826
0.063141 0.063141 0.063141
0.073425 0.073425 0.073425
0.083740 0.083740 0.083740
0.094025 0.094025 0.094025
0.104340 0.104340 0.104340
0.114624 0.114624 0.114624
0.124939 0.124939 0.124939
0.135223 0.135223 0.135223
0.145538 0.145538 0.145538
0.155853 0.155853 0.155853
0.166138 0.166138 0.166138
0.176453 0.176453 0.176453
0.186737 0.186737 0.186737
0.197052 0.197052 0.197052
0.207367 0.207367 0.207367
0.217651 0.217651 0.217651
0.227966 0.227966 0.227966
0.238251 0.238251 0.238251
0.248566 0.248566 0.248566
0.258850 0.258850 0.258850
0.269165 0.269165 0.269165
0.279449 0.279449 0.279449
0.289764 0.289764 0.289764
0.300049 0.300049 0.300049
0.310364 0.310364 0.310364
0.001648 0.001648 0.001648
0.011932 0.011932 0.011932
0.022247 0.022247 0.022247
0.032532 0.032532 0.032532
0.042847 0.042847 0.042847
0.053162 0.053162 0.053162
0.063446 0.063446 0.063446
0.073761 0.073761 0.073761
0.084045 0.084045 0.084045
0.094360 0.094360 0.094360
0.104645 0.104645 0.104645
0.114960 0.114960 0.114960
0.125244 0.125244 0.125244
0.135559 0.135559 0.135559
0.145844 0.145844 0.145844
0.156158 0.156158 0.156158
0.166473 0.166473 0.166473
0.176758 0.176758 0.176758
0.187073 0.187073 0.187073
0.197357 0.197357 0.197357
0.207672 0.207672 0.207672
0.217957 0.217957 0.217957
0.228271 0.228271 0.228271
0.238586 0.238586 0.238586
0.248871 0.248871 0.248871
0.259186 0.259186 0.259186
0.269470 0.269470 0.269470
0.279785 0.279785 0.279785
0.290070 0.290070 0.290070
0.300385 0.300385 0.300385
0.310669 0.310669 0.310669
0.320984 0.320984 0.320984
0.012268 0.012268 0.012268
0.022552 0.022552 0.022552
0.032867 0.032867 0.032867
0.043152 0.043152 0.043152
0.053467 0.053467 0.053467
0.063751 0.063751 0.063751
0.074066 0.074066 0.074066
0.084351 0.084351 0.084351
0.094666 0.094666 0.094666
0.104980 0.104980 0.104980
0.115265 0.115265 0.115265
0.125580 0.125580 0.125580
0.135864 0.135864 0.135864
0.146179 0.146179 0.146179
0.156464 0.156464 0.156464
0.166779 0.166779 0.166779
0.177094 0.177094 0.177094
0.187378 0.187378 0.187378
0.197693 0.197693 0.197693
0.207977 0.207977 0.207977
0.218292 0.218292 0.218292
0.228577 0.228577 0.228577
0.238892 0.238892 0.238892
0.249176 0.249176 0.249176
0.259491 0.259491 0.259491
0.269775 0.269775 0.269775
0.280090 0.280090 0.280090
0.290405 0.290405 0.290405
0.300690 0.300690 0.300690
0.311005 0.311005 0.311005
0.321289 0.321289 0.321289
0.331604 0.331604 0.331604
0.022888 0.022888 0.022888
0.033173 0.033173 0.033173
0.043488 0.043488 0.043488
0.053772 0.053772 0.053772
0.064087 0.064087 0.064087
0.074371 0.074371 0.074371
0.084686 0.084686 0.084686
0.094971 0.094971 0.094971
0.105286 0.105286 0.105286
0.115570 0.115570 0.115570
0.125885 0.125885 0.125885
0.136169 0.136169 0.136169
0.146484 0.146484 0.146484
0.156799 0.156799 0.156799
0.167084 0.167084 0.167084
0.177399 0.177399 0.177399
0.187683 0.187683 0.187683
0.197998 0.197998 0.197998
0.208313 0.208313 0.208313
0.218597 0.218597 0.218597
0.228912 0.228912 0.228912
0.239197 0.239197 0.239197
0.249512 0.249512 0.249512
0.259796 0.259796 0.259796
0.270111 0.270111 0.270111
0.280396 0.280396 0.280396
0.290710 0.290710 0.290710
0.300995 0.300995 0.300995
0.311310 0.311310 0.311310
0.321594 0.321594 0.321594
0.331909 0.331909 0.331909
0.342224 0.342224 0.342224
0.033478 0.033478 0.033478
0.043793 0.043793 0.043793
0.054077 0.054077 0.054077
0.064392 0.064392 0.064392
0.074707 0.074707 0.074707
0.084991 0.084991 0.084991
0.095306 0.095306 0.095306
0.105591 0.105591 0.105591
0.115906 0.115906 0.115906
0.126190 0.126190 0.126190
0.136505 0.136505 0.136505
0.146790 0.146790 0.146790
0.157104 0.157104 0.157104
0.167389 0.167389 0.167389
0.177704 0.177704 0.177704
0.187988 0.187988 0.187988
0.198303 0.198303 0.198303
0.208618 0.208618 0.208618
0.218903 0.218903 0.218903
0.229218 0.229218 0.229218
0.239502 0.239502 0.239502
0.249817 0.249817 0.249817
0.260132 0.260132 0.260132
0.270416 0.270416 0.270416
0.280731 0.280731 0.280731
0.291016 0.291016 0.291016
0.301331 0.301331 0.301331
0.311615 0.311615 0.311615
0.321930 0.321930 0.321930
0.332214 0.332214 0.332214
0.342529 0.342529 0.342529
0.352814 0.352814 0.352814
0.044098 0.044098 0.044098
0.054413 0.054413 0.054413
0.064697 0.064697 0.064697
0.075012 0.075012 0.075012
0.085297 0.085297 0.085297
0.095612 0.095612 0.095612
0.105896 0.105896 0.105896
0.116211 0.116211 0.116211
0.126526 0.126526 0.126526
0.136810 0.136810 0.136810
0.147125 0.147125 0.147125
0.157410 0.157410 0.157410
0.167725 0.167725 0.167725
0.178009 0.178009 0.178009
0.188324 0.188324 0.188324
0.198608 0.198608 0.198608
0.208923 0.208923 0.208923
0.219238 0.219238 0.219238
0.229523 0.229523 0.229523
0.239838 0.239838 0.239838
0.250122 0.250122 0.250122
0.260437 0.260437 0.260437
0.270721 0.270721 0.270721
0.281036 0.281036 0.281036
0.291321 0.291321 0.291321
0.301636 0.301636 0.301636
0.311951 0.311951 0.311951
0.322235 0.322235 0.322235
0.332550 0.332550 0.332550
0.342834 0.342834 0.342834
0.353149 0.353149 0.353149
0.363434 0.363434 0.363434
0.054718 0.054718 0.054718
0.065033 0.065033 0.065033
0.075317 0.075317 0.075317
0.085632 0.085632 0.085632
0.095917 0.095917 0.095917
0.106232 0.106232 0.106232
0.116516 0.116516 0.116516
0.126831 0.126831 0.126831
0.137115 0.137115 0.137115
0.147430 0.147430 0.147430
0.157715 0.157715 0.157715
0.168030 0.168030 0.168030
0.178345 0.178345 0.178345
0.188629 0.188629 0.188629
0.198944 0.198944 0.198944
0.209229 0.209229 0.209229
0.219543 0.219543 0.219543
0.229858 0.229858 0.229858
0.240143 0.240143 0.240143
0.250458 0.250458 0.250458
0.260742 0.260742 0.260742
0.271057 0.271057 0.271057
0.281342 0.281342 0.281342
0.291656 0.291656 0.291656
0.301941 0.301941 0.301941
0.312256 0.312256 0.312256
0.322540 0.322540 0.322540
0.332855 0.332855 0.332855
0.343170 0.343170 0.343170
0.353455 0.353455 0.353455
0.363770 0.363770 0.363770
0.374054 0.374054 0.374054
0.065338 0.065338 0.065338
0.075653 0.075653 0.075653
0.085938 0.085938 0.085938
0.096252 0.096252 0.096252
0.106537 0.106537 0.106537
0.116852 0.116852 0.116852
0.127136 0.127136 0.127136
0.137451 0.137451 0.137451
0.147736 0.147736 0.147736
0.158051 0.158051 0.158051
0.168335 0.168335 0.168335
0.178650 0.178650 0.178650
0.188934 0.188934 0.188934
0.199249 0.199249 0.199249
0.209564 0.209564 0.209564
0.219849 0.219849 0.219849
0.230164 0.230164 0.230164
0.240448 0.240448 0.240448
0.250763 0.250763 0.250763
0.261078 0.261078 0.261078
0.271362 0.271362 0.271362
0.281677 0.281677 0.281677
0.291962 0.291962 0.291962
0.302277 0.302277 0.302277
0.312561 0.312561 0.312561
0.322876 0.322876 0.322876
0.333160 0.333160 0.333160
0.343475 0.343475 0.343475
0.353760 0.353760 0.353760
0.364075 0.364075 0.364075
0.374359 0.374359 0.374359
0.384674 0.384674 0.384674
0.075958 0.075958 0.075958
0.086243 0.086243 0.086243
0.096558 0.096558 0.096558
0.106842 0.106842 0.106842
0.117157 0.117157 0.117157
0.127472 0.127472 0.127472
0.137756 0.137756 0.137756
0.148071 0.148071 0.148071
0.158356 0.158356 0.158356
0.168671 0.168671 0.168671
0.178955 0.178955 0.178955
0.189270 0.189270 0.189270
0.199554 0.199554 0.199554
0.209869 0.209869 0.209869
0.220154 0.220154 0.220154
0.230469 0.230469 0.230469
0.240784 0.240784 0.240784
0.251068 0.251068 0.251068
0.261383 0.261383 0.261383
0.271667 0.271667 0.271667
0.281982 0.281982 0.281982
0.292267 0.292267 0.292267
0.302582 0.302582 0.302582
0.312897 0.312897 0.312897
0.323181 0.323181 0.323181
0.333496 0.333496 0.333496
0.343781 0.343781 0.343781
0.354095 0.354095 0.354095
0.364380 0.364380 0.364380
0.374695 0.374695 0.374695
0.384979 0.384979 0.384979
0.395294 0.395294 0.395294
0.086578 0.086578 0.086578
0.096863 0.096863 0.096863
0.107178 0.107178 0.107178
0.117462 0.117462 0.117462
0.127777 0.127777 0.127777
0.138062 0.138062 0.138062
0.148376 0.148376 0.148376
0.158661 0.158661 0.158661
0.168976 0.168976 0.168976
0.179291 0.179291 0.179291
0.189575 0.189575 0.189575
0.199890 0.199890 0.199890
0.210175 0.210175 0.210175
0.220490 0.220490 0.220490
0.230774 0.230774 0.230774
0.241089 0.241089 0.241089
0.251404 0.251404 0.251404
0.261688 0.261688 0.261688
0.272003 0.272003 0.272003
0.282288 0.282288 0.282288
0.292603 0.292603 0.292603
0.302887 0.302887 0.302887
0.313202 0.313202 0.313202
0.323486 0.323486 0.323486
0.333801 0.333801 0.333801
0.344086 0.344086 0.344086
0.354401 0.354401 0.354401
0.364716 0.364716 0.364716
0.375000 0.375000 0.375000
0.385315 0.385315 0.385315
0.395599 0.395599 0.395599
0.405914 0.405914 0.405914
0.097198 0.097198 0.097198
0.107483 0.107483 0.107483
0.117798 0.117798 0.117798
0.128082 0.128082 0.128082
0.138397 0.138397 0.138397
0.148682 0.148682 0.148682
0.158997 0.158997 0.158997
0.169281 0.169281 0.169281
0.179596 0.179596 0.179596
0.189880 0.189880 0.189880
0.200195 0.200195 0.200195
0.210480 0.210480 0.210480
0.220795 0.220795 0.220795
0.231110 0.231110 0.231110
0.241394 0.241394 0.241394
0.251709 0.251709 0.251709
0.261993 0.261993 0.261993
0.272308 0.272308 0.272308
