portrait-pop-4.CUBE
#Created by: Adobe Photoshop Export Color Lookup Plugin
TITLE "pp-4"
#LUT size
LUT_3D_SIZE 8
#data domain
#LUT data points
DOMAIN_MIN 0.000000 0.000000 0.000000
DOMAIN_MAX 0.903226 0.903226 0.903226
0.000000 0.000000 0.000000
0.000000 0.000000 0.000000
0.000000 0.000000 0.000000
0.000000 0.000000 0.000000
0.000000 0.000000 0.000000
0.016571 0.016571 0.016571
0.057770 0.057770 0.057770
0.098969 0.098969 0.098969
0.000000 0.000000 0.000000
0.000000 0.000000 0.000000
0.000000 0.000000 0.000000
0.000000 0.000000 0.000000
0.017822 0.017822 0.017822
0.059052 0.059052 0.059052
0.100250 0.100250 0.100250
0.141449 0.141449 0.141449
0.000000 0.000000 0.000000
0.000000 0.000000 0.000000
0.000000 0.000000 0.000000
0.019073 0.019073 0.019073
0.060303 0.060303 0.060303
0.101501 0.101501 0.101501
0.142700 0.142700 0.142700
0.183899 0.183899 0.183899
0.000000 0.000000 0.000000
0.000000 0.000000 0.000000
0.020355 0.020355 0.020355
0.061554 0.061554 0.061554
0.102753 0.102753 0.102753
0.143951 0.143951 0.143951
0.185181 0.185181 0.185181
0.226379 0.226379 0.226379
0.000000 0.000000 0.000000
0.021606 0.021606 0.021606
0.062805 0.062805 0.062805
0.104034 0.104034 0.104034
0.145233 0.145233 0.145233
0.186432 0.186432 0.186432
0.227631 0.227631 0.227631
0.268829 0.268829 0.268829
0.022888 0.022888 0.022888
0.064087 0.064087 0.064087
0.105286 0.105286 0.105286
0.146484 0.146484 0.146484
0.187683 0.187683 0.187683
0.228912 0.228912 0.228912
0.270111 0.270111 0.270111
0.311310 0.311310 0.311310
0.065338 0.065338 0.065338
0.106537 0.106537 0.106537
0.147736 0.147736 0.147736
0.188934 0.188934 0.188934
0.230164 0.230164 0.230164
0.271362 0.271362 0.271362
0.312561 0.312561 0.312561
0.353760 0.353760 0.353760
0.107788 0.107788 0.107788
0.149017 0.149017 0.149017
0.190216 0.190216 0.190216
0.231415 0.231415 0.231415
0.272614 0.272614 0.272614
0.313843 0.313843 0.313843
0.355042 0.355042 0.355042
0.396240 0.396240 0.396240
0.000000 0.000000 0.000000
0.000000 0.000000 0.000000
0.000000 0.000000 0.000000
0.033447 0.033447 0.033447
0.074677 0.074677 0.074677
0.115875 0.115875 0.115875
0.157074 0.157074 0.157074
0.198273 0.198273 0.198273
0.000000 0.000000 0.000000
0.000000 0.000000 0.000000
0.034698 0.034698 0.034698
0.075897 0.075897 0.075897
0.117126 0.117126 0.117126
0.158325 0.158325 0.158325
0.199524 0.199524 0.199524
0.240723 0.240723 0.240723
0.000000 0.000000 0.000000
0.035980 0.035980 0.035980
0.077179 0.077179 0.077179
0.118378 0.118378 0.118378
0.159576 0.159576 0.159576
0.200806 0.200806 0.200806
0.242004 0.242004 0.242004
0.283203 0.283203 0.283203
0.037231 0.037231 0.037231
0.078430 0.078430 0.078430
0.119629 0.119629 0.119629
0.160828 0.160828 0.160828
0.202057 0.202057 0.202057
0.243256 0.243256 0.243256
0.284454 0.284454 0.284454
0.325653 0.325653 0.325653
0.079712 0.079712 0.079712
0.120911 0.120911 0.120911
0.162109 0.162109 0.162109
0.203308 0.203308 0.203308
0.244537 0.244537 0.244537
0.285736 0.285736 0.285736
0.326935 0.326935 0.326935
0.368134 0.368134 0.368134
0.122162 0.122162 0.122162
0.163361 0.163361 0.163361
0.204559 0.204559 0.204559
0.245789 0.245789 0.245789
0.286987 0.286987 0.286987
0.328186 0.328186 0.328186
0.369385 0.369385 0.369385
0.410614 0.410614 0.410614
0.164642 0.164642 0.164642
0.205841 0.205841 0.205841
0.247040 0.247040 0.247040
0.288239 0.288239 0.288239
0.329437 0.329437 0.329437
0.370667 0.370667 0.370667
0.411865 0.411865 0.411865
0.453064 0.453064 0.453064
0.207092 0.207092 0.207092
0.248291 0.248291 0.248291
0.289490 0.289490 0.289490
0.330688 0.330688 0.330688
0.371918 0.371918 0.371918
0.413116 0.413116 0.413116
0.454315 0.454315 0.454315
0.495514 0.495514 0.495514
0.009125 0.009125 0.009125
0.050323 0.050323 0.050323
0.091522 0.091522 0.091522
0.132751 0.132751 0.132751
0.173950 0.173950 0.173950
0.215149 0.215149 0.215149
0.256348 0.256348 0.256348
0.297577 0.297577 0.297577
0.051605 0.051605 0.051605
0.092804 0.092804 0.092804
0.134003 0.134003 0.134003
0.175201 0.175201 0.175201
0.216431 0.216431 0.216431
0.257629 0.257629 0.257629
0.298828 0.298828 0.298828
0.340027 0.340027 0.340027
0.094055 0.094055 0.094055
0.135254 0.135254 0.135254
0.176453 0.176453 0.176453
0.217651 0.217651 0.217651
0.258881 0.258881 0.258881
0.300079 0.300079 0.300079
0.341278 0.341278 0.341278
0.382477 0.382477 0.382477
0.136505 0.136505 0.136505
0.177734 0.177734 0.177734
0.218933 0.218933 0.218933
0.260132 0.260132 0.260132
0.301331 0.301331 0.301331
0.342560 0.342560 0.342560
0.383759 0.383759 0.383759
0.424957 0.424957 0.424957
0.178986 0.178986 0.178986
0.220184 0.220184 0.220184
0.261414 0.261414 0.261414
0.302612 0.302612 0.302612
0.343811 0.343811 0.343811
0.385010 0.385010 0.385010
0.426208 0.426208 0.426208
0.467438 0.467438 0.467438
0.221466 0.221466 0.221466
0.262665 0.262665 0.262665
0.303864 0.303864 0.303864
0.345062 0.345062 0.345062
0.386292 0.386292 0.386292
0.427490 0.427490 0.427490
0.468689 0.468689 0.468689
0.509888 0.509888 0.509888
0.263916 0.263916 0.263916
0.305115 0.305115 0.305115
0.346313 0.346313 0.346313
0.387543 0.387543 0.387543
0.428741 0.428741 0.428741
0.469940 0.469940 0.469940
0.511139 0.511139 0.511139
0.552368 0.552368 0.552368
0.306396 0.306396 0.306396
0.347595 0.347595 0.347595
0.388794 0.388794 0.388794
0.429993 0.429993 0.429993
0.471222 0.471222 0.471222
0.512421 0.512421 0.512421
0.553619 0.553619 0.553619
0.594818 0.594818 0.594818
0.108429 0.108429 0.108429
0.149628 0.149628 0.149628
0.190826 0.190826 0.190826
0.232025 0.232025 0.232025
0.273254 0.273254 0.273254
0.314453 0.314453 0.314453
0.355652 0.355652 0.355652
0.396851 0.396851 0.396851
0.150879 0.150879 0.150879
0.192078 0.192078 0.192078
0.233276 0.233276 0.233276
0.274506 0.274506 0.274506
0.315704 0.315704 0.315704
0.356903 0.356903 0.356903
0.398102 0.398102 0.398102
0.439331 0.439331 0.439331
0.193359 0.193359 0.193359
0.234558 0.234558 0.234558
0.275757 0.275757 0.275757
0.316956 0.316956 0.316956
0.358185 0.358185 0.358185
0.399384 0.399384 0.399384
0.440582 0.440582 0.440582
0.481781 0.481781 0.481781
0.235809 0.235809 0.235809
0.277008 0.277008 0.277008
0.318207 0.318207 0.318207
0.359436 0.359436 0.359436
0.400635 0.400635 0.400635
0.441833 0.441833 0.441833
0.483032 0.483032 0.483032
0.524231 0.524231 0.524231
0.278290 0.278290 0.278290
0.319489 0.319489 0.319489
0.360687 0.360687 0.360687
0.401886 0.401886 0.401886
0.443115 0.443115 0.443115
0.484314 0.484314 0.484314
0.525513 0.525513 0.525513
0.566711 0.566711 0.566711
0.320740 0.320740 0.320740
0.361938 0.361938 0.361938
0.403168 0.403168 0.403168
0.444366 0.444366 0.444366
0.485565 0.485565 0.485565
0.526764 0.526764 0.526764
0.567993 0.567993 0.567993
0.609192 0.609192 0.609192
0.363220 0.363220 0.363220
0.404419 0.404419 0.404419
0.445618 0.445618 0.445618
0.486816 0.486816 0.486816
0.528046 0.528046 0.528046
0.569244 0.569244 0.569244
0.610443 0.610443 0.610443
0.651642 0.651642 0.651642
0.405670 0.405670 0.405670
0.446869 0.446869 0.446869
0.488068 0.488068 0.488068
0.529297 0.529297 0.529297
0.570496 0.570496 0.570496
0.611694 0.611694 0.611694
0.652893 0.652893 0.652893
0.694122 0.694122 0.694122
0.207733 0.207733 0.207733
0.248932 0.248932 0.248932
0.290131 0.290131 0.290131
0.331360 0.331360 0.331360
0.372559 0.372559 0.372559
0.413757 0.413757 0.413757
0.454956 0.454956 0.454956
0.496155 0.496155 0.496155
0.250214 0.250214 0.250214
0.291412 0.291412 0.291412
0.332611 0.332611 0.332611
0.373810 0.373810 0.373810
0.415009 0.415009 0.415009
0.456238 0.456238 0.456238
0.497437 0.497437 0.497437
0.538635 0.538635 0.538635
0.292664 0.292664 0.292664
0.333862 0.333862 0.333862
0.375061 0.375061 0.375061
0.416260 0.416260 0.416260
0.457489 0.457489 0.457489
0.498688 0.498688 0.498688
0.539886 0.539886 0.539886
0.581085 0.581085 0.581085
0.335114 0.335114 0.335114
0.376343 0.376343 0.376343
0.417542 0.417542 0.417542
0.458740 0.458740 0.458740
0.499939 0.499939 0.499939
0.541138 0.541138 0.541138
0.582367 0.582367 0.582367
0.623566 0.623566 0.623566
0.377594 0.377594 0.377594
0.418793 0.418793 0.418793
0.459991 0.459991 0.459991
0.501221 0.501221 0.501221
0.542419 0.542419 0.542419
0.583618 0.583618 0.583618
0.624817 0.624817 0.624817
0.666046 0.666046 0.666046
0.420074 0.420074 0.420074
0.461273 0.461273 0.461273
0.502472 0.502472 0.502472
0.543671 0.543671 0.543671
0.584900 0.584900 0.584900
0.626099 0.626099 0.626099
0.667297 0.667297 0.667297
0.708496 0.708496 0.708496
0.462524 0.462524 0.462524
0.503723 0.503723 0.503723
0.544922 0.544922 0.544922
0.586151 0.586151 0.586151
0.627350 0.627350 0.627350
0.668549 0.668549 0.668549
0.709747 0.709747 0.709747
0.750946 0.750946 0.750946
0.505005 0.505005 0.505005
0.546204 0.546204 0.546204
0.587402 0.587402 0.587402
0.628601 0.628601 0.628601
0.669800 0.669800 0.669800
0.711029 0.711029 0.711029
0.752228 0.752228 0.752228
0.793427 0.793427 0.793427
0.307037 0.307037 0.307037
0.348236 0.348236 0.348236
0.389435 0.389435 0.389435
0.430634 0.430634 0.430634
0.471863 0.471863 0.471863
0.513062 0.513062 0.513062
0.554260 0.554260 0.554260
0.595459 0.595459 0.595459
0.349487 0.349487 0.349487
0.390686 0.390686 0.390686
0.431885 0.431885 0.431885
0.473114 0.473114 0.473114
0.514313 0.514313 0.514313
0.555511 0.555511 0.555511
0.596710 0.596710 0.596710
0.637909 0.637909 0.637909
0.391968 0.391968 0.391968
0.433167 0.433167 0.433167
0.474365 0.474365 0.474365
0.515564 0.515564 0.515564
0.556763 0.556763 0.556763
0.597992 0.597992 0.597992
0.639191 0.639191 0.639191
0.680389 0.680389 0.680389
0.434418 0.434418 0.434418
0.475616 0.475616 0.475616
0.516815 0.516815 0.516815
0.558014 0.558014 0.558014
0.599243 0.599243 0.599243
0.640442 0.640442 0.640442
0.681641 0.681641 0.681641
0.722839 0.722839 0.722839
0.476898 0.476898 0.476898
0.518097 0.518097 0.518097
0.559296 0.559296 0.559296
0.600494 0.600494 0.600494
0.641724 0.641724 0.641724
0.682922 0.682922 0.682922
0.724121 0.724121 0.724121
0.765320 0.765320 0.765320
0.519348 0.519348 0.519348
0.560547 0.560547 0.560547
0.601776 0.601776 0.601776
0.642975 0.642975 0.642975
0.684174 0.684174 0.684174
0.725372 0.725372 0.725372
0.766571 0.766571 0.766571
0.807800 0.807800 0.807800
0.561829 0.561829 0.561829
0.603027 0.603027 0.603027
0.644226 0.644226 0.644226
0.685425 0.685425 0.685425
0.726654 0.726654 0.726654
0.767853 0.767853 0.767853
0.809052 0.809052 0.809052
0.850250 0.850250 0.850250
0.604279 0.604279 0.604279
0.645477 0.645477 0.645477
0.686676 0.686676 0.686676
0.727905 0.727905 0.727905
0.769104 0.769104 0.769104
0.810303 0.810303 0.810303
0.851501 0.851501 0.851501
0.892700 0.892700 0.892700
0.406311 0.406311 0.406311
0.447510 0.447510 0.447510
0.488739 0.488739 0.488739
0.529938 0.529938 0.529938
0.571136 0.571136 0.571136
0.612335 0.612335 0.612335
0.653534 0.653534 0.653534
0.694763 0.694763 0.694763
0.448792 0.448792 0.448792
0.489990 0.489990 0.489990
0.531189 0.531189 0.531189
0.572388 0.572388 0.572388
0.613617 0.613617 0.613617
0.654816 0.654816 0.654816
0.696014 0.696014 0.696014
0.737213 0.737213 0.737213
0.491241 0.491241 0.491241
0.532440 0.532440 0.532440
0.573639 0.573639 0.573639
0.614868 0.614868 0.614868
0.656067 0.656067 0.656067
0.697266 0.697266 0.697266
0.738464 0.738464 0.738464
0.779694 0.779694 0.779694
0.533722 0.533722 0.533722
0.574921 0.574921 0.574921
0.616119 0.616119 0.616119
0.657318 0.657318 0.657318
0.698517 0.698517 0.698517
0.739746 0.739746 0.739746
0.780945 0.780945 0.780945
0.822144 0.822144 0.822144
0.576172 0.576172 0.576172
0.617371 0.617371 0.617371
0.658600 0.658600 0.658600
0.699799 0.699799 0.699799
0.740997 0.740997 0.740997
0.782196 0.782196 0.782196
0.823425 0.823425 0.823425
0.864624 0.864624 0.864624
0.618652 0.618652 0.618652
0.659851 0.659851 0.659851
0.701050 0.701050 0.701050
0.742249 0.742249 0.742249
0.783478 0.783478 0.783478
0.824677 0.824677 0.824677
0.865875 0.865875 0.865875
0.907074 0.907074 0.907074
0.661102 0.661102 0.661102
0.702301 0.702301 0.702301
0.743530 0.743530 0.743530
0.784729 0.784729 0.784729
0.825928 0.825928 0.825928
0.867126 0.867126 0.867126
0.908325 0.908325 0.908325
0.949554 0.949554 0.949554
0.703583 0.703583 0.703583
0.744781 0.744781 0.744781
0.785980 0.785980 0.785980
0.827179 0.827179 0.827179
0.868408 0.868408 0.868408
0.909607 0.909607 0.909607
0.950806 0.950806 0.950806
0.992004 0.992004 0.992004
0.505615 0.505615 0.505615
0.546814 0.546814 0.546814
0.588013 0.588013 0.588013
0.629211 0.629211 0.629211
0.670441 0.670441 0.670441
0.711639 0.711639 0.711639
0.752838 0.752838 0.752838
0.794037 0.794037 0.794037
0.548065 0.548065 0.548065
0.589264 0.589264 0.589264
0.630493 0.630493 0.630493
0.671692 0.671692 0.671692
0.712891 0.712891 0.712891
0.754089 0.754089 0.754089
0.795288 0.795288 0.795288
0.836517 0.836517 0.836517
0.590546 0.590546 0.590546
0.631744 0.631744 0.631744
0.672943 0.672943 0.672943
0.714142 0.714142 0.714142
0.755371 0.755371 0.755371
0.796570 0.796570 0.796570
0.837769 0.837769 0.837769
0.878967 0.878967 0.878967
0.632996 0.632996 0.632996
0.674194 0.674194 0.674194
0.715393 0.715393 0.715393
0.756622 0.756622 0.756622
0.797821 0.797821 0.797821
0.839020 0.839020 0.839020
0.880219 0.880219 0.880219
0.921448 0.921448 0.921448
0.675476 0.675476 0.675476
0.716675 0.716675 0.716675
0.757874 0.757874 0.757874
0.799072 0.799072 0.799072
0.840302 0.840302 0.840302
0.881500 0.881500 0.881500
0.922699 0.922699 0.922699
0.963898 0.963898 0.963898
0.717926 0.717926 0.717926
0.759155 0.759155 0.759155
0.800354 0.800354 0.800354
0.841553 0.841553 0.841553
0.882751 0.882751 0.882751
0.923950 0.923950 0.923950
0.965179 0.965179 0.965179
1.000000 1.000000 1.000000
0.760406 0.760406 0.760406
0.801605 0.801605 0.801605
0.842804 0.842804 0.842804
0.884003 0.884003 0.884003
0.925232 0.925232 0.925232
0.966431 0.966431 0.966431
1.000000 1.000000 1.000000
1.000000 1.000000 1.000000
0.802856 0.802856 0.802856
0.844055 0.844055 0.844055
0.885284 0.885284 0.885284
0.926483 0.926483 0.926483
0.967682 0.967682 0.967682
1.000000 1.000000 1.000000
1.000000 1.000000 1.000000
1.000000 1.000000 1.000000
