portrait-pop-6.CUBE
#Created by: Adobe Photoshop Export Color Lookup Plugin
TITLE "pp-6"
#LUT size
LUT_3D_SIZE 5
#data domain
#LUT data points
DOMAIN_MIN 0.000000 0.000000 0.000000
DOMAIN_MAX 0.903226 0.903226 0.903226
0.000000 0.000000 0.000000
0.421844 0.000000 0.087067
0.713562 0.000000 0.163391
0.873962 0.000000 0.216675
0.968933 0.000000 0.255737
0.000000 0.485626 0.000000
0.321716 0.321716 0.000000
0.655090 0.295227 0.076324
0.844543 0.276733 0.129639
0.960815 0.263184 0.168701
0.000000 0.760651 0.000000
0.248688 0.687744 0.000000
0.603821 0.603821 0.000000
0.818756 0.593018 0.053284
0.953705 0.585114 0.092346
0.000000 0.901764 0.000000
0.175201 0.870056 0.000000
0.550842 0.836517 0.000000
0.800751 0.800751 0.000000
0.948730 0.796783 0.039062
0.000000 0.979858 0.000000
0.102570 0.971252 0.000000
0.493347 0.962585 0.000000
0.779419 0.953888 0.000000
0.945099 0.945099 0.000000
0.000000 0.000000 0.321716
0.321716 0.000000 0.321716
0.655090 0.000000 0.373505
0.844543 0.000000 0.409637
0.960815 0.000000 0.436157
0.000000 0.321716 0.321716
0.321716 0.321716 0.321716
0.655090 0.295227 0.373505
0.844543 0.276733 0.409637
0.960815 0.263184 0.436157
0.000000 0.687744 0.248688
0.248688 0.687744 0.248688
0.603821 0.603821 0.321716
0.818756 0.593018 0.357880
0.953705 0.585114 0.384369
0.000000 0.870056 0.175201
0.175201 0.870056 0.175201
0.550842 0.836517 0.248688
0.800751 0.800751 0.321716
0.948730 0.796783 0.348206
0.000000 0.971252 0.102570
0.102570 0.971252 0.102570
0.493347 0.962585 0.175201
0.779419 0.953888 0.248688
0.945099 0.945099 0.321716
0.000000 0.000000 0.603821
0.321716 0.000000 0.603821
0.603821 0.000000 0.603821
0.818756 0.000000 0.624939
0.953705 0.000000 0.640411
0.000000 0.321716 0.603821
0.321716 0.321716 0.603821
0.603821 0.321716 0.603821
0.818756 0.303223 0.624939
0.953705 0.289673 0.640411
0.000000 0.603821 0.603821
0.321716 0.603821 0.603821
0.603821 0.603821 0.603821
0.818756 0.593018 0.624939
0.953705 0.585114 0.640411
0.000000 0.836517 0.523651
0.248688 0.836517 0.523651
0.550842 0.836517 0.523651
0.800751 0.800751 0.603821
0.948730 0.796783 0.619293
0.000000 0.962585 0.433258
0.175201 0.962585 0.433258
0.493347 0.962585 0.433258
0.779419 0.953888 0.523682
0.945099 0.945099 0.603821
0.000000 0.000000 0.800751
0.321716 0.000000 0.800751
0.603821 0.000000 0.800751
0.800751 0.000000 0.800751
0.948730 0.000000 0.808533
0.000000 0.321716 0.800751
0.321716 0.321716 0.800751
0.603821 0.321716 0.800751
0.800751 0.321716 0.800751
0.948730 0.308167 0.808533
0.000000 0.603821 0.800751
0.321716 0.603821 0.800751
0.603821 0.603821 0.800751
0.800751 0.603821 0.800751
0.948730 0.595917 0.808533
0.000000 0.800751 0.800751
0.321716 0.800751 0.800751
0.603821 0.800751 0.800751
0.800751 0.800751 0.800751
0.948730 0.796783 0.808533
0.000000 0.953888 0.768799
0.248688 0.953888 0.768799
0.550873 0.953888 0.768799
0.779419 0.953888 0.768799
0.945099 0.945099 0.800751
0.000000 0.000000 0.945099
0.321716 0.000000 0.945099
0.603821 0.000000 0.945099
0.800751 0.000000 0.945099
0.945099 0.000000 0.945099
0.000000 0.321716 0.945099
0.321716 0.321716 0.945099
0.603821 0.321716 0.945099
0.800751 0.321716 0.945099
0.945099 0.321716 0.945099
0.000000 0.603821 0.945099
0.321716 0.603821 0.945099
0.603821 0.603821 0.945099
0.800751 0.603821 0.945099
0.945099 0.603821 0.945099
0.000000 0.800751 0.945099
0.321716 0.800751 0.945099
0.603821 0.800751 0.945099
0.800751 0.800751 0.945099
0.945099 0.800751 0.945099
0.000000 0.945099 0.945099
0.321716 0.945099 0.945099
0.603821 0.945099 0.945099
0.800751 0.945099 0.945099
0.945099 0.945099 0.945099
