portrait-pop-10.CUBE
#Created by: Adobe Photoshop Export Color Lookup Plugin
TITLE "pp-10"
#LUT size
LUT_3D_SIZE 32
#data domain
DOMAIN_MIN 0.0 0.0 0.0
DOMAIN_MAX 1.0 1.0 1.0
#LUT data points
0.000000 0.000000 0.000000
0.012878 0.012878 0.012878
0.027313 0.027313 0.027313
0.039368 0.039368 0.039368
0.051147 0.051147 0.051147
0.062836 0.062836 0.062836
0.074493 0.074493 0.074493
0.086182 0.086182 0.086182
0.097961 0.097961 0.097961
0.109894 0.109894 0.109894
0.122040 0.122040 0.122040
0.134369 0.134369 0.134369
0.147034 0.147034 0.147034
0.159882 0.159882 0.159882
0.173035 0.173035 0.173035
0.186401 0.186401 0.186401
0.200043 0.200043 0.200043
0.213898 0.213898 0.213898
0.227875 0.227875 0.227875
0.242065 0.242065 0.242065
0.256378 0.256378 0.256378
0.270844 0.270844 0.270844
0.285461 0.285461 0.285461
0.300171 0.300171 0.300171
0.315002 0.315002 0.315002
0.329926 0.329926 0.329926
0.344971 0.344971 0.344971
0.360046 0.360046 0.360046
0.375153 0.375153 0.375153
0.390320 0.390320 0.390320
0.405518 0.405518 0.405518
0.420715 0.420715 0.420715
0.026917 0.026917 0.026917
0.038971 0.038971 0.038971
0.050781 0.050781 0.050781
0.062469 0.062469 0.062469
0.074097 0.074097 0.074097
0.085754 0.085754 0.085754
0.097565 0.097565 0.097565
0.109497 0.109497 0.109497
0.121613 0.121613 0.121613
0.133942 0.133942 0.133942
0.146606 0.146606 0.146606
0.159485 0.159485 0.159485
0.172638 0.172638 0.172638
0.186005 0.186005 0.186005
0.199585 0.199585 0.199585
0.213379 0.213379 0.213379
0.227386 0.227386 0.227386
0.241516 0.241516 0.241516
0.255890 0.255890 0.255890
0.270386 0.270386 0.270386
0.284973 0.284973 0.284973
0.299713 0.299713 0.299713
0.314545 0.314545 0.314545
0.329468 0.329468 0.329468
0.344482 0.344482 0.344482
0.359528 0.359528 0.359528
0.374634 0.374634 0.374634
0.389801 0.389801 0.389801
0.404968 0.404968 0.404968
0.420197 0.420197 0.420197
0.435425 0.435425 0.435425
0.450653 0.450653 0.450653
0.050354 0.050354 0.050354
0.062073 0.062073 0.062073
0.073669 0.073669 0.073669
0.085419 0.085419 0.085419
0.097168 0.097168 0.097168
0.109100 0.109100 0.109100
0.121216 0.121216 0.121216
0.133575 0.133575 0.133575
0.146179 0.146179 0.146179
0.159027 0.159027 0.159027
0.172150 0.172150 0.172150
0.185547 0.185547 0.185547
0.199127 0.199127 0.199127
0.212891 0.212891 0.212891
0.226929 0.226929 0.226929
0.241089 0.241089 0.241089
0.255402 0.255402 0.255402
0.269867 0.269867 0.269867
0.284454 0.284454 0.284454
0.299164 0.299164 0.299164
0.313995 0.313995 0.313995
0.328918 0.328918 0.328918
0.343964 0.343964 0.343964
0.359039 0.359039 0.359039
0.374176 0.374176 0.374176
0.389313 0.389313 0.389313
0.404480 0.404480 0.404480
0.419708 0.419708 0.419708
0.434906 0.434906 0.434906
0.450134 0.450134 0.450134
0.465302 0.465302 0.465302
0.480438 0.480438 0.480438
0.073334 0.073334 0.073334
0.084991 0.084991 0.084991
0.096771 0.096771 0.096771
0.108704 0.108704 0.108704
0.120789 0.120789 0.120789
0.133148 0.133148 0.133148
0.145752 0.145752 0.145752
0.158630 0.158630 0.158630
0.171753 0.171753 0.171753
0.185089 0.185089 0.185089
0.198669 0.198669 0.198669
0.212463 0.212463 0.212463
0.226440 0.226440 0.226440
0.240601 0.240601 0.240601
0.254883 0.254883 0.254883
0.269348 0.269348 0.269348
0.284027 0.284027 0.284027
0.298737 0.298737 0.298737
0.313568 0.313568 0.313568
0.328491 0.328491 0.328491
0.343445 0.343445 0.343445
0.358490 0.358490 0.358490
0.373627 0.373627 0.373627
0.388763 0.388763 0.388763
0.403961 0.403961 0.403961
0.419159 0.419159 0.419159
0.434418 0.434418 0.434418
0.449646 0.449646 0.449646
0.464844 0.464844 0.464844
0.479980 0.479980 0.479980
0.495087 0.495087 0.495087
0.510162 0.510162 0.510162
0.096405 0.096405 0.096405
0.108307 0.108307 0.108307
0.120422 0.120422 0.120422
0.132751 0.132751 0.132751
0.145294 0.145294 0.145294
0.158173 0.158173 0.158173
0.171265 0.171265 0.171265
0.184631 0.184631 0.184631
0.198212 0.198212 0.198212
0.211975 0.211975 0.211975
0.225983 0.225983 0.225983
0.240143 0.240143 0.240143
0.254456 0.254456 0.254456
0.268921 0.268921 0.268921
0.283508 0.283508 0.283508
0.298218 0.298218 0.298218
0.313049 0.313049 0.313049
0.327942 0.327942 0.327942
0.342987 0.342987 0.342987
0.358032 0.358032 0.358032
0.373169 0.373169 0.373169
0.388306 0.388306 0.388306
0.403473 0.403473 0.403473
0.418671 0.418671 0.418671
0.433899 0.433899 0.433899
0.449127 0.449127 0.449127
0.464294 0.464294 0.464294
0.479431 0.479431 0.479431
0.494568 0.494568 0.494568
0.509613 0.509613 0.509613
0.524689 0.524689 0.524689
0.539642 0.539642 0.539642
0.119995 0.119995 0.119995
0.132294 0.132294 0.132294
0.144867 0.144867 0.144867
0.157745 0.157745 0.157745
0.170868 0.170868 0.170868
0.184204 0.184204 0.184204
0.197784 0.197784 0.197784
0.211548 0.211548 0.211548
0.225494 0.225494 0.225494
0.239655 0.239655 0.239655
0.253967 0.253967 0.253967
0.268402 0.268402 0.268402
0.282990 0.282990 0.282990
0.297699 0.297699 0.297699
0.312561 0.312561 0.312561
0.327484 0.327484 0.327484
0.342468 0.342468 0.342468
0.357544 0.357544 0.357544
0.372650 0.372650 0.372650
0.387787 0.387787 0.387787
0.402954 0.402954 0.402954
0.418152 0.418152 0.418152
0.433411 0.433411 0.433411
0.448639 0.448639 0.448639
0.463837 0.463837 0.463837
0.479004 0.479004 0.479004
0.494080 0.494080 0.494080
0.509186 0.509186 0.509186
0.524170 0.524170 0.524170
0.539124 0.539124 0.539124
0.553986 0.553986 0.553986
0.568756 0.568756 0.568756
0.144470 0.144470 0.144470
0.157288 0.157288 0.157288
0.170410 0.170410 0.170410
0.183716 0.183716 0.183716
0.197296 0.197296 0.197296
0.211060 0.211060 0.211060
0.225037 0.225037 0.225037
0.239197 0.239197 0.239197
0.253510 0.253510 0.253510
0.267975 0.267975 0.267975
0.282532 0.282532 0.282532
0.297241 0.297241 0.297241
0.312042 0.312042 0.312042
0.326935 0.326935 0.326935
0.341949 0.341949 0.341949
0.356995 0.356995 0.356995
0.372131 0.372131 0.372131
0.387299 0.387299 0.387299
0.402496 0.402496 0.402496
0.417694 0.417694 0.417694
0.432892 0.432892 0.432892
0.448090 0.448090 0.448090
0.463287 0.463287 0.463287
0.478455 0.478455 0.478455
0.493561 0.493561 0.493561
0.508667 0.508667 0.508667
0.523712 0.523712 0.523712
0.538635 0.538635 0.538635
0.553497 0.553497 0.553497
0.568237 0.568237 0.568237
0.582916 0.582916 0.582916
0.597504 0.597504 0.597504
0.169983 0.169983 0.169983
0.183289 0.183289 0.183289
0.196869 0.196869 0.196869
0.210632 0.210632 0.210632
0.224579 0.224579 0.224579
0.238708 0.238708 0.238708
0.252991 0.252991 0.252991
0.267456 0.267456 0.267456
0.282013 0.282013 0.282013
0.296722 0.296722 0.296722
0.311523 0.311523 0.311523
0.326508 0.326508 0.326508
0.341461 0.341461 0.341461
0.356506 0.356506 0.356506
0.371613 0.371613 0.371613
0.386749 0.386749 0.386749
0.401947 0.401947 0.401947
0.417175 0.417175 0.417175
0.432373 0.432373 0.432373
0.447632 0.447632 0.447632
0.462830 0.462830 0.462830
0.477966 0.477966 0.477966
0.493073 0.493073 0.493073
0.508179 0.508179 0.508179
0.523163 0.523163 0.523163
0.538116 0.538116 0.538116
0.552979 0.552979 0.552979
0.567749 0.567749 0.567749
0.582428 0.582428 0.582428
0.596985 0.596985 0.596985
0.611450 0.611450 0.611450
0.625763 0.625763 0.625763
0.196381 0.196381 0.196381
0.210144 0.210144 0.210144
0.224091 0.224091 0.224091
0.238281 0.238281 0.238281
0.252563 0.252563 0.252563
0.266998 0.266998 0.266998
0.281555 0.281555 0.281555
0.296265 0.296265 0.296265
0.311066 0.311066 0.311066
0.325958 0.325958 0.325958
0.340942 0.340942 0.340942
0.356018 0.356018 0.356018
0.371124 0.371124 0.371124
0.386230 0.386230 0.386230
0.401428 0.401428 0.401428
0.416687 0.416687 0.416687
0.431885 0.431885 0.431885
0.447083 0.447083 0.447083
0.462311 0.462311 0.462311
0.477448 0.477448 0.477448
0.492554 0.492554 0.492554
0.507660 0.507660 0.507660
0.522675 0.522675 0.522675
0.537689 0.537689 0.537689
0.552521 0.552521 0.552521
0.567322 0.567322 0.567322
0.582001 0.582001 0.582001
0.596558 0.596558 0.596558
0.610962 0.610962 0.610962
0.625275 0.625275 0.625275
0.639435 0.639435 0.639435
0.653442 0.653442 0.653442
0.223633 0.223633 0.223633
0.237762 0.237762 0.237762
0.252014 0.252014 0.252014
0.266479 0.266479 0.266479
0.281067 0.281067 0.281067
0.295746 0.295746 0.295746
0.310547 0.310547 0.310547
0.325500 0.325500 0.325500
0.340454 0.340454 0.340454
0.355499 0.355499 0.355499
0.370636 0.370636 0.370636
0.385773 0.385773 0.385773
0.400970 0.400970 0.400970
0.416138 0.416138 0.416138
0.431396 0.431396 0.431396
0.446564 0.446564 0.446564
0.461792 0.461792 0.461792
0.476959 0.476959 0.476959
0.492126 0.492126 0.492126
0.507172 0.507172 0.507172
0.522217 0.522217 0.522217
0.537140 0.537140 0.537140
0.552002 0.552002 0.552002
0.566772 0.566772 0.566772
0.581451 0.581451 0.581451
0.596039 0.596039 0.596039
0.610474 0.610474 0.610474
0.624817 0.624817 0.624817
0.638977 0.638977 0.638977
0.653015 0.653015 0.653015
0.666840 0.666840 0.666840
0.680542 0.680542 0.680542
0.251617 0.251617 0.251617
0.266052 0.266052 0.266052
0.280579 0.280579 0.280579
0.295288 0.295288 0.295288
0.310089 0.310089 0.310089
0.324951 0.324951 0.324951
0.339966 0.339966 0.339966
0.354980 0.354980 0.354980
0.370087 0.370087 0.370087
0.385254 0.385254 0.385254
0.400421 0.400421 0.400421
0.415649 0.415649 0.415649
0.430878 0.430878 0.430878
0.446075 0.446075 0.446075
0.461273 0.461273 0.461273
0.476471 0.476471 0.476471
0.491577 0.491577 0.491577
0.506653 0.506653 0.506653
0.521698 0.521698 0.521698
0.536652 0.536652 0.536652
0.551544 0.551544 0.551544
0.566315 0.566315 0.566315
0.580994 0.580994 0.580994
0.595551 0.595551 0.595551
0.610016 0.610016 0.610016
0.624329 0.624329 0.624329
0.638489 0.638489 0.638489
0.652527 0.652527 0.652527
0.666382 0.666382 0.666382
0.680054 0.680054 0.680054
0.693604 0.693604 0.693604
0.706970 0.706970 0.706970
0.280060 0.280060 0.280060
0.294800 0.294800 0.294800
0.309570 0.309570 0.309570
0.324524 0.324524 0.324524
0.339478 0.339478 0.339478
0.354523 0.354523 0.354523
0.369629 0.369629 0.369629
0.384766 0.384766 0.384766
0.399963 0.399963 0.399963
0.415131 0.415131 0.415131
0.430359 0.430359 0.430359
0.445557 0.445557 0.445557
0.460724 0.460724 0.460724
0.475922 0.475922 0.475922
0.491028 0.491028 0.491028
0.506165 0.506165 0.506165
0.521210 0.521210 0.521210
0.536133 0.536133 0.536133
0.551025 0.551025 0.551025
0.565796 0.565796 0.565796
0.580475 0.580475 0.580475
0.595093 0.595093 0.595093
0.609528 0.609528 0.609528
0.623901 0.623901 0.623901
0.638062 0.638062 0.638062
0.652069 0.652069 0.652069
0.665955 0.665955 0.665955
0.679657 0.679657 0.679657
0.693176 0.693176 0.693176
0.706482 0.706482 0.706482
0.719604 0.719604 0.719604
0.732544 0.732544 0.732544
0.309113 0.309113 0.309113
0.323975 0.323975 0.323975
0.338959 0.338959 0.338959
0.354004 0.354004 0.354004
0.369080 0.369080 0.369080
0.384247 0.384247 0.384247
0.399414 0.399414 0.399414
0.414673 0.414673 0.414673
0.429840 0.429840 0.429840
0.445068 0.445068 0.445068
0.460266 0.460266 0.460266
0.475433 0.475433 0.475433
0.490570 0.490570 0.490570
0.505615 0.505615 0.505615
0.520660 0.520660 0.520660
0.535614 0.535614 0.535614
0.550568 0.550568 0.550568
0.565369 0.565369 0.565369
0.580017 0.580017 0.580017
0.594604 0.594604 0.594604
0.609070 0.609070 0.609070
0.623383 0.623383 0.623383
0.637543 0.637543 0.637543
0.651581 0.651581 0.651581
0.665466 0.665466 0.665466
0.679169 0.679169 0.679169
0.692719 0.692719 0.692719
0.706085 0.706085 0.706085
0.719238 0.719238 0.719238
0.732147 0.732147 0.732147
0.744843 0.744843 0.744843
0.757294 0.757294 0.757294
0.338501 0.338501 0.338501
0.353516 0.353516 0.353516
0.368591 0.368591 0.368591
0.383759 0.383759 0.383759
0.398926 0.398926 0.398926
0.414154 0.414154 0.414154
0.429352 0.429352 0.429352
0.444550 0.444550 0.444550
0.459778 0.459778 0.459778
0.474915 0.474915 0.474915
0.490051 0.490051 0.490051
0.505188 0.505188 0.505188
0.520203 0.520203 0.520203
0.535187 0.535187 0.535187
0.550049 0.550049 0.550049
0.564850 0.564850 0.564850
0.579529 0.579529 0.579529
0.594086 0.594086 0.594086
0.608551 0.608551 0.608551
0.622955 0.622955 0.622955
0.637146 0.637146 0.637146
0.651154 0.651154 0.651154
0.665009 0.665009 0.665009
0.678741 0.678741 0.678741
0.692261 0.692261 0.692261
0.705597 0.705597 0.705597
0.718750 0.718750 0.718750
0.731689 0.731689 0.731689
0.744385 0.744385 0.744385
0.756897 0.756897 0.756897
0.769165 0.769165 0.769165
0.781189 0.781189 0.781189
0.368103 0.368103 0.368103
0.383240 0.383240 0.383240
0.398407 0.398407 0.398407
0.413635 0.413635 0.413635
0.428864 0.428864 0.428864
0.444061 0.444061 0.444061
0.459259 0.459259 0.459259
0.474426 0.474426 0.474426
0.489594 0.489594 0.489594
0.504669 0.504669 0.504669
0.519684 0.519684 0.519684
0.534668 0.534668 0.534668
0.549530 0.549530 0.549530
0.564331 0.564331 0.564331
0.579010 0.579010 0.579010
0.593658 0.593658 0.593658
0.608124 0.608124 0.608124
0.622437 0.622437 0.622437
0.636627 0.636627 0.636627
0.650665 0.650665 0.650665
0.664581 0.664581 0.664581
0.678284 0.678284 0.678284
0.691833 0.691833 0.691833
0.705200 0.705200 0.705200
0.718323 0.718323 0.718323
0.731293 0.731293 0.731293
0.743988 0.743988 0.743988
0.756500 0.756500 0.756500
0.768768 0.768768 0.768768
0.780792 0.780792 0.780792
0.792542 0.792542 0.792542
0.804077 0.804077 0.804077
0.397949 0.397949 0.397949
0.413147 0.413147 0.413147
0.428345 0.428345 0.428345
0.443542 0.443542 0.443542
0.458740 0.458740 0.458740
0.473938 0.473938 0.473938
0.489044 0.489044 0.489044
0.504150 0.504150 0.504150
0.519196 0.519196 0.519196
0.534180 0.534180 0.534180
0.549042 0.549042 0.549042
0.563843 0.563843 0.563843
0.578552 0.578552 0.578552
0.593140 0.593140 0.593140
0.607605 0.607605 0.607605
0.621948 0.621948 0.621948
0.636200 0.636200 0.636200
0.650238 0.650238 0.650238
0.664093 0.664093 0.664093
0.677826 0.677826 0.677826
0.691406 0.691406 0.691406
0.704712 0.704712 0.704712
0.717896 0.717896 0.717896
0.730804 0.730804 0.730804
0.743561 0.743561 0.743561
0.756042 0.756042 0.756042
0.768341 0.768341 0.768341
0.780396 0.780396 0.780396
0.792175 0.792175 0.792175
0.803680 0.803680 0.803680
0.814972 0.814972 0.814972
0.826050 0.826050 0.826050
0.427856 0.427856 0.427856
0.443054 0.443054 0.443054
0.458282 0.458282 0.458282
0.473419 0.473419 0.473419
0.488556 0.488556 0.488556
0.503693 0.503693 0.503693
0.518738 0.518738 0.518738
0.533691 0.533691 0.533691
0.548615 0.548615 0.548615
0.563385 0.563385 0.563385
0.578094 0.578094 0.578094
0.592682 0.592682 0.592682
0.607147 0.607147 0.607147
0.621521 0.621521 0.621521
0.635712 0.635712 0.635712
0.649719 0.649719 0.649719
0.663696 0.663696 0.663696
0.677429 0.677429 0.677429
0.690979 0.690979 0.690979
0.704315 0.704315 0.704315
0.717468 0.717468 0.717468
0.730438 0.730438 0.730438
0.743164 0.743164 0.743164
0.755676 0.755676 0.755676
0.767975 0.767975 0.767975
0.780029 0.780029 0.780029
0.791809 0.791809 0.791809
0.803314 0.803314 0.803314
0.814606 0.814606 0.814606
0.825684 0.825684 0.825684
0.836548 0.836548 0.836548
0.847168 0.847168 0.847168
0.457794 0.457794 0.457794
0.472961 0.472961 0.472961
0.488098 0.488098 0.488098
0.503174 0.503174 0.503174
0.518219 0.518219 0.518219
0.533173 0.533173 0.533173
0.548096 0.548096 0.548096
0.562866 0.562866 0.562866
0.577576 0.577576 0.577576
0.592255 0.592255 0.592255
0.606689 0.606689 0.606689
0.621033 0.621033 0.621033
0.635254 0.635254 0.635254
0.649323 0.649323 0.649323
0.663208 0.663208 0.663208
0.676941 0.676941 0.676941
0.690491 0.690491 0.690491
0.703918 0.703918 0.703918
0.717072 0.717072 0.717072
0.730011 0.730011 0.730011
0.742767 0.742767 0.742767
0.755280 0.755280 0.755280
0.767578 0.767578 0.767578
0.779633 0.779633 0.779633
0.791412 0.791412 0.791412
0.802948 0.802948 0.802948
0.814240 0.814240 0.814240
0.825287 0.825287 0.825287
0.836182 0.836182 0.836182
0.846832 0.846832 0.846832
0.857300 0.857300 0.857300
0.867554 0.867554 0.867554
0.487549 0.487549 0.487549
0.502686 0.502686 0.502686
0.517761 0.517761 0.517761
0.532715 0.532715 0.532715
0.547607 0.547607 0.547607
0.562408 0.562408 0.562408
0.577148 0.577148 0.577148
0.591705 0.591705 0.591705
0.606201 0.606201 0.606201
0.620514 0.620514 0.620514
0.634766 0.634766 0.634766
0.648804 0.648804 0.648804
0.662720 0.662720 0.662720
0.676514 0.676514 0.676514
0.690033 0.690033 0.690033
0.703430 0.703430 0.703430
0.716614 0.716614 0.716614
0.729584 0.729584 0.729584
0.742340 0.742340 0.742340
0.754852 0.754852 0.754852
0.767151 0.767151 0.767151
0.779236 0.779236 0.779236
0.791046 0.791046 0.791046
0.802582 0.802582 0.802582
0.813873 0.813873 0.813873
0.824951 0.824951 0.824951
0.835815 0.835815 0.835815
0.846466 0.846466 0.846466
0.856934 0.856934 0.856934
0.867218 0.867218 0.867218
0.877319 0.877319 0.877319
0.887268 0.887268 0.887268
0.517212 0.517212 0.517212
0.532196 0.532196 0.532196
0.547089 0.547089 0.547089
0.561920 0.561920 0.561920
0.576630 0.576630 0.576630
0.591248 0.591248 0.591248
0.605743 0.605743 0.605743
0.620087 0.620087 0.620087
0.634308 0.634308 0.634308
0.648376 0.648376 0.648376
0.662292 0.662292 0.662292
0.676056 0.676056 0.676056
0.689606 0.689606 0.689606
0.703003 0.703003 0.703003
0.716156 0.716156 0.716156
0.729126 0.729126 0.729126
0.741943 0.741943 0.741943
0.754456 0.754456 0.754456
0.766754 0.766754 0.766754
0.778809 0.778809 0.778809
0.790649 0.790649 0.790649
0.802216 0.802216 0.802216
0.813507 0.813507 0.813507
0.824585 0.824585 0.824585
0.835449 0.835449 0.835449
0.846130 0.846130 0.846130
0.856598 0.856598 0.856598
0.866882 0.866882 0.866882
0.877014 0.877014 0.877014
0.886963 0.886963 0.886963
0.896759 0.896759 0.896759
0.906433 0.906433 0.906433
0.546600 0.546600 0.546600
0.561432 0.561432 0.561432
0.576141 0.576141 0.576141
0.590790 0.590790 0.590790
0.605255 0.605255 0.605255
0.619598 0.619598 0.619598
0.633820 0.633820 0.633820
0.647888 0.647888 0.647888
0.661835 0.661835 0.661835
0.675598 0.675598 0.675598
0.689148 0.689148 0.689148
0.702545 0.702545 0.702545
0.715729 0.715729 0.715729
0.728729 0.728729 0.728729
0.741486 0.741486 0.741486
0.754028 0.754028 0.754028
0.766357 0.766357 0.766357
0.778442 0.778442 0.778442
0.790283 0.790283 0.790283
0.801819 0.801819 0.801819
0.813141 0.813141 0.813141
0.824249 0.824249 0.824249
0.835083 0.835083 0.835083
0.845764 0.845764 0.845764
0.856232 0.856232 0.856232
0.866547 0.866547 0.866547
0.876648 0.876648 0.876648
0.886627 0.886627 0.886627
0.896454 0.896454 0.896454
0.906128 0.906128 0.906128
0.915710 0.915710 0.915710
0.925171 0.925171 0.925171
0.575623 0.575623 0.575623
0.590271 0.590271 0.590271
0.604767 0.604767 0.604767
0.619141 0.619141 0.619141
0.633392 0.633392 0.633392
0.647461 0.647461 0.647461
0.661346 0.661346 0.661346
0.675110 0.675110 0.675110
0.688690 0.688690 0.688690
0.702087 0.702087 0.702087
0.715302 0.715302 0.715302
0.728271 0.728271 0.728271
0.741058 0.741058 0.741058
0.753662 0.753662 0.753662
0.765961 0.765961 0.765961
0.778046 0.778046 0.778046
0.789856 0.789856 0.789856
0.801422 0.801422 0.801422
0.812744 0.812744 0.812744
0.823853 0.823853 0.823853
0.834747 0.834747 0.834747
0.845428 0.845428 0.845428
0.855927 0.855927 0.855927
0.866211 0.866211 0.866211
0.876343 0.876343 0.876343
0.886292 0.886292 0.886292
0.896118 0.896118 0.896118
0.905823 0.905823 0.905823
0.915375 0.915375 0.915375
0.924835 0.924835 0.924835
0.934174 0.934174 0.934174
0.943420 0.943420 0.943420
0.604279 0.604279 0.604279
0.618652 0.618652 0.618652
0.632904 0.632904 0.632904
0.646973 0.646973 0.646973
0.660919 0.660919 0.660919
0.674713 0.674713 0.674713
0.688263 0.688263 0.688263
0.701660 0.701660 0.701660
0.714905 0.714905 0.714905
0.727875 0.727875 0.727875
0.740631 0.740631 0.740631
0.753204 0.753204 0.753204
0.765533 0.765533 0.765533
0.777618 0.777618 0.777618
0.789459 0.789459 0.789459
0.801056 0.801056 0.801056
0.812408 0.812408 0.812408
0.823486 0.823486 0.823486
0.834381 0.834381 0.834381
0.845062 0.845062 0.845062
0.855591 0.855591 0.855591
0.865845 0.865845 0.865845
0.875977 0.875977 0.875977
0.885956 0.885956 0.885956
0.895782 0.895782 0.895782
0.905487 0.905487 0.905487
0.915070 0.915070 0.915070
0.924530 0.924530 0.924530
0.933899 0.933899 0.933899
0.943146 0.943146 0.943146
0.952332 0.952332 0.952332
0.961456 0.961456 0.961456
0.632446 0.632446 0.632446
0.646545 0.646545 0.646545
0.660461 0.660461 0.660461
0.674225 0.674225 0.674225
0.687805 0.687805 0.687805
0.701202 0.701202 0.701202
0.714417 0.714417 0.714417
0.727386 0.727386 0.727386
0.740204 0.740204 0.740204
0.752838 0.752838 0.752838
0.765137 0.765137 0.765137
0.777222 0.777222 0.777222
0.789093 0.789093 0.789093
0.800690 0.800690 0.800690
0.812012 0.812012 0.812012
0.823120 0.823120 0.823120
0.834015 0.834015 0.834015
0.844727 0.844727 0.844727
0.855225 0.855225 0.855225
0.865540 0.865540 0.865540
0.875671 0.875671 0.875671
0.885651 0.885651 0.885651
0.895477 0.895477 0.895477
0.905182 0.905182 0.905182
0.914764 0.914764 0.914764
0.924225 0.924225 0.924225
0.933563 0.933563 0.933563
0.942810 0.942810 0.942810
0.952026 0.952026 0.952026
0.961182 0.961182 0.961182
0.970245 0.970245 0.970245
0.979248 0.979248 0.979248
0.659973 0.659973 0.659973
0.673737 0.673737 0.673737
0.687378 0.687378 0.687378
0.700836 0.700836 0.700836
0.714020 0.714020 0.714020
0.727020 0.727020 0.727020
0.739838 0.739838 0.739838
0.752411 0.752411 0.752411
0.764740 0.764740 0.764740
0.776825 0.776825 0.776825
0.788666 0.788666 0.788666
0.800262 0.800262 0.800262
0.811615 0.811615 0.811615
0.822784 0.822784 0.822784
0.833679 0.833679 0.833679
0.844360 0.844360 0.844360
0.854858 0.854858 0.854858
0.865173 0.865173 0.865173
0.875336 0.875336 0.875336
0.885315 0.885315 0.885315
0.895142 0.895142 0.895142
0.904846 0.904846 0.904846
0.914429 0.914429 0.914429
0.923920 0.923920 0.923920
0.933289 0.933289 0.933289
0.942566 0.942566 0.942566
0.951721 0.951721 0.951721
0.960846 0.960846 0.960846
0.969910 0.969910 0.969910
0.978912 0.978912 0.978912
0.987885 0.987885 0.987885
0.996857 0.996857 0.996857
0.686920 0.686920 0.686920
0.700348 0.700348 0.700348
0.713562 0.713562 0.713562
0.726562 0.726562 0.726562
0.739380 0.739380 0.739380
0.751953 0.751953 0.751953
0.764343 0.764343 0.764343
0.776459 0.776459 0.776459
0.788300 0.788300 0.788300
0.799896 0.799896 0.799896
0.811279 0.811279 0.811279
0.822418 0.822418 0.822418
0.833313 0.833313 0.833313
0.844025 0.844025 0.844025
0.854492 0.854492 0.854492
0.864838 0.864838 0.864838
0.875000 0.875000 0.875000
0.885010 0.885010 0.885010
0.894836 0.894836 0.894836
0.904541 0.904541 0.904541
0.914124 0.914124 0.914124
0.923584 0.923584 0.923584
0.932953 0.932953 0.932953
0.942230 0.942230 0.942230
0.951416 0.951416 0.951416
0.960571 0.960571 0.960571
0.969635 0.969635 0.969635
0.978638 0.978638 0.978638
0.987640 0.987640 0.987640
0.996582 0.996582 0.996582
1.000000 1.000000 1.000000
1.000000 1.000000 1.000000
0.713135 0.713135 0.713135
0.726166 0.726166 0.726166
0.738953 0.738953 0.738953
0.751556 0.751556 0.751556
0.763916 0.763916 0.763916
0.776031 0.776031 0.776031
0.787903 0.787903 0.787903
0.799530 0.799530 0.799530
0.810883 0.810883 0.810883
0.821991 0.821991 0.821991
0.832947 0.832947 0.832947
0.843689 0.843689 0.843689
0.854187 0.854187 0.854187
0.864502 0.864502 0.864502
0.874664 0.874664 0.874664
0.884644 0.884644 0.884644
0.894501 0.894501 0.894501
0.904205 0.904205 0.904205
0.913818 0.913818 0.913818
0.923279 0.923279 0.923279
0.932648 0.932648 0.932648
0.941925 0.941925 0.941925
0.951111 0.951111 0.951111
0.960236 0.960236 0.960236
0.969299 0.969299 0.969299
0.978333 0.978333 0.978333
0.987305 0.987305 0.987305
0.996246 0.996246 0.996246
1.000000 1.000000 1.000000
1.000000 1.000000 1.000000
1.000000 1.000000 1.000000
1.000000 1.000000 1.000000
0.738556 0.738556 0.738556
0.751099 0.751099 0.751099
0.763550 0.763550 0.763550
0.775665 0.775665 0.775665
0.787537 0.787537 0.787537
0.799164 0.799164 0.799164
0.810547 0.810547 0.810547
0.821655 0.821655 0.821655
0.832581 0.832581 0.832581
0.843292 0.843292 0.843292
0.853821 0.853821 0.853821
0.864166 0.864166 0.864166
0.874298 0.874298 0.874298
0.884277 0.884277 0.884277
0.894196 0.894196 0.894196
0.903900 0.903900 0.903900
0.913483 0.913483 0.913483
0.922974 0.922974 0.922974
