portrait-pop-1.CUBE
#Created by: Adobe Photoshop Export Color Lookup Plugin
TITLE "pp-1"
#LUT size
LUT_3D_SIZE 8
#data domain
#LUT data points
DOMAIN_MIN 0.000000 0.000000 0.000000
DOMAIN_MAX 0.903226 0.903226 0.903226
0.000000 0.000000 0.000000
0.125519 0.004822 0.003143
0.281250 0.009735 0.006317
0.472473 0.014740 0.009552
0.646271 0.019806 0.012756
0.771942 0.024963 0.016052
0.858185 0.030182 0.019348
0.917572 0.035461 0.022675
0.000000 0.147369 0.000000
0.149414 0.147369 0.090179
0.315094 0.154175 0.094147
0.509033 0.161072 0.098145
0.673370 0.168060 0.102173
0.790894 0.175110 0.106262
0.871033 0.182190 0.110352
0.926666 0.189423 0.114471
0.000000 0.344910 0.000000
0.149414 0.344910 0.090179
0.350098 0.344910 0.201874
0.543915 0.353668 0.206696
0.698792 0.362427 0.211517
0.808472 0.371246 0.216431
0.883026 0.380188 0.221375
0.935272 0.389130 0.226288
0.000000 0.569824 0.000000
0.149414 0.569824 0.090179
0.350098 0.569824 0.201874
0.576904 0.569824 0.334564
0.722626 0.577728 0.340210
0.824768 0.585541 0.345795
0.894226 0.593231 0.351471
0.943512 0.600739 0.357178
0.000000 0.738556 0.000000
0.149414 0.738556 0.090179
0.350098 0.738556 0.201874
0.576904 0.738556 0.334564
0.744934 0.738556 0.483887
0.839905 0.743896 0.489716
0.904724 0.749115 0.495575
0.951324 0.754303 0.501373
0.000000 0.848938 0.000000
0.149414 0.848938 0.090179
0.350098 0.848938 0.201874
0.576904 0.848938 0.334564
0.744934 0.848938 0.483887
0.854004 0.848938 0.619141
0.914612 0.852325 0.623840
0.958740 0.855652 0.628510
0.000000 0.919922 0.000000
0.149414 0.919922 0.090179
0.350098 0.919922 0.201874
0.576904 0.919922 0.334564
0.744934 0.919922 0.483887
0.854004 0.919922 0.619141
0.923828 0.919922 0.725311
0.965912 0.922119 0.729004
0.000000 0.969238 0.000000
0.149414 0.969238 0.090179
0.350098 0.969238 0.201874
0.576904 0.969238 0.334564
0.744934 0.969238 0.483887
0.854004 0.969238 0.619141
0.923828 0.969238 0.725311
0.972809 0.969238 0.806244
0.000000 0.000000 0.125458
0.147369 0.000000 0.147369
0.312500 0.004822 0.125458
0.506165 0.009735 0.104462
0.671204 0.014740 0.084320
0.789307 0.019806 0.065002
0.869904 0.024963 0.046539
0.925873 0.030182 0.029724
0.000000 0.147369 0.147369
0.147369 0.147369 0.147369
0.312897 0.154175 0.143982
0.507019 0.161072 0.140686
0.672119 0.168060 0.137329
0.790222 0.175110 0.134003
0.870697 0.182190 0.130768
0.926544 0.189423 0.127472
0.000000 0.344910 0.147369
0.147369 0.344910 0.147369
0.347565 0.344910 0.270508
0.541748 0.353668 0.266510
0.697388 0.362427 0.262543
0.807709 0.371246 0.258606
0.882599 0.380188 0.254700
0.935059 0.389130 0.250702
0.000000 0.569824 0.147369
0.147369 0.569824 0.147369
0.347565 0.569824 0.270508
0.574554 0.569824 0.413544
0.721130 0.577728 0.409027
0.823914 0.585541 0.404510
0.893707 0.593231 0.399994
0.943237 0.600739 0.395477
0.000000 0.738556 0.147369
0.147369 0.738556 0.147369
0.347565 0.738556 0.270508
0.574554 0.738556 0.413544
0.743317 0.738556 0.560242
0.838959 0.743896 0.556213
0.904205 0.749115 0.552124
0.950928 0.754303 0.548065
0.000000 0.848938 0.147369
0.147369 0.848938 0.147369
0.347565 0.848938 0.270508
0.574554 0.848938 0.413544
0.743317 0.848938 0.560242
0.852997 0.848938 0.679443
0.913971 0.852325 0.676270
0.958374 0.855652 0.673096
0.000000 0.919922 0.147369
0.147369 0.919922 0.147369
0.347565 0.919922 0.270508
0.574554 0.919922 0.413544
0.743317 0.919922 0.560242
0.852997 0.919922 0.679443
0.923248 0.919922 0.771606
0.965454 0.922119 0.769226
0.000000 0.969238 0.147369
0.147369 0.969238 0.147369
0.347565 0.969238 0.270508
0.574554 0.969238 0.413544
0.743317 0.969238 0.560242
0.852997 0.969238 0.679443
0.923248 0.969238 0.771606
0.972290 0.969238 0.840576
0.000000 0.000000 0.236908
0.125458 0.000000 0.289398
0.344910 0.000000 0.344910
0.538849 0.004822 0.304108
0.695007 0.009735 0.264893
0.805817 0.014740 0.227356
0.881165 0.019806 0.191559
0.933960 0.024963 0.157623
0.000000 0.125458 0.289398
0.125458 0.125458 0.289398
0.344910 0.147369 0.344910
0.538849 0.154175 0.304108
0.695007 0.161072 0.264893
0.805817 0.168060 0.227356
0.881165 0.175110 0.191559
0.934052 0.182190 0.173553
0.000000 0.344910 0.344910
0.147369 0.344910 0.344910
0.344910 0.344910 0.344910
0.539368 0.353668 0.336060
0.695862 0.362427 0.327332
0.806641 0.371246 0.318634
0.881927 0.380188 0.309998
0.934692 0.389130 0.301453
0.000000 0.569824 0.344910
0.147369 0.569824 0.344910
0.344910 0.569824 0.344910
0.572266 0.569824 0.494568
0.719543 0.577728 0.485413
0.822845 0.585541 0.476166
0.893097 0.593231 0.466949
0.942749 0.600739 0.457611
0.000000 0.738556 0.344910
0.147369 0.738556 0.344910
0.344910 0.738556 0.344910
0.572266 0.738556 0.494568
0.741730 0.738556 0.627716
0.837952 0.743896 0.620422
0.903503 0.749115 0.612946
0.950470 0.754303 0.605347
0.000000 0.848938 0.344910
0.147369 0.848938 0.344910
0.344910 0.848938 0.344910
0.572266 0.848938 0.494568
0.741730 0.848938 0.627716
0.851990 0.848938 0.731995
0.913300 0.852325 0.726288
0.957855 0.855652 0.720520
0.000000 0.919922 0.344910
0.147369 0.919922 0.344910
0.344910 0.919922 0.344910
0.572266 0.919922 0.494568
0.741730 0.919922 0.627716
0.851990 0.919922 0.731995
0.922546 0.919922 0.811157
0.964935 0.922119 0.806915
0.000000 0.969238 0.344910
0.147369 0.969238 0.344910
0.344910 0.969238 0.344910
0.572266 0.969238 0.494568
0.741730 0.969238 0.627716
0.851990 0.969238 0.731995
0.922546 0.969238 0.811157
0.971832 0.969238 0.869904
0.000000 0.000000 0.309845
0.104462 0.000000 0.395935
0.289398 0.000000 0.485901
0.569824 0.000000 0.569824
0.717438 0.004822 0.530365
0.821198 0.009735 0.488312
0.891724 0.014740 0.444824
0.941650 0.019806 0.400848
0.000000 0.104462 0.395935
0.104462 0.104462 0.395935
0.289398 0.125458 0.485901
0.569824 0.147369 0.569824
0.717438 0.154175 0.530365
0.821198 0.161072 0.488312
0.891724 0.168060 0.444824
0.941650 0.175110 0.400848
0.000000 0.289398 0.485901
0.125458 0.289398 0.485901
0.289398 0.289398 0.485901
0.569824 0.344910 0.569824
0.717438 0.353668 0.530365
0.821198 0.362427 0.488312
0.891724 0.371246 0.444824
0.941650 0.380188 0.400848
0.000000 0.569824 0.569824
0.147369 0.569824 0.569824
0.344910 0.569824 0.569824
0.569824 0.569824 0.569824
0.717804 0.577728 0.561005
0.821747 0.585541 0.553284
0.892242 0.593231 0.544830
0.942169 0.600739 0.536316
0.000000 0.738556 0.569824
0.147369 0.738556 0.569824
0.344910 0.738556 0.569824
0.569824 0.738556 0.569824
0.740112 0.738556 0.680939
0.836884 0.743896 0.677856
0.902771 0.749115 0.674042
0.949890 0.754303 0.667419
0.000000 0.848938 0.569824
0.147369 0.848938 0.569824
0.344910 0.848938 0.569824
0.569824 0.848938 0.569824
0.740112 0.848938 0.680939
0.851013 0.848938 0.768036
0.912628 0.852325 0.768707
0.957306 0.855652 0.767517
0.000000 0.919922 0.569824
0.147369 0.919922 0.569824
0.344910 0.919922 0.569824
0.569824 0.919922 0.569824
0.740112 0.919922 0.680939
0.851013 0.919922 0.768036
0.921875 0.919922 0.834381
0.964417 0.922119 0.837158
0.000000 0.969238 0.569824
0.147369 0.969238 0.569824
0.344910 0.969238 0.569824
0.569824 0.969238 0.569824
0.740112 0.969238 0.680939
0.851013 0.969238 0.768036
0.921875 0.969238 0.834381
0.971283 0.969238 0.884583
0.000000 0.000000 0.330750
0.084320 0.000000 0.448669
0.236908 0.000000 0.563263
0.485901 0.000000 0.659576
0.738556 0.000000 0.738556
0.835541 0.004822 0.711670
0.901642 0.009735 0.682648
0.948975 0.014740 0.651367
0.000000 0.084320 0.448669
0.084320 0.084320 0.448669
0.236908 0.104462 0.563263
0.485901 0.125458 0.659576
0.738556 0.147369 0.738556
0.835541 0.154175 0.711670
0.901642 0.161072 0.682648
0.948975 0.168060 0.651367
0.000000 0.236908 0.563263
0.104462 0.236908 0.563263
0.236908 0.236908 0.563263
0.485901 0.289398 0.659576
0.738556 0.344910 0.738556
0.835541 0.353668 0.711670
0.901642 0.362427 0.682648
0.948975 0.371246 0.651367
0.000000 0.485901 0.659576
0.125458 0.485901 0.659576
0.289398 0.485901 0.659576
0.485901 0.485901 0.659576
0.738556 0.569824 0.738556
0.835541 0.577728 0.711670
0.901642 0.585541 0.682648
0.948975 0.593231 0.651367
0.000000 0.738556 0.738556
0.147369 0.738556 0.738556
0.344910 0.738556 0.738556
0.569824 0.738556 0.738556
0.750122 0.748444 0.743164
0.843628 0.753571 0.733429
0.905823 0.758514 0.725250
0.950897 0.763367 0.718414
0.000000 0.848938 0.738556
0.147369 0.848938 0.738556
0.344910 0.848938 0.738556
0.569824 0.848938 0.738556
0.750397 0.855164 0.744263
0.857269 0.855225 0.802063
0.915466 0.858337 0.797089
0.958252 0.861511 0.793182
0.000000 0.919922 0.738556
0.147369 0.919922 0.738556
0.344910 0.919922 0.738556
0.569824 0.919922 0.738556
0.750397 0.923096 0.744263
0.857483 0.923096 0.802917
0.924469 0.923096 0.848511
0.965210 0.925262 0.846619
0.000000 0.969238 0.738556
0.147369 0.969238 0.738556
0.344910 0.969238 0.738556
0.569824 0.969238 0.738556
0.750397 0.970367 0.744263
0.857483 0.970367 0.802917
0.924469 0.970367 0.848511
0.971893 0.970367 0.885437
0.000000 0.000000 0.296143
0.065002 0.000000 0.441101
0.187714 0.000000 0.582764
0.395905 0.000000 0.696167
0.659607 0.000000 0.783600
0.848938 0.000000 0.848938
0.911011 0.004822 0.831848
0.955994 0.009735 0.813202
0.000000 0.065002 0.441101
0.065002 0.065002 0.441101
0.187714 0.084320 0.582764
0.395905 0.104462 0.696167
0.659607 0.125458 0.783600
0.848938 0.147369 0.848938
0.911011 0.154175 0.831848
0.955994 0.161072 0.813202
0.000000 0.187714 0.582764
0.084320 0.187714 0.582764
0.187714 0.187714 0.582764
0.395905 0.236908 0.696167
0.659607 0.289398 0.783600
0.848938 0.344910 0.848938
0.911011 0.353668 0.831848
0.955994 0.362427 0.813202
0.000000 0.395905 0.696167
0.104462 0.395905 0.696167
0.236908 0.395905 0.696167
0.395905 0.395905 0.696167
0.659607 0.485901 0.783600
0.848938 0.569824 0.848938
0.911011 0.577728 0.831848
0.955994 0.585541 0.813202
0.000000 0.659607 0.783600
0.125458 0.659607 0.783600
0.289398 0.659607 0.783600
0.485901 0.659607 0.783600
0.679840 0.677673 0.790131
0.855316 0.748749 0.847504
0.913940 0.753815 0.830841
0.957001 0.758728 0.812775
0.000000 0.848938 0.848938
0.147369 0.848938 0.848938
0.344910 0.848938 0.848938
0.569824 0.848938 0.848938
0.750275 0.855164 0.848938
0.906219 0.898834 0.867188
0.940979 0.900665 0.862183
0.969147 0.902466 0.857635
0.000000 0.919922 0.848938
0.147369 0.919922 0.848938
0.344910 0.919922 0.848938
0.569824 0.919922 0.848938
0.750275 0.923096 0.848938
0.907562 0.946777 0.871735
0.947601 0.946777 0.890503
0.974884 0.948120 0.887177
0.000000 0.969238 0.848938
0.147369 0.969238 0.848938
0.344910 0.969238 0.848938
0.569824 0.969238 0.848938
0.750275 0.970367 0.848938
0.907562 0.978516 0.871735
0.947601 0.978516 0.890503
0.979614 0.978516 0.907043
0.000000 0.000000 0.211823
0.046539 0.000000 0.373840
0.141785 0.000000 0.549866
0.309845 0.000000 0.691132
0.563263 0.000000 0.794708
0.783600 0.000000 0.867645
0.919922 0.000000 0.919922
0.962769 0.004822 0.908600
0.000000 0.046539 0.373840
0.046539 0.046539 0.373840
0.141785 0.065002 0.549866
0.309845 0.084320 0.691132
0.563263 0.104462 0.794708
0.783600 0.125458 0.867645
0.919922 0.147369 0.919922
0.962769 0.154175 0.908600
0.000000 0.141785 0.549866
0.065002 0.141785 0.549866
0.141785 0.141785 0.549866
0.309845 0.187714 0.691132
0.563263 0.236908 0.794708
0.783600 0.289398 0.867645
0.919922 0.344910 0.919922
0.962769 0.353668 0.908600
0.000000 0.309845 0.691132
0.084320 0.309845 0.691132
0.187714 0.309845 0.691132
0.309845 0.309845 0.691132
0.563263 0.395935 0.794708
0.783600 0.485901 0.867645
0.919922 0.569824 0.919922
0.962769 0.577728 0.908600
0.000000 0.563263 0.794708
0.104462 0.563263 0.794708
0.236908 0.563263 0.794708
0.395935 0.563263 0.794708
0.585571 0.583374 0.802185
0.798767 0.677673 0.872925
0.922638 0.748596 0.919281
0.963654 0.753632 0.908356
0.000000 0.783600 0.867645
0.125458 0.783600 0.867645
0.289398 0.783600 0.867645
0.485901 0.783600 0.867645
0.678558 0.796295 0.872040
0.896667 0.887848 0.909973
0.943085 0.899780 0.914246
0.970886 0.901581 0.906036
0.000000 0.919922 0.919922
0.147369 0.919922 0.919922
0.344910 0.919922 0.919922
0.569824 0.919922 0.919922
0.750275 0.923096 0.919922
0.906952 0.946777 0.919922
0.968048 0.967529 0.931915
0.984222 0.968323 0.929230
0.000000 0.969238 0.919922
0.147369 0.969238 0.919922
0.344910 0.969238 0.919922
0.569824 0.969238 0.919922
0.750275 0.970367 0.919922
0.906952 0.978516 0.919922
0.968048 0.986481 0.931915
0.987091 0.986481 0.937256
0.000000 0.000000 0.220520
0.028931 0.000000 0.389923
0.099335 0.000000 0.569824
0.230530 0.000000 0.709869
0.448669 0.000000 0.810791
0.696167 0.000000 0.880829
0.867645 0.000000 0.931030
0.969238 0.000000 0.969238
0.000000 0.028931 0.389923
0.028931 0.028931 0.389923
0.099335 0.046539 0.569824
0.230530 0.065002 0.709869
0.448669 0.084320 0.810791
0.696167 0.104462 0.880829
0.867645 0.125458 0.931030
0.969238 0.147369 0.969238
0.000000 0.099335 0.569824
0.046539 0.099335 0.569824
0.099335 0.099335 0.569824
0.230530 0.141785 0.709869
0.448669 0.187714 0.810791
0.696167 0.236908 0.880829
0.867645 0.289398 0.931030
0.969238 0.344910 0.969238
0.000000 0.230530 0.709869
0.065002 0.230530 0.709869
0.141785 0.230530 0.709869
0.230530 0.230530 0.709869
0.448669 0.309845 0.810791
0.696167 0.395935 0.880829
0.867645 0.485901 0.931030
0.969238 0.569824 0.969238
0.000000 0.448669 0.810791
0.084320 0.448669 0.810791
0.187714 0.448669 0.810791
0.309845 0.448669 0.810791
0.471771 0.469635 0.817993
0.714569 0.583374 0.885864
0.874878 0.675140 0.933411
0.970184 0.748505 0.969086
0.000000 0.696167 0.880829
0.104462 0.696167 0.880829
0.236908 0.696167 0.880829
0.395935 0.696167 0.880829
0.583984 0.711517 0.885071
0.838135 0.827637 0.921509
0.925262 0.872955 0.951569
0.977173 0.899048 0.967529
0.000000 0.867645 0.931030
0.125458 0.867645 0.931030
0.289398 0.867645 0.931030
0.485901 0.867645 0.931030
0.677155 0.874878 0.933411
0.882233 0.926392 0.951569
0.966003 0.966156 0.967926
0.983978 0.968292 0.966156
0.000000 0.969238 0.969238
0.147369 0.969238 0.969238
0.344910 0.969238 0.969238
0.569824 0.969238 0.969238
0.750275 0.970367 0.969238
0.906952 0.978516 0.969238
0.967529 0.986481 0.969238
0.994476 0.994202 0.971832
