portrait-pop-9.CUBE
#Created by: Adobe Photoshop Export Color Lookup Plugin
TITLE "pp-9"
#LUT size
LUT_3D_SIZE 8
#data domain
#LUT data points
DOMAIN_MIN 0.000000 0.000000 0.000000
DOMAIN_MAX 0.903226 0.903226 0.903226
0.000000 0.000000 0.000000
0.107086 0.009705 0.009705
0.254852 0.023041 0.023041
0.422943 0.038239 0.038239
0.605927 0.054779 0.054779
0.800781 0.072418 0.072418
1.000000 0.093567 0.093567
1.000000 0.142059 0.142059
0.000031 0.096313 0.000031
0.082397 0.120331 0.000031
0.225677 0.138519 0.000031
0.395844 0.153381 0.011139
0.578827 0.169922 0.027679
0.773651 0.187531 0.045288
0.978912 0.206116 0.063873
1.000000 0.242981 0.117432
0.000031 0.186310 0.000031
0.075684 0.213776 0.000031
0.202454 0.240326 0.000031
0.365021 0.261169 0.000031
0.553497 0.277588 0.002350
0.748322 0.295197 0.019958
0.953552 0.313751 0.038513
1.000000 0.338593 0.087402
0.000031 0.274109 0.000031
0.072906 0.303009 0.000031
0.191162 0.333893 0.000031
0.342438 0.360474 0.000031
0.520660 0.382568 0.000031
0.720795 0.400787 0.000031
0.928833 0.418762 0.013794
1.000000 0.433685 0.048218
0.000031 0.360565 0.000031
0.071381 0.390228 0.000031
0.184448 0.423737 0.000031
0.328064 0.454193 0.000031
0.497467 0.480774 0.000031
0.688568 0.503571 0.000031
0.898621 0.523132 0.000031
0.996582 0.530853 0.000031
0.000031 0.445953 0.000031
0.070404 0.476105 0.000031
0.179962 0.511383 0.000031
0.318085 0.544647 0.000031
0.480774 0.574646 0.000031
0.664581 0.601105 0.000031
0.867279 0.624451 0.000031
0.962036 0.633789 0.000031
0.000031 0.530518 0.000031
0.069733 0.560974 0.000031
0.176788 0.597565 0.000031
0.310730 0.632935 0.000031
0.468109 0.665588 0.000031
0.646027 0.695099 0.000031
0.842499 0.721558 0.000031
0.934479 0.732330 0.000031
0.000031 0.614410 0.000031
0.069244 0.645172 0.000031
0.174377 0.682678 0.000031
0.305084 0.719727 0.000031
0.458221 0.754517 0.000031
0.631226 0.786560 0.000031
0.822388 0.815704 0.000031
0.911926 0.827698 0.000031
0.053650 0.053650 0.245453
0.160675 0.063293 0.255096
0.308502 0.076691 0.268494
0.476593 0.091888 0.283691
0.659576 0.108429 0.300232
0.854431 0.126068 0.317871
1.000000 0.173126 0.346466
1.000000 0.225494 0.374054
0.026550 0.168793 0.218353
0.133575 0.178436 0.227997
0.281403 0.191833 0.241394
0.449493 0.207031 0.256592
0.632477 0.223572 0.273132
0.827301 0.241180 0.290741
1.000000 0.274231 0.320770
1.000000 0.323883 0.362946
0.001160 0.276398 0.192963
0.108246 0.286102 0.202667
0.256042 0.299469 0.216034
0.424133 0.314667 0.231232
0.607147 0.331238 0.247803
0.801941 0.348816 0.265381
1.000000 0.370270 0.288147
1.000000 0.416412 0.349213
0.000031 0.368286 0.174469
0.083527 0.391113 0.177948
0.231293 0.404449 0.191284
0.399384 0.419647 0.206482
0.582397 0.436218 0.223053
0.777222 0.453827 0.240662
0.982452 0.472382 0.259216
1.000000 0.507599 0.331207
0.000031 0.456573 0.164429
0.059174 0.494446 0.153595
0.206970 0.507812 0.166962
0.375061 0.523010 0.182159
0.558075 0.539581 0.198730
0.752899 0.557190 0.216339
0.958130 0.575745 0.234894
1.000000 0.598724 0.306000
0.000031 0.543152 0.158173
0.035156 0.596558 0.129578
0.182922 0.609894 0.142914
0.351013 0.625092 0.158112
0.534027 0.641663 0.174683
0.728851 0.659271 0.192291
0.934082 0.677826 0.210846
1.000000 0.691132 0.268402
0.000031 0.628510 0.153870
0.011322 0.697632 0.105743
0.159119 0.710999 0.119110
0.327209 0.726196 0.134308
0.510193 0.742737 0.150848
0.705048 0.760376 0.168488
0.910278 0.778931 0.187042
1.000000 0.787384 0.205627
0.000031 0.713013 0.150696
0.000031 0.789795 0.092072
0.135498 0.811310 0.095490
0.303589 0.826508 0.110687
0.486572 0.843048 0.127228
0.681427 0.860687 0.144867
0.886658 0.879242 0.163422
0.980072 0.887695 0.171875
0.093811 0.093811 0.429230
0.200867 0.103485 0.438904
0.348663 0.116852 0.452271
0.516785 0.132080 0.467499
0.699738 0.148590 0.484009
0.894562 0.166199 0.501617
1.000000 0.236298 0.516235
1.000000 0.291443 0.529114
0.066681 0.208923 0.402100
0.173767 0.218628 0.411804
0.321533 0.231964 0.425140
0.489624 0.247162 0.440338
0.672638 0.263733 0.456909
0.867462 0.281342 0.474518
1.000000 0.335327 0.501495
1.000000 0.388275 0.526031
0.041351 0.316589 0.376770
0.148376 0.326233 0.386414
0.296204 0.339630 0.399811
0.464294 0.354828 0.415009
0.647278 0.371368 0.431549
0.842133 0.389008 0.449188
1.000000 0.428894 0.482635
1.000000 0.479034 0.522278
0.016602 0.421570 0.352020
0.123657 0.431244 0.361694
0.271484 0.444641 0.375092
0.439575 0.459839 0.390289
0.622559 0.476379 0.406830
0.817413 0.494019 0.424469
1.000000 0.521637 0.456390
1.000000 0.567780 0.517242
0.000031 0.520935 0.328064
0.099365 0.534637 0.337402
0.247131 0.547974 0.350739
0.415222 0.563171 0.365936
0.598206 0.579712 0.382477
0.793060 0.597351 0.400116
0.998291 0.615906 0.418671
1.000000 0.655548 0.510162
0.000031 0.609619 0.310425
0.075287 0.636688 0.313324
0.223114 0.650085 0.326721
0.391205 0.665283 0.341919
0.574158 0.681793 0.358429
0.769012 0.699432 0.376068
0.974243 0.717987 0.394623
1.000000 0.742950 0.499298
0.000031 0.696472 0.298126
0.051483 0.737793 0.289520
0.199310 0.751190 0.302917
0.367401 0.766388 0.318115
0.550354 0.782898 0.334625
0.745178 0.800507 0.352234
0.950439 0.819092 0.370819
1.000000 0.830994 0.480652
0.000031 0.782043 0.289032
0.027863 0.838104 0.265900
0.175659 0.851471 0.279266
0.343781 0.866699 0.294495
0.526733 0.883209 0.311005
0.721558 0.900818 0.328613
0.926819 0.919403 0.347198
1.000000 0.922272 0.440826
0.130096 0.130096 0.595245
0.237152 0.139771 0.604919
0.384949 0.153137 0.618286
0.553040 0.168335 0.633484
0.736023 0.184875 0.650024
0.930878 0.202515 0.667664
1.000000 0.296295 0.653992
1.000000 0.353760 0.654327
0.102966 0.245209 0.568115
0.210022 0.254883 0.577789
0.357849 0.268280 0.591187
0.525940 0.283478 0.606384
0.708923 0.300018 0.622925
0.903778 0.317657 0.640564
1.000000 0.393890 0.647125
1.000000 0.449585 0.656769
0.077606 0.352844 0.542755
0.184692 0.362549 0.552460
0.332458 0.375885 0.565796
0.500580 0.391113 0.581024
0.683563 0.407654 0.597565
0.878387 0.425262 0.615173
1.000000 0.485535 0.638245
1.000000 0.539032 0.659821
0.052887 0.457855 0.518036
0.159973 0.467560 0.527740
0.307739 0.480896 0.541077
0.475830 0.496094 0.556274
0.658844 0.512665 0.572845
0.853668 0.530273 0.590454
1.000000 0.575684 0.625763
1.000000 0.626099 0.663910
0.028534 0.561188 0.493683
0.135620 0.570892 0.503387
0.283417 0.584259 0.516754
0.451508 0.599457 0.531952
0.634491 0.615997 0.548492
0.829315 0.633606 0.566101
1.000000 0.665680 0.606628
1.000000 0.711426 0.669739
0.004517 0.663300 0.469666
0.111572 0.672974 0.479340
0.259369 0.686340 0.492706
0.427460 0.701538 0.507904
0.610474 0.718109 0.524475
0.805298 0.735718 0.542084
1.000000 0.757233 0.573730
1.000000 0.795135 0.678864
0.000031 0.754272 0.447723
0.087769 0.774078 0.455536
0.235565 0.787445 0.468903
0.403656 0.802643 0.484100
0.586639 0.819183 0.500641
0.781494 0.836823 0.518280
0.986725 0.855377 0.536835
1.000000 0.876678 0.695038
0.000031 0.841248 0.431152
0.064148 0.874390 0.431915
0.211945 0.887756 0.445282
0.380035 0.902954 0.460480
0.563019 0.919495 0.477020
0.757874 0.937134 0.494659
0.963104 0.955688 0.513214
1.000000 0.953674 0.731873
0.164062 0.164062 0.750702
0.271118 0.173737 0.760376
0.418915 0.187103 0.773743
0.587006 0.202301 0.788940
0.770020 0.218872 0.805511
0.964844 0.236481 0.823120
1.000000 0.355164 0.768555
1.000000 0.414642 0.758026
0.136963 0.279205 0.723602
0.243988 0.288849 0.733246
0.391815 0.302246 0.746643
0.559906 0.317444 0.761841
0.742889 0.333984 0.778381
0.937744 0.351624 0.796021
1.000000 0.451752 0.767029
1.000000 0.509888 0.763794
0.111603 0.386841 0.698242
0.218658 0.396515 0.707916
0.366455 0.409882 0.721283
0.534576 0.425110 0.736511
0.717560 0.441650 0.753052
0.912354 0.459229 0.770630
1.000000 0.542175 0.764984
1.000000 0.598572 0.771027
0.086853 0.491821 0.673492
0.193939 0.501526 0.683197
0.341705 0.514862 0.696533
0.509796 0.530060 0.711731
0.692810 0.546631 0.728302
0.887634 0.564240 0.745911
1.000000 0.630493 0.762085
1.000000 0.684509 0.780853
0.062531 0.595184 0.649170
0.169586 0.604858 0.658844
0.317413 0.618256 0.672241
0.485504 0.633453 0.687439
0.668488 0.649994 0.703979
0.863312 0.667603 0.721588
1.000000 0.717834 0.757660
1.000000 0.768341 0.795105
0.038483 0.697266 0.625122
0.145569 0.706970 0.634827
0.293335 0.720306 0.648163
0.461426 0.735504 0.663361
0.644440 0.752075 0.679932
0.839264 0.769684 0.697540
1.000000 0.804657 0.749634
1.000000 0.849487 0.817657
0.014679 0.798370 0.601318
0.121765 0.808075 0.611023
0.269531 0.821411 0.624359
0.437622 0.836609 0.639557
0.620636 0.853180 0.656128
0.815460 0.870789 0.673737
1.000000 0.892609 0.731445
1.000000 0.926300 0.859161
0.000031 0.894104 0.577942
0.098145 0.908386 0.587402
0.245911 0.921722 0.600739
0.414001 0.936920 0.615936
0.597015 0.953491 0.632507
0.791840 0.971100 0.650116
0.997070 0.989655 0.668671
1.000000 0.991241 0.960785
0.196411 0.196411 0.898682
0.303467 0.206085 0.908356
0.451263 0.219452 0.921722
0.619354 0.234650 0.936920
0.802338 0.251190 0.953461
0.997162 0.268799 0.971069
1.000000 0.413818 0.863678
1.000000 0.475067 0.843689
0.169281 0.311523 0.871552
0.276367 0.321228 0.881256
0.424133 0.334564 0.894592
0.592224 0.349762 0.909790
0.775238 0.366333 0.926361
0.970062 0.383942 0.943970
1.000000 0.509827 0.865021
1.000000 0.570007 0.850739
0.143951 0.419189 0.846222
0.250977 0.428833 0.855865
0.398804 0.442230 0.869263
0.566895 0.457428 0.884460
0.749878 0.473969 0.901001
0.944733 0.491608 0.918640
1.000000 0.599548 0.866821
1.000000 0.658417 0.859650
0.119202 0.524170 0.821472
0.226257 0.533844 0.831146
0.374084 0.547241 0.844543
0.542175 0.562439 0.859741
0.725159 0.578979 0.876282
0.920013 0.596619 0.893921
1.000000 0.686920 0.869385
1.000000 0.743927 0.871857
0.094879 0.627533 0.797150
0.201904 0.637177 0.806793
0.349731 0.650574 0.820190
0.517822 0.665771 0.835388
0.700806 0.682312 0.851929
0.895660 0.699951 0.869568
1.000000 0.772552 0.873444
1.000000 0.827026 0.889801
0.070831 0.729614 0.773102
0.177887 0.739288 0.782776
0.325684 0.752655 0.796143
0.493774 0.767853 0.811340
0.676758 0.784393 0.827881
0.871613 0.802032 0.845520
1.000000 0.856567 0.880920
1.000000 0.907013 0.918854
0.047028 0.830719 0.749298
0.154083 0.840393 0.758972
0.301849 0.853729 0.772308
0.469971 0.868958 0.787537
0.652954 0.885498 0.804077
0.847778 0.903107 0.821686
1.000000 0.937744 0.899109
1.000000 0.981262 0.974182
0.023407 0.931030 0.725677
0.130463 0.940704 0.735352
0.278259 0.954071 0.748718
0.446350 0.969269 0.763916
0.629333 0.985809 0.780457
0.828796 1.000000 0.803864
1.000000 1.000000 1.000000
1.000000 1.000000 1.000000
0.232605 0.232605 1.000000
0.336151 0.245880 1.000000
0.475250 0.266144 1.000000
0.627045 0.292450 1.000000
0.782623 0.326019 1.000000
0.933960 0.369080 1.000000
1.000000 0.472748 0.941498
1.000000 0.535522 0.913361
0.204224 0.343353 1.000000
0.311554 0.354675 1.000000
0.455994 0.372223 1.000000
0.613831 0.395477 1.000000
0.775604 0.425903 1.000000
0.932281 0.466187 1.000000
1.000000 0.568726 0.943329
1.000000 0.630646 0.919678
0.175049 0.450287 0.988556
0.282104 0.459961 0.998230
0.432037 0.474457 1.000000
0.596954 0.494080 1.000000
0.766357 0.520660 1.000000
0.929993 0.557404 1.000000
1.000000 0.658264 0.945770
1.000000 0.719147 0.927734
0.150299 0.555267 0.963806
0.257385 0.564972 0.973511
0.405182 0.578339 0.986877
0.573639 0.593781 1.000000
0.752930 0.615326 1.000000
0.926422 0.647034 1.000000
1.000000 0.745453 0.949310
1.000000 0.804901 0.938843
0.125977 0.658630 0.939484
0.233063 0.668335 0.949188
0.380829 0.681671 0.962524
0.548920 0.696869 0.977722
0.731934 0.713440 0.994293
0.920166 0.736664 1.000000
1.000000 0.830780 0.955078
1.000000 0.888245 0.955383
0.101929 0.760712 0.915436
0.209015 0.770416 0.925140
0.356812 0.783783 0.938507
0.524902 0.798981 0.953705
0.707855 0.815491 0.970215
0.902710 0.833130 0.987854
1.000000 0.914154 0.965973
1.000000 0.968536 0.982788
0.078125 0.861816 0.891632
0.185181 0.871490 0.901306
0.333008 0.884888 0.914703
0.501099 0.900085 0.929901
0.684052 0.916595 0.946411
0.878906 0.934235 0.964050
1.000000 0.993347 0.994873
1.000000 1.000000 1.000000
0.054504 0.962128 0.868011
0.161560 0.971802 0.877686
0.309357 0.985168 0.891052
0.478271 1.000000 0.906097
0.694946 1.000000 0.919464
0.917358 1.000000 0.956635
1.000000 1.000000 1.000000
1.000000 1.000000 1.000000
0.279755 0.279755 1.000000
0.372620 0.298462 1.000000
0.496094 0.326660 1.000000
0.628815 0.362671 1.000000
0.762024 0.407623 1.000000
0.887726 0.463684 1.000000
0.996887 0.534546 1.000000
1.000000 0.596436 0.968201
0.268738 0.381653 1.000000
0.364349 0.398956 1.000000
0.491425 0.425354 1.000000
0.627747 0.459534 1.000000
0.763885 0.502991 1.000000
0.890686 0.558441 1.000000
0.997070 0.630768 1.000000
1.000000 0.692078 0.971710
0.255890 0.478180 1.000000
0.354614 0.493958 1.000000
0.485840 0.518219 1.000000
0.626404 0.550232 1.000000
0.766174 0.591858 1.000000
0.894470 0.646576 1.000000
0.997345 0.720642 1.000000
1.000000 0.781250 0.976227
0.239960 0.574066 1.000000
0.342438 0.587921 1.000000
0.478729 0.609680 1.000000
0.624756 0.638916 1.000000
0.769257 0.678131 1.000000
0.899780 0.731720 1.000000
0.997711 0.808258 1.000000
1.000000 0.867889 0.982513
0.219666 0.670868 1.000000
0.326630 0.682404 1.000000
0.469269 0.700867 1.000000
0.622406 0.726501 1.000000
0.773651 0.762329 1.000000
0.907715 0.814087 1.000000
0.998322 0.894379 1.000000
1.000000 0.952545 0.992004
0.192596 0.769989 1.000000
0.305237 0.778687 1.000000
0.456085 0.792938 1.000000
0.618988 0.813629 1.000000
0.780365 0.844208 1.000000
0.921112 0.892670 1.000000
0.999512 0.979187 1.000000
1.000000 1.000000 1.000000
0.154724 0.873810 1.000000
0.274384 0.878876 1.000000
0.436310 0.887543 1.000000
0.613556 0.900940 1.000000
0.792206 0.922760 1.000000
0.948547 0.963287 1.000000
1.000000 1.000000 1.000000
1.000000 1.000000 1.000000
0.097717 0.986694 1.000000
0.226257 0.987244 1.000000
0.403290 0.988251 1.000000
0.603485 0.989960 1.000000
0.818420 0.993347 1.000000
1.000000 1.000000 1.000000
1.000000 1.000000 1.000000
1.000000 1.000000 1.000000
