portrait-pop-7.CUBE
#Created by: Adobe Photoshop Export Color Lookup Plugin
TITLE "pp-7"
#LUT size
LUT_3D_SIZE 5
#data domain
#LUT data points
DOMAIN_MIN 0.000000 0.000000 0.000000
DOMAIN_MAX 0.903226 0.903226 0.903226
0.000000 0.000000 0.000000
0.209503 0.000000 0.000000
0.499481 0.000000 0.000000
0.793060 0.000000 0.000000
1.000000 0.000000 0.000000
0.000000 0.209503 0.000000
0.209503 0.209503 0.000000
0.499481 0.209503 0.000000
0.793060 0.209503 0.000000
1.000000 0.209503 0.000000
0.000000 0.499481 0.000000
0.209503 0.499481 0.000000
0.499481 0.499481 0.000000
0.793060 0.499481 0.000000
1.000000 0.499481 0.000000
0.000000 0.793060 0.000000
0.209503 0.793060 0.000000
0.499481 0.793060 0.000000
0.793060 0.793060 0.000000
1.000000 0.793060 0.000000
0.000000 1.000000 0.000000
0.209503 1.000000 0.000000
0.499481 1.000000 0.000000
0.793060 1.000000 0.000000
1.000000 1.000000 0.000000
0.000000 0.000000 0.209503
0.209503 0.000000 0.209503
0.499481 0.000000 0.209503
0.793060 0.000000 0.209503
1.000000 0.000000 0.209503
0.000000 0.209503 0.209503
0.209503 0.209503 0.209503
0.499481 0.209503 0.209503
0.793060 0.209503 0.209503
1.000000 0.209503 0.209503
0.000000 0.499481 0.209503
0.209503 0.499481 0.209503
0.499481 0.499481 0.209503
0.793060 0.499481 0.209503
1.000000 0.499481 0.209503
0.000000 0.793060 0.209503
0.209503 0.793060 0.209503
0.499481 0.793060 0.209503
0.793060 0.793060 0.209503
1.000000 0.793060 0.209503
0.000000 1.000000 0.209503
0.209503 1.000000 0.209503
0.499481 1.000000 0.209503
0.793060 1.000000 0.209503
1.000000 1.000000 0.209503
0.000000 0.000000 0.499481
0.209503 0.000000 0.499481
0.499481 0.000000 0.499481
0.793060 0.000000 0.499481
1.000000 0.000000 0.499481
0.000000 0.209503 0.499481
0.209503 0.209503 0.499481
0.499481 0.209503 0.499481
0.793060 0.209503 0.499481
1.000000 0.209503 0.499481
0.000000 0.499481 0.499481
0.209503 0.499481 0.499481
0.499481 0.499481 0.499481
0.793060 0.499481 0.499481
1.000000 0.499481 0.499481
0.000000 0.793060 0.499481
0.209503 0.793060 0.499481
0.499481 0.793060 0.499481
0.793060 0.793060 0.499481
1.000000 0.793060 0.499481
0.000000 1.000000 0.499481
0.209503 1.000000 0.499481
0.499481 1.000000 0.499481
0.793060 1.000000 0.499481
1.000000 1.000000 0.499481
0.000000 0.000000 0.793060
0.209503 0.000000 0.793060
0.499481 0.000000 0.793060
0.793060 0.000000 0.793060
1.000000 0.000000 0.793060
0.000000 0.209503 0.793060
0.209503 0.209503 0.793060
0.499481 0.209503 0.793060
0.793060 0.209503 0.793060
1.000000 0.209503 0.793060
0.000000 0.499481 0.793060
0.209503 0.499481 0.793060
0.499481 0.499481 0.793060
0.793060 0.499481 0.793060
1.000000 0.499481 0.793060
0.000000 0.793060 0.793060
0.209503 0.793060 0.793060
0.499481 0.793060 0.793060
0.793060 0.793060 0.793060
1.000000 0.793060 0.793060
0.000000 1.000000 0.793060
0.209503 1.000000 0.793060
0.499481 1.000000 0.793060
0.793060 1.000000 0.793060
1.000000 1.000000 0.793060
0.000000 0.000000 1.000000
0.209503 0.000000 1.000000
0.499481 0.000000 1.000000
0.793060 0.000000 1.000000
1.000000 0.000000 1.000000
0.000000 0.209503 1.000000
0.209503 0.209503 1.000000
0.499481 0.209503 1.000000
0.793060 0.209503 1.000000
1.000000 0.209503 1.000000
0.000000 0.499481 1.000000
0.209503 0.499481 1.000000
0.499481 0.499481 1.000000
0.793060 0.499481 1.000000
1.000000 0.499481 1.000000
0.000000 0.793060 1.000000
0.209503 0.793060 1.000000
0.499481 0.793060 1.000000
0.793060 0.793060 1.000000
1.000000 0.793060 1.000000
0.000000 1.000000 1.000000
0.209503 1.000000 1.000000
0.499481 1.000000 1.000000
0.793060 1.000000 1.000000
1.000000 1.000000 1.000000
