portrait-pop-10.CUBE
#Created by: Adobe Photoshop Export Color Lookup Plugin
TITLE "pp-10"
#LUT size
LUT_3D_SIZE 5
#data domain
#LUT data points
DOMAIN_MIN 0.000000 0.000000 0.000000
DOMAIN_MAX 0.903226 0.903226 0.903226
0.000000 0.000000 0.000000
0.086182 0.086182 0.086182
0.173035 0.173035 0.173035
0.270844 0.270844 0.270844
0.375153 0.375153 0.375153
0.169983 0.169983 0.169983
0.267456 0.267456 0.267456
0.371613 0.371613 0.371613
0.477966 0.477966 0.477966
0.582428 0.582428 0.582428
0.368103 0.368103 0.368103
0.474426 0.474426 0.474426
0.579010 0.579010 0.579010
0.678284 0.678284 0.678284
0.768768 0.768768 0.768768
0.575623 0.575623 0.575623
0.675110 0.675110 0.675110
0.765961 0.765961 0.765961
0.845428 0.845428 0.845428
0.915375 0.915375 0.915375
0.763092 0.763092 0.763092
0.842957 0.842957 0.842957
0.913177 0.913177 0.913177
0.977753 0.977753 0.977753
1.000000 1.000000 1.000000
0.034210 0.034210 0.034210
0.116730 0.116730 0.116730
0.207825 0.207825 0.207825
0.308563 0.308563 0.308563
0.414154 0.414154 0.414154
0.204590 0.204590 0.204590
0.305115 0.305115 0.305115
0.410614 0.410614 0.410614
0.516693 0.516693 0.516693
0.619568 0.619568 0.619568
0.407013 0.407013 0.407013
0.513214 0.513214 0.513214
0.616241 0.616241 0.616241
0.712646 0.712646 0.712646
0.799103 0.799103 0.799103
0.612915 0.612915 0.612915
0.709595 0.709595 0.709595
0.796448 0.796448 0.796448
0.871948 0.871948 0.871948
0.939453 0.939453 0.939453
0.793762 0.793762 0.793762
0.869568 0.869568 0.869568
0.937286 0.937286 0.937286
1.000000 1.000000 1.000000
1.000000 1.000000 1.000000
0.064423 0.064423 0.064423
0.148682 0.148682 0.148682
0.243927 0.243927 0.243927
0.346985 0.346985 0.346985
0.453125 0.453125 0.453125
0.240601 0.240601 0.240601
0.343445 0.343445 0.343445
0.449554 0.449554 0.449554
0.554932 0.554932 0.554932
0.655762 0.655762 0.655762
0.446075 0.446075 0.446075
0.551483 0.551483 0.551483
0.652527 0.652527 0.652527
0.745697 0.745697 0.745697
0.827881 0.827881 0.827881
0.649323 0.649323 0.649323
0.742767 0.742767 0.742767
0.825287 0.825287 0.825287
0.897430 0.897430 0.897430
0.962952 0.962952 0.962952
0.822784 0.822784 0.822784
0.895142 0.895142 0.895142
0.960846 0.960846 0.960846
1.000000 1.000000 1.000000
1.000000 1.000000 1.000000
0.094391 0.094391 0.094391
0.182404 0.182404 0.182404
0.281067 0.281067 0.281067
0.385773 0.385773 0.385773
0.492035 0.492035 0.492035
0.277649 0.277649 0.277649
0.382233 0.382233 0.382233
0.488525 0.488525 0.488525
0.592621 0.592621 0.592621
0.690918 0.690918 0.690918
0.485016 0.485016 0.485016
0.589233 0.589233 0.589233
0.687775 0.687775 0.687775
0.777191 0.777191 0.777191
0.855133 0.855133 0.855133
0.684662 0.684662 0.684662
0.774414 0.774414 0.774414
0.852753 0.852753 0.852753
0.922028 0.922028 0.922028
0.986115 0.986115 0.986115
0.850311 0.850311 0.850311
0.919800 0.919800 0.919800
0.984009 0.984009 0.984009
1.000000 1.000000 1.000000
1.000000 1.000000 1.000000
0.125275 0.125275 0.125275
0.217560 0.217560 0.217560
0.318939 0.318939 0.318939
0.424744 0.424744 0.424744
0.530640 0.530640 0.530640
0.315552 0.315552 0.315552
0.421204 0.421204 0.421204
0.527161 0.527161 0.527161
0.629517 0.629517 0.629517
0.724823 0.724823 0.724823
0.523651 0.523651 0.523651
0.626221 0.626221 0.626221
0.721771 0.721771 0.721771
0.807129 0.807129 0.807129
0.881287 0.881287 0.881287
0.718781 0.718781 0.718781
0.804474 0.804474 0.804474
0.878967 0.878967 0.878967
0.945923 0.945923 0.945923
1.000000 1.000000 1.000000
0.876648 0.876648 0.876648
0.943756 0.943756 0.943756
1.000000 1.000000 1.000000
1.000000 1.000000 1.000000
1.000000 1.000000 1.000000
