portrait-pop-3.CUBE
#Created by: Adobe Photoshop Export Color Lookup Plugin
TITLE "pp-3.psd"
#LUT size
LUT_3D_SIZE 32
#data domain
DOMAIN_MIN 0.0 0.0 0.0
DOMAIN_MAX 1.0 1.0 1.0
#LUT data points
0.000000 0.000000 0.000000
0.001831 0.000000 0.006622
0.007019 0.000000 0.024628
0.014526 0.000000 0.035950
0.023621 0.000000 0.045837
0.033600 0.000000 0.054718
0.045166 0.000000 0.063477
0.059814 0.000000 0.073029
0.077393 0.000000 0.082245
0.099731 0.000000 0.091095
0.129761 0.000000 0.099518
0.173950 0.000000 0.107605
0.217834 0.000000 0.115295
0.261200 0.000000 0.122589
0.304047 0.000000 0.131500
0.346313 0.000000 0.141754
0.397217 0.000000 0.154449
0.456055 0.000000 0.169617
0.510193 0.000000 0.184967
0.553864 0.000000 0.200592
0.598145 0.000000 0.216370
0.643066 0.000000 0.232330
0.688660 0.000000 0.248505
0.734924 0.000000 0.264923
0.781799 0.000000 0.281494
0.829376 0.000000 0.298309
0.877594 0.000000 0.315277
0.926483 0.000000 0.332489
0.975983 0.000000 0.349854
1.000000 0.000000 0.369934
1.000000 0.000000 0.392212
1.000000 0.000000 0.414429
0.000000 0.002075 0.000000
0.001984 0.002075 0.000000
0.006897 0.002045 0.000000
0.013397 0.000031 0.000000
0.021484 0.000000 0.005402
0.031189 0.000000 0.022797
0.041870 0.000000 0.031708
0.055328 0.000000 0.041290
0.071930 0.000000 0.050507
0.093689 0.000000 0.059387
0.118866 0.000000 0.067871
0.163727 0.000000 0.076019
0.208191 0.000000 0.083771
0.252136 0.000000 0.091156
0.295593 0.000000 0.098083
0.338501 0.000000 0.104675
0.390076 0.000000 0.112152
0.449677 0.000000 0.127106
0.505951 0.000000 0.142303
0.549988 0.000000 0.157776
0.594666 0.000000 0.173462
0.639984 0.000000 0.189301
0.686005 0.000000 0.205292
0.732666 0.000000 0.221558
0.779938 0.000000 0.238068
0.827942 0.000000 0.254761
0.876587 0.000000 0.271637
0.925842 0.000000 0.288605
0.975769 0.000000 0.306000
1.000000 0.000000 0.326050
1.000000 0.000000 0.348663
1.000000 0.000000 0.370972
0.000000 0.008636 0.000000
0.003937 0.008636 0.000000
0.008087 0.008636 0.000000
0.015350 0.011017 0.000000
0.023529 0.009613 0.000000
0.031616 0.007202 0.000000
0.039520 0.002777 0.000000
0.049225 0.000000 0.000000
0.064423 0.000000 0.009155
0.087128 0.000000 0.026581
0.112305 0.000000 0.038849
0.153473 0.000000 0.047058
0.198578 0.000000 0.054871
0.243103 0.000000 0.062286
0.287170 0.000000 0.069336
0.330658 0.000000 0.075989
0.382935 0.000000 0.083588
0.443329 0.000000 0.091736
0.501709 0.000000 0.099457
0.546143 0.000000 0.114624
0.591217 0.000000 0.130096
0.636932 0.000000 0.145813
0.683350 0.000000 0.161774
0.730408 0.000000 0.177917
0.778107 0.000000 0.194336
0.826508 0.000000 0.210907
0.875549 0.000000 0.227631
0.925232 0.000000 0.244385
0.975586 0.000000 0.261749
1.000000 0.000000 0.281830
1.000000 0.000000 0.304382
1.000000 0.000000 0.327148
0.000000 0.019958 0.000000
0.005737 0.019958 0.000000
0.011810 0.019958 0.000000
0.017975 0.019958 0.000000
0.026245 0.022522 0.000000
0.036255 0.024445 0.000000
0.046051 0.021912 0.000000
0.056976 0.017822 0.000000
0.069214 0.013123 0.000000
0.085663 0.008057 0.000000
0.103699 0.000793 0.000000
0.135345 0.000000 0.001678
0.184570 0.000000 0.017242
0.231628 0.000000 0.029083
0.277893 0.000000 0.040436
0.322845 0.000000 0.049896
0.375854 0.000000 0.057617
0.437042 0.000000 0.065918
0.496704 0.000000 0.073395
0.542328 0.000000 0.080017
0.587799 0.000000 0.086700
0.633881 0.000000 0.102234
0.680695 0.000000 0.117981
0.728149 0.000000 0.133942
0.776276 0.000000 0.150238
0.825073 0.000000 0.166443
0.874512 0.000000 0.183075
0.924622 0.000000 0.199829
0.975372 0.000000 0.217163
1.000000 0.000000 0.237183
1.000000 0.000000 0.260071
1.000000 0.000000 0.282990
0.000000 0.036102 0.000000
0.007416 0.036102 0.000000
0.015320 0.036102 0.000000
0.023285 0.036102 0.000000
0.031311 0.036102 0.000000
0.039307 0.037415 0.000000
0.051819 0.041870 0.000000
0.065674 0.042053 0.000000
0.079376 0.037415 0.000000
0.096436 0.032349 0.000000
0.115906 0.026581 0.000000
0.150269 0.020264 0.000000
0.187164 0.013519 0.000000
0.223328 0.004639 0.000000
0.262848 0.000000 0.000000
0.307892 0.000000 0.006805
0.364716 0.000000 0.021942
0.428650 0.000000 0.035583
0.490723 0.000000 0.048615
0.538513 0.000000 0.057098
0.584381 0.000000 0.063080
0.630890 0.000000 0.068176
0.678070 0.000000 0.073914
0.725922 0.000000 0.089722
0.774445 0.000000 0.105652
0.823669 0.000000 0.122009
0.873505 0.000000 0.138397
0.924011 0.000000 0.155273
0.975189 0.000000 0.171967
1.000000 0.000000 0.192261
1.000000 0.000000 0.215393
1.000000 0.000000 0.238068
0.000000 0.057220 0.000000
0.008942 0.057220 0.000000
0.018555 0.057220 0.000000
0.028198 0.057220 0.000000
0.037903 0.057220 0.000000
0.047729 0.057220 0.000000
0.056244 0.057220 0.000000
0.072113 0.062561 0.000000
0.090118 0.067902 0.000000
0.108063 0.063721 0.000000
0.134521 0.057770 0.000000
0.169342 0.051056 0.000000
0.204895 0.043701 0.000000
0.241119 0.035950 0.000000
0.277893 0.027802 0.000000
0.315155 0.019562 0.000000
0.361053 0.009094 0.000000
0.416931 0.000000 0.000092
0.480499 0.000000 0.012817
0.532257 0.000000 0.024414
0.579559 0.000000 0.034973
0.627350 0.000000 0.044861
0.675476 0.000000 0.052490
0.723724 0.000000 0.056061
0.772614 0.000000 0.061035
0.822235 0.000000 0.077240
0.872498 0.000000 0.093475
0.923401 0.000000 0.110107
0.974976 0.000000 0.126770
1.000000 0.000000 0.147034
1.000000 0.000000 0.170166
1.000000 0.000000 0.193146
0.000000 0.083313 0.000000
0.010376 0.083313 0.000000
0.021484 0.083313 0.000000
0.032654 0.083313 0.000000
0.043945 0.083313 0.000000
0.055328 0.083313 0.000000
0.067871 0.083313 0.000000
0.079529 0.083313 0.000000
0.096436 0.087860 0.000000
0.117950 0.094360 0.000000
0.154938 0.096802 0.000000
0.188507 0.089752 0.000000
0.222900 0.081909 0.000000
0.257904 0.073364 0.000000
0.293488 0.064148 0.000000
0.329529 0.054596 0.000000
0.374298 0.042816 0.000000
0.427643 0.028717 0.000000
0.481445 0.015289 0.000000
0.526672 0.000854 0.000000
0.572906 0.000000 0.004150
0.621887 0.000000 0.015228
0.670898 0.000000 0.023499
0.720367 0.000000 0.030945
0.770325 0.000000 0.037628
0.820801 0.000000 0.043549
0.871490 0.000000 0.048370
0.922821 0.000000 0.064697
0.974792 0.000000 0.081238
1.000000 0.000000 0.101501
1.000000 0.000000 0.124847
1.000000 0.000000 0.147949
0.000000 0.119781 0.000000
0.011688 0.119781 0.000000
0.024139 0.119781 0.000000
0.036713 0.119781 0.000000
0.049377 0.119781 0.000000
0.062164 0.119781 0.000000
0.076538 0.119781 0.000000
0.093262 0.119781 0.000000
0.106995 0.119781 0.000000
0.129364 0.121552 0.000000
0.167572 0.126068 0.000000
0.205872 0.133606 0.000000
0.240875 0.129913 0.000000
0.274750 0.119324 0.000000
0.309204 0.109314 0.000000
0.344147 0.098572 0.000000
0.387512 0.084900 0.000000
0.439301 0.068268 0.000000
0.491577 0.051422 0.000000
0.534058 0.033112 0.000000
0.576080 0.017761 0.000000
0.619476 0.004700 0.000000
0.665894 0.000000 0.000336
0.716370 0.000000 0.008240
0.766998 0.000000 0.014099
0.818207 0.000000 0.019196
0.869873 0.000000 0.023529
0.921997 0.000000 0.026886
0.974579 0.000000 0.029999
1.000000 0.000000 0.055725
1.000000 0.000000 0.079315
1.000000 0.000000 0.102478
0.000000 0.176117 0.000000
0.012909 0.176117 0.000000
0.026520 0.176117 0.000000
0.040314 0.176117 0.000000
0.054260 0.176117 0.000000
0.068268 0.176117 0.000000
0.084412 0.176117 0.000000
0.103546 0.176117 0.000000
0.122833 0.176117 0.000000
0.144318 0.176117 0.000000
0.178497 0.177032 0.000000
0.216217 0.181152 0.000000
0.254059 0.185577 0.000000
0.291565 0.188873 0.000000
0.324921 0.169678 0.000000
0.358795 0.156830 0.000000
0.400818 0.137177 0.000000
0.451080 0.117645 0.000000
0.501465 0.097565 0.000000
0.541046 0.072083 0.000000
0.582336 0.050507 0.000000
0.625244 0.032532 0.000000
0.669891 0.018219 0.000000
0.716217 0.007629 0.000000
0.764099 0.000122 0.000000
0.815552 0.000000 0.002808
0.868011 0.000000 0.006866
0.920868 0.000000 0.009613
0.974213 0.000000 0.011536
1.000000 0.000000 0.015320
1.000000 0.000000 0.022491
1.000000 0.000000 0.046661
0.000000 0.231079 0.000000
0.013885 0.231079 0.000000
0.028595 0.231079 0.000000
0.043518 0.231079 0.000000
0.058502 0.231079 0.000000
0.073639 0.231079 0.000000
0.091400 0.231079 0.000000
0.113037 0.231079 0.000000
0.134766 0.231079 0.000000
0.161316 0.231079 0.000000
0.193817 0.231079 0.000000
0.226532 0.231171 0.000000
0.263672 0.235199 0.000000
0.300873 0.239563 0.000000
0.338104 0.244324 0.000000
0.373383 0.238434 0.000000
0.414093 0.214386 0.000000
0.462921 0.189728 0.000000
0.509369 0.157593 0.000000
0.548157 0.120056 0.000000
0.588654 0.091919 0.000000
0.630798 0.067596 0.000000
0.674683 0.046967 0.000000
0.720245 0.030182 0.000000
0.767487 0.016998 0.000000
0.816467 0.007538 0.000000
0.866974 0.001038 0.000000
0.919708 0.000000 0.000214
0.973846 0.000000 0.001892
1.000000 0.000000 0.003601
1.000000 0.000000 0.007385
1.000000 0.000000 0.012604
0.000000 0.284760 0.000000
0.013916 0.284760 0.000000
0.030365 0.284760 0.000000
0.046173 0.284760 0.000000
0.062164 0.284760 0.000000
0.078217 0.284760 0.000000
0.097595 0.284760 0.000000
0.121613 0.284760 0.000000
0.145844 0.284760 0.000000
0.171387 0.284760 0.000000
0.210236 0.284760 0.000000
0.242218 0.284760 0.000000
0.274292 0.284760 0.000000
0.309906 0.287903 0.000000
0.346497 0.292328 0.000000
0.383026 0.296967 0.000000
0.427399 0.302246 0.000000
0.474731 0.275055 0.000000
0.517303 0.241211 0.000000
0.555359 0.198700 0.000000
0.595032 0.154694 0.000000
0.636414 0.111572 0.000000
0.679535 0.084534 0.000000
0.724335 0.061371 0.000000
0.770813 0.041779 0.000000
0.819031 0.026123 0.000000
0.868927 0.014191 0.000000
0.920532 0.005890 0.000000
0.973816 0.001160 0.000000
1.000000 0.000000 0.000000
1.000000 0.000000 0.000549
1.000000 0.000000 0.002411
0.000000 0.337067 0.000000
0.013733 0.337067 0.000000
0.031891 0.337067 0.000000
0.048492 0.337067 0.000000
0.065216 0.337067 0.000000
0.082092 0.337067 0.000000
0.102875 0.337067 0.000000
0.129364 0.337067 0.000000
0.156097 0.337067 0.000000
0.182861 0.337067 0.000000
0.219849 0.337067 0.000000
0.257996 0.337067 0.000000
0.289368 0.337067 0.000000
0.320801 0.337067 0.000000
0.354919 0.339386 0.000000
0.390869 0.343597 0.000000
0.434662 0.349213 0.000000
0.486023 0.356537 0.000000
0.525330 0.323425 0.000000
0.562592 0.282196 0.000000
0.601532 0.240021 0.000000
0.642120 0.196869 0.000000
0.684448 0.152771 0.000000
0.728485 0.107819 0.000000
0.774200 0.075500 0.000000
0.821655 0.053375 0.000000
0.870789 0.034973 0.000000
0.921631 0.020477 0.000000
0.974152 0.009644 0.000000
1.000000 0.003845 0.000000
1.000000 0.001312 0.000000
1.000000 0.000031 0.000000
0.000000 0.387970 0.000000
0.013397 0.387970 0.000000
0.033081 0.387970 0.000000
0.050323 0.387970 0.000000
0.067688 0.387970 0.000000
0.085175 0.387970 0.000000
0.107361 0.387970 0.000000
0.136261 0.387970 0.000000
0.165466 0.387970 0.000000
0.194733 0.387970 0.000000
0.229767 0.387970 0.000000
0.267151 0.387970 0.000000
0.304565 0.387970 0.000000
0.335358 0.387970 0.000000
0.366119 0.387970 0.000000
0.398651 0.389343 0.000000
0.441803 0.394440 0.000000
0.492371 0.401123 0.000000
0.532684 0.396576 0.000000
0.569855 0.363922 0.000000
0.608032 0.323395 0.000000
0.647827 0.281555 0.000000
0.689423 0.239105 0.000000
0.732666 0.195496 0.000000
0.777618 0.151276 0.000000
0.824280 0.105743 0.000000
0.872650 0.064362 0.000000
0.922729 0.043396 0.000000
0.974518 0.026306 0.000000
1.000000 0.015808 0.000000
1.000000 0.009888 0.000000
1.000000 0.005432 0.000000
0.000000 0.437439 0.000000
0.012878 0.437439 0.000000
0.034027 0.437439 0.000000
0.051666 0.437439 0.000000
0.069519 0.437439 0.000000
0.087524 0.437439 0.000000
0.110962 0.437439 0.000000
0.142334 0.437439 0.000000
0.173981 0.437439 0.000000
0.205750 0.437439 0.000000
0.240112 0.437439 0.000000
0.276550 0.437439 0.000000
0.313141 0.437439 0.000000
0.349884 0.437439 0.000000
0.380005 0.437439 0.000000
0.410248 0.437439 0.000000
0.448883 0.438812 0.000000
0.498627 0.444855 0.000000
0.537018 0.438843 0.000000
0.576141 0.432648 0.000000
0.614563 0.404633 0.000000
0.653595 0.364746 0.000000
0.694366 0.323456 0.000000
0.736847 0.281464 0.000000
0.781036 0.238556 0.000000
0.826965 0.194580 0.000000
0.874542 0.149353 0.000000
0.923859 0.103912 0.000000
0.974884 0.057159 0.000000
1.000000 0.036255 0.000000
1.000000 0.026855 0.000000
1.000000 0.018890 0.000000
0.000000 0.485504 0.000000
0.012299 0.485504 0.000000
0.034454 0.485504 0.000000
0.052521 0.485504 0.000000
0.070709 0.485504 0.000000
0.088989 0.485504 0.000000
0.113617 0.485504 0.000000
0.147491 0.485504 0.000000
0.181641 0.485504 0.000000
0.215881 0.485504 0.000000
0.250702 0.485504 0.000000
0.286316 0.485504 0.000000
0.322113 0.485504 0.000000
0.357941 0.485504 0.000000
0.393982 0.485504 0.000000
0.423523 0.485504 0.000000
0.459778 0.485504 0.000000
0.503754 0.486603 0.000000
0.541382 0.480774 0.000000
0.580109 0.474854 0.000000
0.619873 0.469025 0.000000
0.659393 0.445587 0.000000
0.699402 0.406097 0.000000
0.741089 0.365753 0.000000
0.784485 0.324280 0.000000
0.829620 0.281769 0.000000
0.876465 0.238525 0.000000
0.924988 0.194153 0.000000
0.975250 0.148743 0.000000
1.000000 0.107056 0.000000
1.000000 0.069244 0.000000
1.000000 0.040924 0.000000
0.000000 0.524963 0.000000
0.010925 0.524963 0.000000
0.033142 0.524963 0.000000
0.050476 0.524963 0.000000
0.067963 0.524963 0.000000
0.085571 0.524963 0.000000
0.109955 0.524963 0.000000
0.144531 0.524963 0.000000
0.179321 0.524963 0.000000
0.214325 0.524963 0.000000
0.249695 0.524963 0.000000
0.285004 0.524963 0.000000
0.320496 0.524963 0.000000
0.356110 0.524963 0.000000
0.391815 0.524963 0.000000
0.427582 0.524963 0.000000
0.463501 0.524963 0.000000
0.506042 0.524963 0.000000
0.545746 0.521851 0.000000
0.584045 0.516449 0.000000
0.623413 0.511047 0.000000
0.663788 0.505646 0.000000
0.704437 0.486694 0.000000
0.745361 0.448090 0.000000
0.787964 0.408051 0.000000
0.832336 0.367493 0.000000
0.878387 0.325623 0.000000
0.926147 0.282654 0.000000
0.975616 0.238617 0.000000
1.000000 0.198120 0.000000
1.000000 0.160858 0.000000
1.000000 0.123566 0.000000
0.000000 0.561096 0.000000
0.010864 0.561096 0.000000
0.033081 0.561096 0.000000
0.050415 0.561096 0.000000
0.067871 0.561096 0.000000
0.085571 0.561096 0.000000
0.109985 0.561096 0.000000
0.144562 0.561096 0.000000
0.179382 0.561096 0.000000
0.214417 0.561096 0.000000
0.249603 0.561096 0.000000
0.284973 0.561096 0.000000
0.320465 0.561096 0.000000
0.356049 0.561096 0.000000
0.391785 0.561096 0.000000
0.427582 0.561096 0.000000
0.463501 0.561096 0.000000
0.505981 0.561096 0.000000
0.548706 0.561096 0.000000
0.588013 0.557556 0.000000
0.626953 0.552582 0.000000
0.666931 0.547394 0.000000
0.707977 0.542297 0.000000
0.749634 0.528137 0.000000
0.791443 0.489807 0.000000
0.835022 0.450745 0.000000
0.880310 0.410461 0.000000
0.927307 0.369293 0.000000
0.975983 0.327240 0.000000
1.000000 0.287445 0.000000
1.000000 0.251068 0.000000
1.000000 0.214478 0.000000
0.000000 0.597290 0.000000
0.012451 0.597290 0.000000
0.035187 0.597290 0.000000
0.053680 0.597290 0.000000
0.072418 0.597290 0.000000
0.091095 0.597290 0.000000
0.116211 0.597290 0.000000
0.150818 0.597290 0.000000
0.185730 0.597290 0.000000
0.220795 0.597290 0.000000
0.256012 0.597290 0.000000
0.291443 0.597290 0.000000
0.326935 0.597290 0.000000
0.362427 0.597290 0.000000
0.398163 0.597290 0.000000
0.434021 0.597290 0.000000
0.469940 0.597290 0.000000
0.505951 0.597290 0.000000
0.548645 0.597290 0.000000
0.591309 0.597290 0.000000
0.630493 0.593292 0.000000
0.670044 0.588593 0.000000
0.710724 0.583954 0.000000
0.752411 0.579346 0.000000
0.794952 0.569702 0.000000
0.837738 0.531921 0.000000
0.882233 0.493256 0.000000
0.928436 0.453888 0.000000
0.976379 0.413269 0.000000
1.000000 0.374786 0.000000
1.000000 0.339111 0.000000
1.000000 0.303162 0.000000
0.000000 0.633545 0.000000
0.014160 0.633545 0.000000
0.037506 0.633545 0.000000
0.056976 0.633545 0.000000
0.076660 0.633545 0.000000
0.096649 0.633545 0.000000
0.122498 0.633545 0.000000
0.157074 0.633545 0.000000
0.192047 0.633545 0.000000
0.227081 0.633545 0.000000
0.262421 0.633545 0.000000
0.297760 0.633545 0.000000
0.333344 0.633545 0.000000
0.368896 0.633545 0.000000
0.404694 0.633545 0.000000
0.440491 0.633545 0.000000
0.476471 0.633545 0.000000
0.512573 0.633545 0.000000
0.548553 0.633545 0.000000
0.591339 0.633545 0.000000
0.634064 0.633423 0.000000
0.673218 0.629303 0.000000
0.713440 0.624969 0.000000
0.754730 0.620789 0.000000
0.797089 0.616638 0.000000
0.840485 0.611450 0.000000
0.884186 0.574493 0.000000
0.929596 0.536407 0.000000
0.976746 0.497284 0.000000
1.000000 0.460144 0.000000
1.000000 0.425812 0.000000
1.000000 0.390259 0.000000
0.000000 0.669861 0.000000
0.016052 0.669861 0.000000
0.039551 0.669861 0.000000
0.060211 0.669861 0.000000
0.081055 0.669861 0.000000
0.102173 0.669861 0.000000
0.128723 0.669861 0.000000
0.163330 0.669861 0.000000
0.198334 0.669861 0.000000
0.233398 0.669861 0.000000
0.268768 0.669861 0.000000
0.304260 0.669861 0.000000
0.339722 0.669861 0.000000
0.375458 0.669861 0.000000
0.411102 0.669861 0.000000
0.447052 0.669861 0.000000
0.483093 0.669861 0.000000
0.519012 0.669861 0.000000
0.555176 0.669861 0.000000
0.591248 0.669861 0.000000
0.634125 0.669861 0.000000
0.676361 0.669189 0.000000
0.716156 0.665344 0.000000
0.757050 0.661560 0.000000
0.798981 0.657837 0.000000
0.841980 0.653992 0.000000
0.886047 0.650177 0.000000
0.930786 0.617035 0.000000
0.977112 0.579437 0.000000
1.000000 0.543457 0.000000
1.000000 0.509735 0.000000
1.000000 0.475677 0.000000
0.000000 0.706238 0.000000
0.018005 0.706238 0.000000
0.041779 0.706238 0.000000
0.063507 0.706238 0.000000
0.085602 0.706238 0.000000
0.107727 0.706238 0.000000
0.134888 0.706238 0.000000
0.169678 0.706238 0.000000
0.204681 0.706238 0.000000
0.239868 0.706238 0.000000
0.275055 0.706238 0.000000
0.310547 0.706238 0.000000
0.346161 0.706238 0.000000
0.381866 0.706238 0.000000
0.417694 0.706238 0.000000
0.453430 0.706238 0.000000
0.489410 0.706238 0.000000
0.525513 0.706238 0.000000
0.561646 0.706238 0.000000
0.597870 0.706238 0.000000
0.634155 0.706238 0.000000
0.676910 0.706238 0.000000
0.718903 0.705048 0.000000
0.759369 0.701721 0.000000
0.800873 0.698364 0.000000
0.843445 0.694916 0.000000
0.887115 0.691559 0.000000
0.931824 0.687988 0.000000
0.977509 0.659149 0.000000
1.000000 0.624573 0.000000
1.000000 0.591614 0.000000
1.000000 0.558350 0.000000
0.000000 0.742645 0.000000
0.020111 0.742645 0.000000
0.043915 0.742645 0.000000
0.066772 0.742645 0.000000
0.089844 0.742645 0.000000
0.113251 0.742645 0.000000
0.141113 0.742645 0.000000
0.175903 0.742645 0.000000
0.210907 0.742645 0.000000
0.246063 0.742645 0.000000
0.281616 0.742645 0.000000
0.317047 0.742645 0.000000
0.352661 0.742645 0.000000
0.388367 0.742645 0.000000
0.424164 0.742645 0.000000
0.460052 0.742645 0.000000
0.496002 0.742645 0.000000
0.532043 0.742645 0.000000
0.568176 0.742645 0.000000
0.604370 0.742645 0.000000
0.640656 0.742645 0.000000
0.676941 0.742645 0.000000
0.719879 0.742645 0.000000
0.761688 0.741211 0.000000
0.802765 0.738220 0.000000
0.844940 0.735199 0.000000
0.888153 0.732269 0.000000
0.932465 0.729218 0.000000
0.977844 0.726440 0.000000
1.000000 0.703491 0.000000
1.000000 0.671600 0.000000
1.000000 0.639130 0.000000
0.000000 0.779144 0.000000
0.022278 0.779144 0.000000
0.046082 0.779144 0.000000
0.070068 0.779144 0.000000
0.094452 0.779144 0.000000
0.118835 0.779144 0.000000
0.147461 0.779144 0.000000
0.182281 0.779144 0.000000
0.217285 0.779144 0.000000
0.252472 0.779144 0.000000
0.287811 0.779144 0.000000
0.323486 0.779144 0.000000
0.359070 0.779144 0.000000
0.394745 0.779144 0.000000
0.430542 0.779144 0.000000
0.466400 0.779144 0.000000
0.502563 0.779144 0.000000
0.538605 0.779144 0.000000
0.574707 0.779144 0.000000
0.610901 0.779144 0.000000
0.647125 0.779144 0.000000
0.683624 0.779144 0.000000
0.719971 0.779144 0.000000
0.763062 0.779144 0.000000
0.804657 0.777527 0.000000
0.846405 0.775055 0.000000
0.889221 0.772369 0.000000
0.933075 0.769836 0.000000
0.978027 0.767334 0.000000
1.000000 0.765930 0.000000
1.000000 0.749054 0.000000
1.000000 0.717743 0.000000
0.000000 0.815674 0.000000
0.023468 0.815674 0.000000
0.048248 0.815674 0.000000
0.073334 0.815674 0.000000
0.098877 0.815674 0.000000
0.124390 0.815674 0.000000
0.153625 0.815674 0.000000
0.188477 0.815674 0.000000
0.223755 0.815674 0.000000
0.258972 0.815674 0.000000
0.294342 0.815674 0.000000
0.329834 0.815674 0.000000
0.365479 0.815674 0.000000
0.401184 0.815674 0.000000
0.437012 0.815674 0.000000
0.472900 0.815674 0.000000
0.508911 0.815674 0.000000
0.544983 0.815674 0.000000
0.581329 0.815674 0.000000
0.617523 0.815674 0.000000
0.653809 0.815674 0.000000
0.690155 0.815674 0.000000
0.726532 0.815674 0.000000
0.762970 0.815674 0.000000
0.806030 0.815674 0.000000
0.847900 0.814056 0.000000
0.890259 0.811981 0.000000
0.933716 0.809723 0.000000
0.978241 0.807617 0.000000
1.000000 0.806458 0.000000
1.000000 0.806458 0.000000
1.000000 0.793732 0.000000
0.000000 0.852264 0.000000
0.024445 0.852264 0.000000
0.050415 0.852264 0.000000
0.076660 0.852264 0.000000
0.103119 0.852264 0.000000
0.130005 0.852264 0.000000
0.159882 0.852264 0.000000
0.194885 0.852264 0.000000
0.230072 0.852264 0.000000
0.265228 0.852264 0.000000
0.300690 0.852264 0.000000
0.336304 0.852264 0.000000
0.371826 0.852264 0.000000
0.407654 0.852264 0.000000
0.443573 0.852264 0.000000
0.479370 0.852264 0.000000
0.515472 0.852264 0.000000
0.551636 0.852264 0.000000
0.587677 0.852264 0.000000
0.623962 0.852264 0.000000
0.660339 0.852264 0.000000
0.696564 0.852264 0.000000
0.733032 0.852264 0.000000
0.769562 0.852264 0.000000
0.805969 0.852264 0.000000
0.849243 0.852264 0.000000
0.891327 0.850739 0.000000
0.934357 0.848969 0.000000
0.978455 0.847229 0.000000
1.000000 0.846252 0.000000
1.000000 0.846466 0.000000
1.000000 0.846375 0.000000
0.000000 0.888885 0.000000
0.025421 0.888885 0.000000
0.052582 0.888885 0.000000
0.079956 0.888885 0.000000
0.107758 0.888885 0.000000
0.135590 0.888885 0.000000
0.166351 0.888885 0.000000
0.201324 0.888885 0.000000
0.236298 0.888885 0.000000
0.271637 0.888885 0.000000
0.307098 0.888885 0.000000
0.342712 0.888885 0.000000
0.378418 0.888885 0.000000
0.414215 0.888885 0.000000
0.449921 0.888885 0.000000
0.485931 0.888885 0.000000
0.521973 0.888885 0.000000
0.558136 0.888885 0.000000
0.594330 0.888885 0.000000
0.630615 0.888885 0.000000
0.666962 0.888885 0.000000
0.703156 0.888885 0.000000
0.739624 0.888885 0.000000
0.776123 0.888885 0.000000
0.812714 0.888885 0.000000
0.849304 0.888885 0.000000
0.892395 0.888763 0.000000
0.934998 0.887512 0.000000
0.978638 0.886139 0.000000
1.000000 0.885437 0.000000
1.000000 0.885559 0.000000
1.000000 0.885498 0.000000
0.000000 0.925568 0.000000
0.026428 0.925568 0.000000
0.054779 0.925568 0.000000
0.083252 0.925568 0.000000
0.112000 0.925568 0.000000
0.141174 0.925568 0.000000
0.172546 0.925568 0.000000
0.207642 0.925568 0.000000
0.242676 0.925568 0.000000
0.278137 0.925568 0.000000
0.313477 0.925568 0.000000
0.349152 0.925568 0.000000
0.384735 0.925568 0.000000
0.420624 0.925568 0.000000
0.456390 0.925568 0.000000
0.492462 0.925568 0.000000
0.528412 0.925568 0.000000
0.564636 0.925568 0.000000
0.600922 0.925568 0.000000
0.637054 0.925568 0.000000
0.673492 0.925568 0.000000
0.709747 0.925568 0.000000
0.746277 0.925568 0.000000
0.782654 0.925568 0.000000
0.819305 0.925568 0.000000
0.855743 0.925568 0.000000
0.892487 0.925568 0.000000
0.935608 0.925415 0.000000
0.978851 0.924408 0.000000
1.000000 0.924225 0.000000
1.000000 0.923981 0.000000
1.000000 0.923981 0.000000
0.000000 0.962280 0.000000
0.027527 0.962280 0.000000
0.056946 0.962280 0.000000
0.086548 0.962280 0.000000
0.116425 0.962280 0.000000
0.146790 0.962280 0.000000
0.178925 0.962280 0.000000
0.213776 0.962280 0.000000
0.249054 0.962280 0.000000
0.284485 0.962280 0.000000
0.319824 0.962280 0.000000
0.355499 0.962280 0.000000
0.391266 0.962280 0.000000
0.427155 0.962280 0.000000
0.462891 0.962280 0.000000
0.498932 0.962280 0.000000
0.535065 0.962280 0.000000
0.571259 0.962280 0.000000
