portrait-pop-9.CUBE
#Created by: Adobe Photoshop Export Color Lookup Plugin
TITLE "pp-9"
#LUT size
LUT_3D_SIZE 32
#data domain
DOMAIN_MIN 0.0 0.0 0.0
DOMAIN_MAX 1.0 1.0 1.0
#LUT data points
0.000000 0.000000 0.000000
0.018982 0.001709 0.001709
0.045105 0.004089 0.004089
0.074768 0.006775 0.006775
0.107086 0.009705 0.009705
0.141541 0.012787 0.012787
0.177826 0.016083 0.016083
0.215668 0.019501 0.019501
0.254852 0.023041 0.023041
0.295105 0.026703 0.026703
0.336670 0.030457 0.030457
0.379333 0.034302 0.034302
0.422943 0.038239 0.038239
0.467407 0.042267 0.042267
0.512634 0.046356 0.046356
0.558868 0.050537 0.050537
0.605927 0.054779 0.054779
0.653687 0.059113 0.059113
0.702148 0.063507 0.063507
0.751160 0.067932 0.067932
0.800781 0.072418 0.072418
0.851196 0.076965 0.076965
0.902252 0.081604 0.081604
0.953857 0.086273 0.086273
1.000000 0.093567 0.093567
1.000000 0.120850 0.120850
1.000000 0.142059 0.142059
1.000000 0.142059 0.142059
1.000000 0.142059 0.142059
1.000000 0.142059 0.142059
1.000000 0.142059 0.142059
1.000000 0.142059 0.142059
0.000031 0.025696 0.000031
0.013855 0.030396 0.000031
0.037262 0.034515 0.000031
0.067230 0.037598 0.000031
0.099823 0.040436 0.002441
0.134308 0.043549 0.005554
0.170563 0.046814 0.008820
0.208435 0.050262 0.012268
0.247620 0.053802 0.015808
0.287842 0.057434 0.019440
0.329407 0.061188 0.023193
0.372101 0.065063 0.027069
0.415710 0.069000 0.031006
0.460175 0.073029 0.035034
0.505402 0.077118 0.039124
0.551636 0.081299 0.043304
0.598724 0.085571 0.047577
0.646454 0.089874 0.051880
0.694916 0.094269 0.056274
0.743896 0.098663 0.060669
0.793549 0.103180 0.065186
0.843964 0.107727 0.069733
0.894989 0.112335 0.074341
0.946594 0.117004 0.079010
0.998779 0.121735 0.083740
1.000000 0.147980 0.112976
1.000000 0.168884 0.136047
1.000000 0.168884 0.136047
1.000000 0.168884 0.136047
1.000000 0.168884 0.136047
1.000000 0.168884 0.136047
1.000000 0.168884 0.136047
0.000031 0.049774 0.000031
0.012939 0.054901 0.000031
0.033722 0.060394 0.000031
0.060242 0.065155 0.000031
0.091583 0.069122 0.000031
0.126831 0.072449 0.000031
0.163818 0.075592 0.002075
0.201660 0.079010 0.005493
0.240845 0.082550 0.009033
0.281067 0.086182 0.012665
0.322662 0.089966 0.016449
0.365326 0.093811 0.020294
0.408936 0.097748 0.024231
0.453369 0.101746 0.028229
0.498627 0.105865 0.032349
0.544861 0.110046 0.036530
0.591949 0.114319 0.040802
0.639679 0.118622 0.045105
0.688141 0.123016 0.049500
0.737122 0.127411 0.053894
0.786774 0.131927 0.058411
0.837189 0.136475 0.062958
0.888245 0.141113 0.067596
0.939819 0.145752 0.072235
0.992004 0.150482 0.076965
1.000000 0.173523 0.105194
1.000000 0.194061 0.130127
1.000000 0.194061 0.130127
1.000000 0.194061 0.130127
1.000000 0.194061 0.130127
1.000000 0.194061 0.130127
1.000000 0.194061 0.130127
0.000031 0.073242 0.000031
0.012573 0.078552 0.000031
0.032135 0.084656 0.000031
0.056824 0.090363 0.000031
0.085938 0.095459 0.000031
0.118927 0.099915 0.000031
0.155182 0.103821 0.000031
0.194397 0.107208 0.000031
0.234222 0.110565 0.002411
0.274475 0.114227 0.006073
0.316040 0.117981 0.009827
0.358704 0.121826 0.013672
0.402344 0.125793 0.017639
0.446808 0.129822 0.021667
0.492004 0.133881 0.025726
0.538269 0.138092 0.029938
0.585327 0.142334 0.034180
0.633057 0.146637 0.038483
0.681519 0.151031 0.042877
0.730560 0.155487 0.047333
0.780151 0.159943 0.051788
0.830597 0.164520 0.056366
0.881622 0.169128 0.060974
0.933228 0.173798 0.065643
0.985413 0.178528 0.070374
1.000000 0.198456 0.097015
1.000000 0.218689 0.123932
1.000000 0.218689 0.123932
1.000000 0.218689 0.123932
1.000000 0.218689 0.123932
1.000000 0.218689 0.123932
1.000000 0.218689 0.123932
0.000031 0.096313 0.000031
0.012390 0.101715 0.000031
0.031219 0.108185 0.000031
0.054779 0.114532 0.000031
0.082397 0.120331 0.000031
0.113708 0.125641 0.000031
0.148285 0.130402 0.000031
0.185730 0.134705 0.000031
0.225677 0.138519 0.000031
0.267700 0.141907 0.000031
0.309540 0.145569 0.003326
0.352203 0.149414 0.007172
0.395844 0.153381 0.011139
0.440308 0.157410 0.015167
0.485504 0.161469 0.019226
0.531769 0.165680 0.023438
0.578827 0.169922 0.027679
0.626556 0.174225 0.031982
0.675018 0.178619 0.036377
0.724060 0.183075 0.040833
0.773651 0.187531 0.045288
0.824097 0.192108 0.049866
0.875122 0.196716 0.054474
0.926758 0.201416 0.059174
0.978912 0.206116 0.063873
1.000000 0.223145 0.088440
1.000000 0.242981 0.117432
1.000000 0.242981 0.117432
1.000000 0.242981 0.117432
1.000000 0.242981 0.117432
1.000000 0.242981 0.117432
1.000000 0.242981 0.117432
0.000031 0.119110 0.000031
0.012268 0.124603 0.000031
0.030640 0.131256 0.000031
0.053375 0.138031 0.000031
0.079956 0.144379 0.000031
0.110046 0.150330 0.000031
0.143250 0.155792 0.000031
0.179230 0.160736 0.000031
0.217804 0.165314 0.000031
0.258392 0.169403 0.000031
0.301331 0.173157 0.000031
0.345795 0.176697 0.000763
0.389435 0.180664 0.004730
0.433868 0.184662 0.008728
0.479095 0.188751 0.012817
0.525360 0.192963 0.017029
0.572418 0.197205 0.021271
0.620148 0.201508 0.025574
0.668610 0.205902 0.029968
0.717621 0.210327 0.034393
0.767242 0.214813 0.038879
0.817688 0.219391 0.043457
0.868713 0.223999 0.048065
0.920319 0.228668 0.052734
0.972504 0.233398 0.057465
1.000000 0.247620 0.079376
1.000000 0.267029 0.110535
1.000000 0.267029 0.110535
1.000000 0.267029 0.110535
1.000000 0.267029 0.110535
1.000000 0.267029 0.110535
1.000000 0.267029 0.110535
0.000031 0.141693 0.000031
0.012177 0.147186 0.000031
0.030212 0.154083 0.000031
0.052368 0.161072 0.000031
0.078156 0.167877 0.000031
0.107269 0.174316 0.000031
0.139404 0.180328 0.000031
0.174225 0.185883 0.000031
0.211578 0.191010 0.000031
0.251007 0.195740 0.000031
0.292816 0.200165 0.000031
0.336548 0.204163 0.000031
0.382050 0.207886 0.000031
0.427490 0.211639 0.002350
0.472748 0.215759 0.006470
0.518982 0.219940 0.010651
0.566071 0.224213 0.014923
0.613800 0.228516 0.019226
0.662262 0.232910 0.023621
0.711243 0.237305 0.028015
0.760895 0.241821 0.032532
0.811310 0.246368 0.037079
0.862366 0.251007 0.041718
0.913940 0.255646 0.046356
0.966125 0.260376 0.051086
1.000000 0.272034 0.069824
1.000000 0.290985 0.103302
1.000000 0.290985 0.103302
1.000000 0.290985 0.103302
1.000000 0.290985 0.103302
1.000000 0.290985 0.103302
1.000000 0.290985 0.103302
0.000031 0.164062 0.000031
0.012115 0.169586 0.000031
0.029938 0.176636 0.000031
0.051605 0.183868 0.000031
0.076782 0.191010 0.000031
0.105103 0.197784 0.000031
0.136322 0.204254 0.000031
0.170288 0.210358 0.000031
0.206543 0.215973 0.000031
0.244995 0.221222 0.000031
0.285675 0.226135 0.000031
0.328369 0.230713 0.000031
0.372833 0.234924 0.000031
0.418945 0.238861 0.000031
0.466431 0.242523 0.000153
0.512665 0.246704 0.004333
0.559753 0.250977 0.008606
0.607483 0.255280 0.012909
0.655945 0.259674 0.017303
0.704956 0.264099 0.021729
0.754578 0.268585 0.026215
0.804993 0.273132 0.030762
0.856049 0.277771 0.035400
0.907654 0.282440 0.040070
0.959808 0.287140 0.044769
1.000000 0.296326 0.059570
1.000000 0.314789 0.095581
1.000000 0.314789 0.095581
1.000000 0.314789 0.095581
1.000000 0.314789 0.095581
1.000000 0.314789 0.095581
1.000000 0.314789 0.095581
0.000031 0.186310 0.000031
0.012085 0.191895 0.000031
0.029694 0.198975 0.000031
0.051025 0.206390 0.000031
0.075684 0.213776 0.000031
0.103363 0.220917 0.000031
0.133881 0.227753 0.000031
0.166962 0.234222 0.000031
0.202454 0.240326 0.000031
0.239899 0.246033 0.000031
0.279694 0.251373 0.000031
0.321472 0.256439 0.000031
0.365021 0.261169 0.000031
0.410187 0.265594 0.000031
0.456848 0.269714 0.000031
0.505219 0.273590 0.000031
0.553497 0.277588 0.002350
0.601227 0.281891 0.006653
0.649689 0.286285 0.011047
0.698669 0.290680 0.015442
0.748322 0.295197 0.019958
0.798737 0.299744 0.024506
0.849792 0.304382 0.029144
0.901367 0.309021 0.033783
0.953552 0.313751 0.038513
1.000000 0.320618 0.048645
1.000000 0.338593 0.087402
1.000000 0.338593 0.087402
1.000000 0.338593 0.087402
1.000000 0.338593 0.087402
1.000000 0.338593 0.087402
1.000000 0.338593 0.087402
0.000031 0.208466 0.000031
0.012024 0.214020 0.000031
0.029510 0.221222 0.000031
0.050537 0.228790 0.000031
0.074768 0.236359 0.000031
0.101959 0.243774 0.000031
0.131836 0.250946 0.000031
0.164246 0.257751 0.000031
0.198944 0.264221 0.000031
0.235626 0.270325 0.000031
0.274597 0.276154 0.000031
0.315521 0.281586 0.000031
0.358215 0.286743 0.000031
0.402527 0.291565 0.000031
0.448395 0.296143 0.000031
0.495941 0.300446 0.000031
0.544983 0.304504 0.000031
0.595001 0.308350 0.000427
0.643463 0.312744 0.004822
0.692474 0.317169 0.009247
0.742096 0.321655 0.013733
0.792511 0.326202 0.018280
0.843567 0.330841 0.022919
0.895142 0.335480 0.027557
0.947327 0.340210 0.032288
0.999817 0.344971 0.037048
1.000000 0.362335 0.078644
1.000000 0.362335 0.078644
1.000000 0.362335 0.078644
1.000000 0.362335 0.078644
1.000000 0.362335 0.078644
1.000000 0.362335 0.078644
0.000031 0.230408 0.000031
0.011993 0.236053 0.000031
0.029358 0.243286 0.000031
0.050171 0.250977 0.000031
0.074036 0.258728 0.000031
0.100800 0.266418 0.000031
0.130096 0.273773 0.000031
0.161926 0.280945 0.000031
0.195984 0.287750 0.000031
0.231995 0.294189 0.000031
0.270172 0.300354 0.000031
0.310364 0.306213 0.000031
0.352295 0.311737 0.000031
0.395874 0.316986 0.000031
0.440918 0.321960 0.000031
0.487701 0.326630 0.000031
0.535950 0.331055 0.000031
0.585541 0.335266 0.000031
0.636353 0.339233 0.000031
0.686279 0.343475 0.003052
0.735870 0.347931 0.007507
0.786346 0.352539 0.012115
0.837341 0.357117 0.016693
0.888947 0.361786 0.021362
0.941101 0.366486 0.026062
0.993591 0.371246 0.030823
1.000000 0.386078 0.069183
1.000000 0.386078 0.069183
1.000000 0.386078 0.069183
1.000000 0.386078 0.069183
1.000000 0.386078 0.069183
1.000000 0.386078 0.069183
0.000031 0.252350 0.000031
0.011993 0.257965 0.000031
0.029236 0.265289 0.000031
0.049835 0.273041 0.000031
0.073425 0.280945 0.000031
0.099762 0.288788 0.000031
0.128662 0.296448 0.000031
0.159943 0.303864 0.000031
0.193390 0.310944 0.000031
0.228790 0.317719 0.000031
0.266388 0.324249 0.000031
0.305847 0.330414 0.000031
0.347076 0.336304 0.000031
0.389923 0.341888 0.000031
0.434235 0.347168 0.000031
0.480347 0.352234 0.000031
0.527893 0.357056 0.000031
0.576752 0.361633 0.000031
0.626892 0.365936 0.000031
0.678223 0.370087 0.000031
0.729736 0.374146 0.001373
0.780151 0.378693 0.005920
0.831177 0.383301 0.010529
0.882782 0.387970 0.015198
0.934967 0.392700 0.019928
0.987457 0.397461 0.024689
1.000000 0.409882 0.059143
1.000000 0.409882 0.059143
1.000000 0.409882 0.059143
1.000000 0.409882 0.059143
1.000000 0.409882 0.059143
1.000000 0.409882 0.059143
0.000031 0.274109 0.000031
0.011963 0.279755 0.000031
0.029114 0.287109 0.000031
0.049561 0.294983 0.000031
0.072906 0.303009 0.000031
0.098907 0.311005 0.000031
0.127380 0.318848 0.000031
0.158203 0.326538 0.000031
0.191162 0.333893 0.000031
0.226013 0.340942 0.000031
0.262970 0.347748 0.000031
0.301819 0.354248 0.000031
0.342438 0.360474 0.000031
0.384613 0.366364 0.000031
0.428345 0.372009 0.000031
0.473694 0.377380 0.000031
0.520660 0.382568 0.000031
0.568848 0.387451 0.000031
0.618317 0.392120 0.000031
0.668945 0.396545 0.000031
0.720795 0.400787 0.000031
0.773865 0.404816 0.000031
0.825043 0.409363 0.004395
0.876648 0.414032 0.009064
0.928833 0.418762 0.013794
0.981293 0.423492 0.018524
1.000000 0.433685 0.048218
1.000000 0.433685 0.048218
1.000000 0.433685 0.048218
1.000000 0.433685 0.048218
1.000000 0.433685 0.048218
1.000000 0.433685 0.048218
0.000031 0.295868 0.000031
0.011932 0.301483 0.000031
0.029022 0.308868 0.000031
0.049316 0.316803 0.000031
0.072449 0.324982 0.000031
0.098175 0.333160 0.000031
0.126282 0.341156 0.000031
0.156677 0.349030 0.000031
0.189178 0.356628 0.000031
0.223511 0.363922 0.000031
0.259979 0.371002 0.000031
0.298279 0.377808 0.000031
0.338257 0.384308 0.000031
0.379883 0.390564 0.000031
0.422943 0.396454 0.000031
0.467743 0.402161 0.000031
0.514038 0.407623 0.000031
0.561584 0.412842 0.000031
0.610504 0.417847 0.000031
0.660522 0.422577 0.000031
0.711700 0.427094 0.000031
0.764252 0.431458 0.000031
0.817871 0.435608 0.000031
0.870514 0.440002 0.002930
0.922699 0.444733 0.007660
0.975189 0.449493 0.012421
1.000000 0.457611 0.036469
1.000000 0.457611 0.036469
1.000000 0.457611 0.036469
1.000000 0.457611 0.036469
1.000000 0.457611 0.036469
1.000000 0.457611 0.036469
0.000031 0.317535 0.000031
0.011932 0.323151 0.000031
0.028931 0.330566 0.000031
0.049103 0.338562 0.000031
0.072052 0.346832 0.000031
0.097504 0.355103 0.000031
0.125305 0.363281 0.000031
0.155334 0.371338 0.000031
0.187439 0.379150 0.000031
0.221283 0.386658 0.000031
0.257263 0.394012 0.000031
0.295044 0.401031 0.000031
0.334564 0.407837 0.000031
0.375580 0.414368 0.000031
0.418091 0.420563 0.000031
0.462311 0.426575 0.000031
0.507996 0.432312 0.000031
0.554993 0.437805 0.000031
0.603302 0.443085 0.000031
0.652802 0.448151 0.000031
0.703369 0.452942 0.000031
0.755341 0.457611 0.000031
0.808380 0.462036 0.000031
0.862549 0.466339 0.000031
0.916626 0.470612 0.001587
0.969086 0.475342 0.006317
1.000000 0.481659 0.023743
1.000000 0.481659 0.023743
1.000000 0.481659 0.023743
1.000000 0.481659 0.023743
1.000000 0.481659 0.023743
1.000000 0.481659 0.023743
0.000031 0.339081 0.000031
0.011932 0.344727 0.000031
0.028870 0.352173 0.000031
0.048920 0.360229 0.000031
0.071686 0.368561 0.000031
0.096924 0.376953 0.000031
0.124451 0.385284 0.000031
0.154144 0.393524 0.000031
0.185852 0.401520 0.000031
0.219330 0.409241 0.000031
0.254852 0.416809 0.000031
0.292145 0.424072 0.000031
0.331177 0.431152 0.000031
0.371674 0.437897 0.000031
0.413666 0.444366 0.000031
0.457367 0.450653 0.000031
0.502502 0.456665 0.000031
0.548920 0.462433 0.000031
0.596710 0.467987 0.000031
0.645660 0.473328 0.000031
0.695679 0.478424 0.000031
0.747101 0.483368 0.000031
0.799622 0.488068 0.000031
0.853241 0.492645 0.000031
0.907837 0.496979 0.000031
0.963013 0.501129 0.000244
1.000000 0.505798 0.009827
1.000000 0.505798 0.009827
1.000000 0.505798 0.009827
1.000000 0.505798 0.009827
1.000000 0.505798 0.009827
1.000000 0.505798 0.009827
0.000031 0.360565 0.000031
0.011902 0.366211 0.000031
0.028809 0.373688 0.000031
0.048767 0.381805 0.000031
0.071381 0.390228 0.000031
0.096405 0.398743 0.000031
0.123688 0.407196 0.000031
0.153076 0.415558 0.000031
0.184448 0.423737 0.000031
0.217529 0.431671 0.000031
0.252655 0.439423 0.000031
0.289551 0.446930 0.000031
0.328064 0.454193 0.000031
0.368164 0.461243 0.000031
0.409637 0.467957 0.000031
0.452789 0.474457 0.000031
0.497467 0.480774 0.000031
0.543365 0.486786 0.000031
0.590637 0.492615 0.000031
0.639008 0.498199 0.000031
0.688568 0.503571 0.000031
0.739471 0.508759 0.000031
0.791473 0.513733 0.000031
0.844482 0.518524 0.000031
0.898621 0.523132 0.000031
0.953522 0.527557 0.000031
0.996582 0.530853 0.000031
0.996582 0.530853 0.000031
0.996582 0.530853 0.000031
0.996582 0.530853 0.000031
0.996582 0.530853 0.000031
0.996582 0.530853 0.000031
0.000031 0.382019 0.000031
0.011902 0.387665 0.000031
0.028748 0.395203 0.000031
0.048615 0.403351 0.000031
0.071075 0.411774 0.000031
0.095947 0.420410 0.000031
0.122986 0.428986 0.000031
0.152100 0.437469 0.000031
0.183167 0.445862 0.000031
0.215942 0.453949 0.000031
0.250671 0.461884 0.000031
0.287170 0.469635 0.000031
0.325256 0.477112 0.000031
0.364868 0.484314 0.000031
0.405975 0.491302 0.000031
0.448608 0.498016 0.000031
0.492767 0.504547 0.000031
0.538269 0.510864 0.000031
0.584991 0.516937 0.000031
0.632874 0.522736 0.000031
0.681946 0.528351 0.000031
0.732330 0.533844 0.000031
0.783844 0.539062 0.000031
0.836426 0.544098 0.000031
0.890045 0.548950 0.000031
0.944427 0.553619 0.000031
0.987122 0.557098 0.000031
0.987122 0.557098 0.000031
0.987122 0.557098 0.000031
0.987122 0.557098 0.000031
0.987122 0.557098 0.000031
0.987122 0.557098 0.000031
0.000031 0.403381 0.000031
0.011902 0.409027 0.000031
0.028717 0.416595 0.000031
0.048492 0.424774 0.000031
0.070831 0.433289 0.000031
0.095520 0.441956 0.000031
0.122345 0.450684 0.000031
0.151215 0.459290 0.000031
0.182007 0.467773 0.000031
0.214478 0.476074 0.000031
0.248840 0.484192 0.000031
0.284943 0.492065 0.000031
0.322662 0.499756 0.000031
0.361877 0.507172 0.000031
0.402557 0.514404 0.000031
0.444763 0.521362 0.000031
0.488434 0.528107 0.000031
0.533447 0.534637 0.000031
0.579712 0.540924 0.000031
0.627167 0.546997 0.000031
0.675781 0.552856 0.000031
0.725677 0.558502 0.000031
0.776733 0.564026 0.000031
0.828857 0.569305 0.000031
0.881989 0.574402 0.000031
0.935944 0.579315 0.000031
0.978271 0.582977 0.000031
0.978271 0.582977 0.000031
0.978271 0.582977 0.000031
0.978271 0.582977 0.000031
0.978271 0.582977 0.000031
0.978271 0.582977 0.000031
0.000031 0.424683 0.000031
0.011871 0.430328 0.000031
0.028656 0.437897 0.000031
0.048370 0.446136 0.000031
0.070618 0.454742 0.000031
0.095154 0.463501 0.000031
0.121796 0.472260 0.000031
0.150452 0.481049 0.000031
0.180939 0.489655 0.000031
0.213104 0.498077 0.000031
0.247162 0.506348 0.000031
0.282959 0.514435 0.000031
0.320312 0.522308 0.000031
0.359100 0.529907 0.000031
0.399384 0.537323 0.000031
0.441193 0.544495 0.000031
0.484467 0.551483 0.000031
0.529053 0.558228 0.000031
0.574860 0.564728 0.000031
0.621857 0.571014 0.000031
0.669983 0.577087 0.000031
0.719482 0.583008 0.000031
0.770050 0.588715 0.000031
0.821716 0.594238 0.000031
0.874420 0.599548 0.000031
0.927917 0.604706 0.000031
0.969910 0.608521 0.000031
0.969910 0.608521 0.000031
0.969910 0.608521 0.000031
0.969910 0.608521 0.000031
0.969910 0.608521 0.000031
0.969910 0.608521 0.000031
0.000031 0.445953 0.000031
0.011871 0.451599 0.000031
0.028625 0.459198 0.000031
0.048279 0.467468 0.000031
0.070404 0.476105 0.000031
0.094788 0.484894 0.000031
0.121277 0.493805 0.000031
0.149719 0.502686 0.000031
0.179962 0.511383 0.000031
0.211884 0.519958 0.000031
0.245636 0.528381 0.000031
0.281067 0.536621 0.000031
0.318085 0.544647 0.000031
0.356567 0.552460 0.000031
0.396454 0.560089 0.000031
0.437866 0.567444 0.000031
0.480774 0.574646 0.000031
0.524872 0.581573 0.000031
0.570312 0.588318 0.000031
0.616882 0.594818 0.000031
0.664581 0.601105 0.000031
0.713623 0.607208 0.000031
0.763794 0.613159 0.000031
0.815033 0.618866 0.000031
0.867279 0.624451 0.000031
0.920349 0.629791 0.000031
0.962036 0.633789 0.000031
0.962036 0.633789 0.000031
0.962036 0.633789 0.000031
0.962036 0.633789 0.000031
0.962036 0.633789 0.000031
0.962036 0.633789 0.000031
0.000031 0.467163 0.000031
0.011871 0.472839 0.000031
0.028595 0.480438 0.000031
0.048187 0.488708 0.000031
0.070221 0.497345 0.000031
0.094482 0.506287 0.000031
0.120789 0.515259 0.000031
0.149017 0.524170 0.000031
0.179077 0.533051 0.000031
0.210724 0.541718 0.000031
0.244232 0.550323 0.000031
0.279358 0.558716 0.000031
0.316071 0.566895 0.000031
0.354187 0.574890 0.000031
0.393707 0.582642 0.000031
0.434784 0.590210 0.000031
0.477295 0.597565 0.000031
0.521027 0.604736 0.000031
0.566040 0.611664 0.000031
0.612244 0.618408 0.000031
0.659546 0.624908 0.000031
0.708160 0.631195 0.000031
0.757935 0.637360 0.000031
0.808716 0.643280 0.000031
0.860596 0.649048 0.000031
0.913239 0.654633 0.000031
0.954590 0.658783 0.000031
0.954590 0.658783 0.000031
0.954590 0.658783 0.000031
0.954590 0.658783 0.000031
0.954590 0.658783 0.000031
0.954590 0.658783 0.000031
0.000031 0.488312 0.000031
0.011871 0.493988 0.000031
0.028564 0.501587 0.000031
0.048096 0.509918 0.000031
0.070038 0.518677 0.000031
0.094208 0.527588 0.000031
0.120361 0.536621 0.000031
0.148438 0.545685 0.000031
0.178253 0.554626 0.000031
0.209656 0.563446 0.000031
0.242889 0.572144 0.000031
0.277771 0.580658 0.000031
0.314148 0.589020 0.000031
0.351990 0.597198 0.000031
0.391144 0.605103 0.000031
0.431885 0.612854 0.000031
0.474060 0.620422 0.000031
0.517426 0.627747 0.000031
0.562073 0.634888 0.000031
0.607849 0.641785 0.000031
0.654755 0.648468 0.000031
0.702972 0.654999 0.000031
0.752350 0.661346 0.000031
0.802765 0.667480 0.000031
0.854218 0.673431 0.000031
0.906464 0.679199 0.000031
0.947510 0.683533 0.000031
0.947510 0.683533 0.000031
0.947510 0.683533 0.000031
0.947510 0.683533 0.000031
0.947510 0.683533 0.000031
0.947510 0.683533 0.000031
0.000031 0.509460 0.000031
0.011841 0.515137 0.000031
0.028534 0.522705 0.000031
0.048004 0.531067 0.000031
0.069885 0.539856 0.000031
0.093933 0.548859 0.000031
0.119934 0.557953 0.000031
0.147858 0.567108 0.000031
0.177490 0.576141 0.000031
0.208679 0.585052 0.000031
0.241669 0.593872 0.000031
0.276276 0.602539 0.000031
0.312408 0.611053 0.000031
0.349915 0.619354 0.000031
0.388763 0.627411 0.000031
0.429199 0.635376 0.000031
0.471008 0.643066 0.000031
0.514038 0.650574 0.000031
0.558319 0.657898 0.000031
0.603729 0.665009 0.000031
0.650269 0.671875 0.000031
0.698151 0.678589 0.000031
0.747101 0.685120 0.000031
0.797119 0.691467 0.000031
0.848236 0.697632 0.000031
0.900055 0.703552 0.000031
0.940857 0.708038 0.000031
0.940857 0.708038 0.000031
0.940857 0.708038 0.000031
0.940857 0.708038 0.000031
0.940857 0.708038 0.000031
0.940857 0.708038 0.000031
0.000031 0.530518 0.000031
0.011841 0.536194 0.000031
0.028503 0.543823 0.000031
0.047943 0.552185 0.000031
0.069733 0.560974 0.000031
0.093689 0.570038 0.000031
0.119568 0.579224 0.000031
0.147308 0.588409 0.000031
0.176788 0.597565 0.000031
0.207794 0.606598 0.000031
0.240540 0.615540 0.000031
0.274902 0.624329 0.000031
0.310730 0.632935 0.000031
0.347961 0.641388 0.000031
0.386566 0.649658 0.000031
0.426636 0.657715 0.000031
0.468109 0.665588 0.000031
0.510834 0.673279 0.000031
0.554779 0.680756 0.000031
0.599854 0.688049 0.000031
0.646027 0.695099 0.000031
0.693512 0.701996 0.000031
0.742157 0.708740 0.000031
0.791809 0.715240 0.000031
0.842499 0.721558 0.000031
0.894012 0.727722 0.000031
0.934479 0.732330 0.000031
0.934479 0.732330 0.000031
0.934479 0.732330 0.000031
0.934479 0.732330 0.000031
0.934479 0.732330 0.000031
0.934479 0.732330 0.000031
0.000031 0.551544 0.000031
0.011841 0.557251 0.000031
0.028473 0.564819 0.000031
0.047882 0.573212 0.000031
0.069611 0.582092 0.000031
0.093445 0.591217 0.000031
0.119232 0.600433 0.000031
0.146820 0.609711 0.000031
0.176147 0.618958 0.000031
0.206909 0.628021 0.000031
0.239471 0.637054 0.000031
0.273590 0.645996 0.000031
0.309204 0.654816 0.000031
0.346161 0.663361 0.000031
0.384460 0.671722 0.000031
0.424286 0.679993 0.000031
0.465454 0.688019 0.000031
0.507843 0.695862 0.000031
0.551483 0.703522 0.000031
0.596191 0.710938 0.000031
0.642029 0.718170 0.000031
0.689209 0.725281 0.000031
0.737427 0.732117 0.000031
0.786713 0.738831 0.000031
0.837128 0.745392 0.000031
0.888214 0.751648 0.000031
0.928436 0.756439 0.000031
0.928436 0.756439 0.000031
0.928436 0.756439 0.000031
0.928436 0.756439 0.000031
0.928436 0.756439 0.000031
0.928436 0.756439 0.000031
0.000031 0.572510 0.000031
0.011841 0.578186 0.000031
0.028442 0.585846 0.000031
0.047791 0.594269 0.000031
0.069489 0.603149 0.000031
0.093231 0.612274 0.000031
0.118896 0.621582 0.000031
0.146362 0.630951 0.000031
0.175507 0.640228 0.000031
0.206116 0.649445 0.000031
0.238464 0.658600 0.000031
0.272369 0.667603 0.000031
0.307739 0.676483 0.000031
0.344482 0.685242 0.000031
0.382477 0.693695 0.000031
0.421997 0.702087 0.000031
0.462891 0.710297 0.000031
0.504974 0.718262 0.000031
0.548309 0.726105 0.000031
0.592712 0.733673 0.000031
0.638214 0.741089 0.000031
0.685028 0.748322 0.000031
0.732971 0.755402 0.000031
0.781952 0.762268 0.000031
0.831940 0.768951 0.000031
0.882751 0.775452 0.000031
0.922668 0.780365 0.000031
0.922668 0.780365 0.000031
0.922668 0.780365 0.000031
0.922668 0.780365 0.000031
0.922668 0.780365 0.000031
0.922668 0.780365 0.000031
0.000031 0.593506 0.000031
0.011841 0.599182 0.000031
0.028412 0.606842 0.000031
0.047760 0.615295 0.000031
0.069366 0.624176 0.000031
0.093048 0.633362 0.000031
0.118591 0.642731 0.000031
0.145935 0.652100 0.000031
0.174927 0.661499 0.000031
0.205383 0.670807 0.000031
0.237518 0.680023 0.000031
0.271240 0.689178 0.000031
0.306366 0.698151 0.000031
0.342865 0.707001 0.000031
0.380615 0.715637 0.000031
0.419891 0.724152 0.000031
0.460480 0.732452 0.000031
0.502289 0.740631 0.000031
