portrait-pop-7.CUBE
#Created by: Adobe Photoshop Export Color Lookup Plugin
TITLE "pp-7"
#LUT size
LUT_3D_SIZE 8
#data domain
#LUT data points
DOMAIN_MIN 0.000000 0.000000 0.000000
DOMAIN_MAX 0.903226 0.903226 0.903226
0.000000 0.000000 0.000000
0.107300 0.000000 0.000000
0.247467 0.000000 0.000000
0.412567 0.000000 0.000000
0.586731 0.000000 0.000000
0.754120 0.000000 0.000000
0.898895 0.000000 0.000000
1.000000 0.000000 0.000000
0.000000 0.107300 0.000000
0.107300 0.107300 0.000000
0.247467 0.107300 0.000000
0.412567 0.107300 0.000000
0.586731 0.107300 0.000000
0.754120 0.107300 0.000000
0.898895 0.107300 0.000000
1.000000 0.107300 0.000000
0.000000 0.247467 0.000000
0.107300 0.247467 0.000000
0.247467 0.247467 0.000000
0.412567 0.247467 0.000000
0.586731 0.247467 0.000000
0.754120 0.247467 0.000000
0.898895 0.247467 0.000000
1.000000 0.247467 0.000000
0.000000 0.412567 0.000000
0.107300 0.412567 0.000000
0.247467 0.412567 0.000000
0.412567 0.412567 0.000000
0.586731 0.412567 0.000000
0.754120 0.412567 0.000000
0.898895 0.412567 0.000000
1.000000 0.412567 0.000000
0.000000 0.586731 0.000000
0.107300 0.586731 0.000000
0.247467 0.586731 0.000000
0.412567 0.586731 0.000000
0.586731 0.586731 0.000000
0.754120 0.586731 0.000000
0.898895 0.586731 0.000000
1.000000 0.586731 0.000000
0.000000 0.754120 0.000000
0.107300 0.754120 0.000000
0.247467 0.754120 0.000000
0.412567 0.754120 0.000000
0.586731 0.754120 0.000000
0.754120 0.754120 0.000000
0.898895 0.754120 0.000000
1.000000 0.754120 0.000000
0.000000 0.898895 0.000000
0.107300 0.898895 0.000000
0.247467 0.898895 0.000000
0.412567 0.898895 0.000000
0.586731 0.898895 0.000000
0.754120 0.898895 0.000000
0.898895 0.898895 0.000000
1.000000 0.898895 0.000000
0.000000 1.000000 0.000000
0.107300 1.000000 0.000000
0.247467 1.000000 0.000000
0.412567 1.000000 0.000000
0.586731 1.000000 0.000000
0.754120 1.000000 0.000000
0.898895 1.000000 0.000000
1.000000 1.000000 0.000000
0.000000 0.000000 0.107300
0.107300 0.000000 0.107300
0.247467 0.000000 0.107300
0.412567 0.000000 0.107300
0.586731 0.000000 0.107300
0.754120 0.000000 0.107300
0.898895 0.000000 0.107300
1.000000 0.000000 0.107300
0.000000 0.107300 0.107300
0.107300 0.107300 0.107300
0.247467 0.107300 0.107300
0.412567 0.107300 0.107300
0.586731 0.107300 0.107300
0.754120 0.107300 0.107300
0.898895 0.107300 0.107300
1.000000 0.107300 0.107300
0.000000 0.247467 0.107300
0.107300 0.247467 0.107300
0.247467 0.247467 0.107300
0.412567 0.247467 0.107300
0.586731 0.247467 0.107300
0.754120 0.247467 0.107300
0.898895 0.247467 0.107300
1.000000 0.247467 0.107300
0.000000 0.412567 0.107300
0.107300 0.412567 0.107300
0.247467 0.412567 0.107300
0.412567 0.412567 0.107300
0.586731 0.412567 0.107300
0.754120 0.412567 0.107300
0.898895 0.412567 0.107300
1.000000 0.412567 0.107300
0.000000 0.586731 0.107300
0.107300 0.586731 0.107300
0.247467 0.586731 0.107300
0.412567 0.586731 0.107300
0.586731 0.586731 0.107300
0.754120 0.586731 0.107300
0.898895 0.586731 0.107300
1.000000 0.586731 0.107300
0.000000 0.754120 0.107300
0.107300 0.754120 0.107300
0.247467 0.754120 0.107300
0.412567 0.754120 0.107300
0.586731 0.754120 0.107300
0.754120 0.754120 0.107300
0.898895 0.754120 0.107300
1.000000 0.754120 0.107300
0.000000 0.898895 0.107300
0.107300 0.898895 0.107300
0.247467 0.898895 0.107300
0.412567 0.898895 0.107300
0.586731 0.898895 0.107300
0.754120 0.898895 0.107300
0.898895 0.898895 0.107300
1.000000 0.898895 0.107300
0.000000 1.000000 0.107300
0.107300 1.000000 0.107300
0.247467 1.000000 0.107300
0.412567 1.000000 0.107300
0.586731 1.000000 0.107300
0.754120 1.000000 0.107300
0.898895 1.000000 0.107300
1.000000 1.000000 0.107300
0.000000 0.000000 0.247467
0.107300 0.000000 0.247467
0.247467 0.000000 0.247467
0.412567 0.000000 0.247467
0.586731 0.000000 0.247467
0.754120 0.000000 0.247467
0.898895 0.000000 0.247467
1.000000 0.000000 0.247467
0.000000 0.107300 0.247467
0.107300 0.107300 0.247467
0.247467 0.107300 0.247467
0.412567 0.107300 0.247467
0.586731 0.107300 0.247467
0.754120 0.107300 0.247467
0.898895 0.107300 0.247467
1.000000 0.107300 0.247467
0.000000 0.247467 0.247467
0.107300 0.247467 0.247467
0.247467 0.247467 0.247467
0.412567 0.247467 0.247467
0.586731 0.247467 0.247467
0.754120 0.247467 0.247467
0.898895 0.247467 0.247467
1.000000 0.247467 0.247467
0.000000 0.412567 0.247467
0.107300 0.412567 0.247467
0.247467 0.412567 0.247467
0.412567 0.412567 0.247467
0.586731 0.412567 0.247467
0.754120 0.412567 0.247467
0.898895 0.412567 0.247467
1.000000 0.412567 0.247467
0.000000 0.586731 0.247467
0.107300 0.586731 0.247467
0.247467 0.586731 0.247467
0.412567 0.586731 0.247467
0.586731 0.586731 0.247467
0.754120 0.586731 0.247467
0.898895 0.586731 0.247467
1.000000 0.586731 0.247467
0.000000 0.754120 0.247467
0.107300 0.754120 0.247467
0.247467 0.754120 0.247467
0.412567 0.754120 0.247467
0.586731 0.754120 0.247467
0.754120 0.754120 0.247467
0.898895 0.754120 0.247467
1.000000 0.754120 0.247467
0.000000 0.898895 0.247467
0.107300 0.898895 0.247467
0.247467 0.898895 0.247467
0.412567 0.898895 0.247467
0.586731 0.898895 0.247467
0.754120 0.898895 0.247467
0.898895 0.898895 0.247467
1.000000 0.898895 0.247467
0.000000 1.000000 0.247467
0.107300 1.000000 0.247467
0.247467 1.000000 0.247467
0.412567 1.000000 0.247467
0.586731 1.000000 0.247467
0.754120 1.000000 0.247467
0.898895 1.000000 0.247467
1.000000 1.000000 0.247467
0.000000 0.000000 0.412567
0.107300 0.000000 0.412567
0.247467 0.000000 0.412567
0.412567 0.000000 0.412567
0.586731 0.000000 0.412567
0.754120 0.000000 0.412567
0.898895 0.000000 0.412567
1.000000 0.000000 0.412567
0.000000 0.107300 0.412567
0.107300 0.107300 0.412567
0.247467 0.107300 0.412567
0.412567 0.107300 0.412567
0.586731 0.107300 0.412567
0.754120 0.107300 0.412567
0.898895 0.107300 0.412567
1.000000 0.107300 0.412567
0.000000 0.247467 0.412567
0.107300 0.247467 0.412567
0.247467 0.247467 0.412567
0.412567 0.247467 0.412567
0.586731 0.247467 0.412567
0.754120 0.247467 0.412567
0.898895 0.247467 0.412567
1.000000 0.247467 0.412567
0.000000 0.412567 0.412567
0.107300 0.412567 0.412567
0.247467 0.412567 0.412567
0.412567 0.412567 0.412567
0.586731 0.412567 0.412567
0.754120 0.412567 0.412567
0.898895 0.412567 0.412567
1.000000 0.412567 0.412567
0.000000 0.586731 0.412567
0.107300 0.586731 0.412567
0.247467 0.586731 0.412567
0.412567 0.586731 0.412567
0.586731 0.586731 0.412567
0.754120 0.586731 0.412567
0.898895 0.586731 0.412567
1.000000 0.586731 0.412567
0.000000 0.754120 0.412567
0.107300 0.754120 0.412567
0.247467 0.754120 0.412567
0.412567 0.754120 0.412567
0.586731 0.754120 0.412567
0.754120 0.754120 0.412567
0.898895 0.754120 0.412567
1.000000 0.754120 0.412567
0.000000 0.898895 0.412567
0.107300 0.898895 0.412567
0.247467 0.898895 0.412567
0.412567 0.898895 0.412567
0.586731 0.898895 0.412567
0.754120 0.898895 0.412567
0.898895 0.898895 0.412567
1.000000 0.898895 0.412567
0.000000 1.000000 0.412567
0.107300 1.000000 0.412567
0.247467 1.000000 0.412567
0.412567 1.000000 0.412567
0.586731 1.000000 0.412567
0.754120 1.000000 0.412567
0.898895 1.000000 0.412567
1.000000 1.000000 0.412567
0.000000 0.000000 0.586731
0.107300 0.000000 0.586731
0.247467 0.000000 0.586731
0.412567 0.000000 0.586731
0.586731 0.000000 0.586731
0.754120 0.000000 0.586731
0.898895 0.000000 0.586731
1.000000 0.000000 0.586731
0.000000 0.107300 0.586731
0.107300 0.107300 0.586731
0.247467 0.107300 0.586731
0.412567 0.107300 0.586731
0.586731 0.107300 0.586731
0.754120 0.107300 0.586731
0.898895 0.107300 0.586731
1.000000 0.107300 0.586731
0.000000 0.247467 0.586731
0.107300 0.247467 0.586731
0.247467 0.247467 0.586731
0.412567 0.247467 0.586731
0.586731 0.247467 0.586731
0.754120 0.247467 0.586731
0.898895 0.247467 0.586731
1.000000 0.247467 0.586731
0.000000 0.412567 0.586731
0.107300 0.412567 0.586731
0.247467 0.412567 0.586731
0.412567 0.412567 0.586731
0.586731 0.412567 0.586731
0.754120 0.412567 0.586731
0.898895 0.412567 0.586731
1.000000 0.412567 0.586731
0.000000 0.586731 0.586731
0.107300 0.586731 0.586731
0.247467 0.586731 0.586731
0.412567 0.586731 0.586731
0.586731 0.586731 0.586731
0.754120 0.586731 0.586731
0.898895 0.586731 0.586731
1.000000 0.586731 0.586731
0.000000 0.754120 0.586731
0.107300 0.754120 0.586731
0.247467 0.754120 0.586731
0.412567 0.754120 0.586731
0.586731 0.754120 0.586731
0.754120 0.754120 0.586731
0.898895 0.754120 0.586731
1.000000 0.754120 0.586731
0.000000 0.898895 0.586731
0.107300 0.898895 0.586731
0.247467 0.898895 0.586731
0.412567 0.898895 0.586731
0.586731 0.898895 0.586731
0.754120 0.898895 0.586731
0.898895 0.898895 0.586731
1.000000 0.898895 0.586731
0.000000 1.000000 0.586731
0.107300 1.000000 0.586731
0.247467 1.000000 0.586731
0.412567 1.000000 0.586731
0.586731 1.000000 0.586731
0.754120 1.000000 0.586731
0.898895 1.000000 0.586731
1.000000 1.000000 0.586731
0.000000 0.000000 0.754120
0.107300 0.000000 0.754120
0.247467 0.000000 0.754120
0.412567 0.000000 0.754120
0.586731 0.000000 0.754120
0.754120 0.000000 0.754120
0.898895 0.000000 0.754120
1.000000 0.000000 0.754120
0.000000 0.107300 0.754120
0.107300 0.107300 0.754120
0.247467 0.107300 0.754120
0.412567 0.107300 0.754120
0.586731 0.107300 0.754120
0.754120 0.107300 0.754120
0.898895 0.107300 0.754120
1.000000 0.107300 0.754120
0.000000 0.247467 0.754120
0.107300 0.247467 0.754120
0.247467 0.247467 0.754120
0.412567 0.247467 0.754120
0.586731 0.247467 0.754120
0.754120 0.247467 0.754120
0.898895 0.247467 0.754120
1.000000 0.247467 0.754120
0.000000 0.412567 0.754120
0.107300 0.412567 0.754120
0.247467 0.412567 0.754120
0.412567 0.412567 0.754120
0.586731 0.412567 0.754120
0.754120 0.412567 0.754120
0.898895 0.412567 0.754120
1.000000 0.412567 0.754120
0.000000 0.586731 0.754120
0.107300 0.586731 0.754120
0.247467 0.586731 0.754120
0.412567 0.586731 0.754120
0.586731 0.586731 0.754120
0.754120 0.586731 0.754120
0.898895 0.586731 0.754120
1.000000 0.586731 0.754120
0.000000 0.754120 0.754120
0.107300 0.754120 0.754120
0.247467 0.754120 0.754120
0.412567 0.754120 0.754120
0.586731 0.754120 0.754120
0.754120 0.754120 0.754120
0.898895 0.754120 0.754120
1.000000 0.754120 0.754120
0.000000 0.898895 0.754120
0.107300 0.898895 0.754120
0.247467 0.898895 0.754120
0.412567 0.898895 0.754120
0.586731 0.898895 0.754120
0.754120 0.898895 0.754120
0.898895 0.898895 0.754120
1.000000 0.898895 0.754120
0.000000 1.000000 0.754120
0.107300 1.000000 0.754120
0.247467 1.000000 0.754120
0.412567 1.000000 0.754120
0.586731 1.000000 0.754120
0.754120 1.000000 0.754120
0.898895 1.000000 0.754120
1.000000 1.000000 0.754120
0.000000 0.000000 0.898895
0.107300 0.000000 0.898895
0.247467 0.000000 0.898895
0.412567 0.000000 0.898895
0.586731 0.000000 0.898895
0.754120 0.000000 0.898895
0.898895 0.000000 0.898895
1.000000 0.000000 0.898895
0.000000 0.107300 0.898895
0.107300 0.107300 0.898895
0.247467 0.107300 0.898895
0.412567 0.107300 0.898895
0.586731 0.107300 0.898895
0.754120 0.107300 0.898895
0.898895 0.107300 0.898895
1.000000 0.107300 0.898895
0.000000 0.247467 0.898895
0.107300 0.247467 0.898895
0.247467 0.247467 0.898895
0.412567 0.247467 0.898895
0.586731 0.247467 0.898895
0.754120 0.247467 0.898895
0.898895 0.247467 0.898895
1.000000 0.247467 0.898895
0.000000 0.412567 0.898895
0.107300 0.412567 0.898895
0.247467 0.412567 0.898895
0.412567 0.412567 0.898895
0.586731 0.412567 0.898895
0.754120 0.412567 0.898895
0.898895 0.412567 0.898895
1.000000 0.412567 0.898895
0.000000 0.586731 0.898895
0.107300 0.586731 0.898895
0.247467 0.586731 0.898895
0.412567 0.586731 0.898895
0.586731 0.586731 0.898895
0.754120 0.586731 0.898895
0.898895 0.586731 0.898895
1.000000 0.586731 0.898895
0.000000 0.754120 0.898895
0.107300 0.754120 0.898895
0.247467 0.754120 0.898895
0.412567 0.754120 0.898895
0.586731 0.754120 0.898895
0.754120 0.754120 0.898895
0.898895 0.754120 0.898895
1.000000 0.754120 0.898895
0.000000 0.898895 0.898895
0.107300 0.898895 0.898895
0.247467 0.898895 0.898895
0.412567 0.898895 0.898895
0.586731 0.898895 0.898895
0.754120 0.898895 0.898895
0.898895 0.898895 0.898895
1.000000 0.898895 0.898895
0.000000 1.000000 0.898895
0.107300 1.000000 0.898895
0.247467 1.000000 0.898895
0.412567 1.000000 0.898895
0.586731 1.000000 0.898895
0.754120 1.000000 0.898895
0.898895 1.000000 0.898895
1.000000 1.000000 0.898895
0.000000 0.000000 1.000000
0.107300 0.000000 1.000000
0.247467 0.000000 1.000000
0.412567 0.000000 1.000000
0.586731 0.000000 1.000000
0.754120 0.000000 1.000000
0.898895 0.000000 1.000000
1.000000 0.000000 1.000000
0.000000 0.107300 1.000000
0.107300 0.107300 1.000000
0.247467 0.107300 1.000000
0.412567 0.107300 1.000000
0.586731 0.107300 1.000000
0.754120 0.107300 1.000000
0.898895 0.107300 1.000000
1.000000 0.107300 1.000000
0.000000 0.247467 1.000000
0.107300 0.247467 1.000000
0.247467 0.247467 1.000000
0.412567 0.247467 1.000000
0.586731 0.247467 1.000000
0.754120 0.247467 1.000000
0.898895 0.247467 1.000000
1.000000 0.247467 1.000000
0.000000 0.412567 1.000000
0.107300 0.412567 1.000000
0.247467 0.412567 1.000000
0.412567 0.412567 1.000000
0.586731 0.412567 1.000000
0.754120 0.412567 1.000000
0.898895 0.412567 1.000000
1.000000 0.412567 1.000000
0.000000 0.586731 1.000000
0.107300 0.586731 1.000000
0.247467 0.586731 1.000000
0.412567 0.586731 1.000000
0.586731 0.586731 1.000000
0.754120 0.586731 1.000000
0.898895 0.586731 1.000000
1.000000 0.586731 1.000000
0.000000 0.754120 1.000000
0.107300 0.754120 1.000000
0.247467 0.754120 1.000000
0.412567 0.754120 1.000000
0.586731 0.754120 1.000000
0.754120 0.754120 1.000000
0.898895 0.754120 1.000000
1.000000 0.754120 1.000000
0.000000 0.898895 1.000000
0.107300 0.898895 1.000000
0.247467 0.898895 1.000000
0.412567 0.898895 1.000000
0.586731 0.898895 1.000000
0.754120 0.898895 1.000000
0.898895 0.898895 1.000000
1.000000 0.898895 1.000000
0.000000 1.000000 1.000000
0.107300 1.000000 1.000000
0.247467 1.000000 1.000000
0.412567 1.000000 1.000000
0.586731 1.000000 1.000000
0.754120 1.000000 1.000000
0.898895 1.000000 1.000000
1.000000 1.000000 1.000000
