portrait-pop-5.CUBE
#Created by: Adobe Photoshop Export Color Lookup Plugin
TITLE "pp-5"
#LUT size
LUT_3D_SIZE 32
#data domain
DOMAIN_MIN 0.0 0.0 0.0
DOMAIN_MAX 1.0 1.0 1.0
#LUT data points
0.000000 0.000000 0.000000
0.000000 0.000000 0.000000
0.000000 0.000000 0.000000
0.000000 0.000000 0.000000
0.000000 0.000000 0.000000
0.000000 0.000000 0.000000
0.000000 0.000000 0.000000
0.000000 0.000000 0.000000
0.000000 0.000000 0.000000
0.000000 0.000000 0.000000
0.000000 0.000000 0.000000
0.000000 0.000000 0.000000
0.000000 0.000000 0.000000
0.000000 0.000000 0.000000
0.000000 0.000000 0.000000
0.000000 0.000000 0.000000
0.000000 0.000000 0.000000
0.000000 0.000000 0.000000
0.000000 0.000000 0.000000
0.000000 0.000000 0.000000
0.000000 0.000000 0.000000
0.000000 0.000000 0.000000
0.000000 0.000000 0.000000
0.000000 0.000000 0.000000
0.000000 0.000000 0.000000
0.000000 0.000000 0.000000
0.000000 0.000000 0.000000
0.000000 0.000000 0.000000
0.014313 0.014313 0.014313
0.036163 0.036163 0.036163
0.058197 0.058197 0.058197
0.080078 0.080078 0.080078
0.000000 0.000000 0.000000
0.000000 0.000000 0.000000
0.000000 0.000000 0.000000
0.000000 0.000000 0.000000
0.000000 0.000000 0.000000
0.000000 0.000000 0.000000
0.000000 0.000000 0.000000
0.000000 0.000000 0.000000
0.000000 0.000000 0.000000
0.000000 0.000000 0.000000
0.000000 0.000000 0.000000
0.000000 0.000000 0.000000
0.000000 0.000000 0.000000
0.000000 0.000000 0.000000
0.000000 0.000000 0.000000
0.000000 0.000000 0.000000
0.000000 0.000000 0.000000
0.000000 0.000000 0.000000
0.000000 0.000000 0.000000
0.000000 0.000000 0.000000
0.000000 0.000000 0.000000
0.000000 0.000000 0.000000
0.000000 0.000000 0.000000
0.000000 0.000000 0.000000
0.000000 0.000000 0.000000
0.000000 0.000000 0.000000
0.000000 0.000000 0.000000
0.019470 0.019470 0.019470
0.041351 0.041351 0.041351
0.063293 0.063293 0.063293
0.085266 0.085266 0.085266
0.107178 0.107178 0.107178
0.000000 0.000000 0.000000
0.000000 0.000000 0.000000
0.000000 0.000000 0.000000
0.000000 0.000000 0.000000
0.000000 0.000000 0.000000
0.000000 0.000000 0.000000
0.000000 0.000000 0.000000
0.000000 0.000000 0.000000
0.000000 0.000000 0.000000
0.000000 0.000000 0.000000
0.000000 0.000000 0.000000
0.000000 0.000000 0.000000
0.000000 0.000000 0.000000
0.000000 0.000000 0.000000
0.000000 0.000000 0.000000
0.000000 0.000000 0.000000
0.000000 0.000000 0.000000
0.000000 0.000000 0.000000
0.000000 0.000000 0.000000
0.000000 0.000000 0.000000
0.000000 0.000000 0.000000
0.000000 0.000000 0.000000
0.000000 0.000000 0.000000
0.000000 0.000000 0.000000
0.000000 0.000000 0.000000
0.002716 0.002716 0.002716
0.024628 0.024628 0.024628
0.046600 0.046600 0.046600
0.068481 0.068481 0.068481
0.090424 0.090424 0.090424
0.112335 0.112335 0.112335
0.134247 0.134247 0.134247
0.000000 0.000000 0.000000
0.000000 0.000000 0.000000
0.000000 0.000000 0.000000
0.000000 0.000000 0.000000
0.000000 0.000000 0.000000
0.000000 0.000000 0.000000
0.000000 0.000000 0.000000
0.000000 0.000000 0.000000
0.000000 0.000000 0.000000
0.000000 0.000000 0.000000
0.000000 0.000000 0.000000
0.000000 0.000000 0.000000
0.000000 0.000000 0.000000
0.000000 0.000000 0.000000
0.000000 0.000000 0.000000
0.000000 0.000000 0.000000
0.000000 0.000000 0.000000
0.000000 0.000000 0.000000
0.000000 0.000000 0.000000
0.000000 0.000000 0.000000
0.000000 0.000000 0.000000
0.000000 0.000000 0.000000
0.000000 0.000000 0.000000
0.000000 0.000000 0.000000
0.007874 0.007874 0.007874
0.029816 0.029816 0.029816
0.051727 0.051727 0.051727
0.073639 0.073639 0.073639
0.095581 0.095581 0.095581
0.117493 0.117493 0.117493
0.139435 0.139435 0.139435
0.161346 0.161346 0.161346
0.000000 0.000000 0.000000
0.000000 0.000000 0.000000
0.000000 0.000000 0.000000
0.000000 0.000000 0.000000
0.000000 0.000000 0.000000
0.000000 0.000000 0.000000
0.000000 0.000000 0.000000
0.000000 0.000000 0.000000
0.000000 0.000000 0.000000
0.000000 0.000000 0.000000
0.000000 0.000000 0.000000
0.000000 0.000000 0.000000
0.000000 0.000000 0.000000
0.000000 0.000000 0.000000
0.000000 0.000000 0.000000
0.000000 0.000000 0.000000
0.000000 0.000000 0.000000
0.000000 0.000000 0.000000
0.000000 0.000000 0.000000
0.000000 0.000000 0.000000
0.000000 0.000000 0.000000
0.000000 0.000000 0.000000
0.000000 0.000000 0.000000
0.013031 0.013031 0.013031
0.034912 0.034912 0.034912
0.056824 0.056824 0.056824
0.078827 0.078827 0.078827
0.100739 0.100739 0.100739
0.122681 0.122681 0.122681
0.144592 0.144592 0.144592
0.166504 0.166504 0.166504
0.188446 0.188446 0.188446
0.000000 0.000000 0.000000
0.000000 0.000000 0.000000
0.000000 0.000000 0.000000
0.000000 0.000000 0.000000
0.000000 0.000000 0.000000
0.000000 0.000000 0.000000
0.000000 0.000000 0.000000
0.000000 0.000000 0.000000
0.000000 0.000000 0.000000
0.000000 0.000000 0.000000
0.000000 0.000000 0.000000
0.000000 0.000000 0.000000
0.000000 0.000000 0.000000
0.000000 0.000000 0.000000
0.000000 0.000000 0.000000
0.000000 0.000000 0.000000
0.000000 0.000000 0.000000
0.000000 0.000000 0.000000
0.000000 0.000000 0.000000
0.000000 0.000000 0.000000
0.000000 0.000000 0.000000
0.000000 0.000000 0.000000
0.018219 0.018219 0.018219
0.040131 0.040131 0.040131
0.062103 0.062103 0.062103
0.083954 0.083954 0.083954
0.105896 0.105896 0.105896
0.127838 0.127838 0.127838
0.149750 0.149750 0.149750
0.171692 0.171692 0.171692
0.193604 0.193604 0.193604
0.215546 0.215546 0.215546
0.000000 0.000000 0.000000
0.000000 0.000000 0.000000
0.000000 0.000000 0.000000
0.000000 0.000000 0.000000
0.000000 0.000000 0.000000
0.000000 0.000000 0.000000
0.000000 0.000000 0.000000
0.000000 0.000000 0.000000
0.000000 0.000000 0.000000
0.000000 0.000000 0.000000
0.000000 0.000000 0.000000
0.000000 0.000000 0.000000
0.000000 0.000000 0.000000
0.000000 0.000000 0.000000
0.000000 0.000000 0.000000
0.000000 0.000000 0.000000
0.000000 0.000000 0.000000
0.000000 0.000000 0.000000
0.000000 0.000000 0.000000
0.000000 0.000000 0.000000
0.001465 0.001465 0.001465
0.023376 0.023376 0.023376
0.045258 0.045258 0.045258
0.067230 0.067230 0.067230
0.089142 0.089142 0.089142
0.111084 0.111084 0.111084
0.132996 0.132996 0.132996
0.154938 0.154938 0.154938
0.176849 0.176849 0.176849
0.198761 0.198761 0.198761
0.220703 0.220703 0.220703
0.242615 0.242615 0.242615
0.000000 0.000000 0.000000
0.000000 0.000000 0.000000
0.000000 0.000000 0.000000
0.000000 0.000000 0.000000
0.000000 0.000000 0.000000
0.000000 0.000000 0.000000
0.000000 0.000000 0.000000
0.000000 0.000000 0.000000
0.000000 0.000000 0.000000
0.000000 0.000000 0.000000
0.000000 0.000000 0.000000
0.000000 0.000000 0.000000
0.000000 0.000000 0.000000
0.000000 0.000000 0.000000
0.000000 0.000000 0.000000
0.000000 0.000000 0.000000
0.000000 0.000000 0.000000
0.000000 0.000000 0.000000
0.000000 0.000000 0.000000
0.006622 0.006622 0.006622
0.028534 0.028534 0.028534
0.050476 0.050476 0.050476
0.072418 0.072418 0.072418
0.094299 0.094299 0.094299
0.116241 0.116241 0.116241
0.138153 0.138153 0.138153
0.160095 0.160095 0.160095
0.182007 0.182007 0.182007
0.203949 0.203949 0.203949
0.225861 0.225861 0.225861
0.247803 0.247803 0.247803
0.269714 0.269714 0.269714
0.000000 0.000000 0.000000
0.000000 0.000000 0.000000
0.000000 0.000000 0.000000
0.000000 0.000000 0.000000
0.000000 0.000000 0.000000
0.000000 0.000000 0.000000
0.000000 0.000000 0.000000
0.000000 0.000000 0.000000
0.000000 0.000000 0.000000
0.000000 0.000000 0.000000
0.000000 0.000000 0.000000
0.000000 0.000000 0.000000
0.000000 0.000000 0.000000
0.000000 0.000000 0.000000
0.000000 0.000000 0.000000
0.000000 0.000000 0.000000
0.000000 0.000000 0.000000
0.000000 0.000000 0.000000
0.011719 0.011719 0.011719
0.033783 0.033783 0.033783
0.055603 0.055603 0.055603
0.077545 0.077545 0.077545
0.099487 0.099487 0.099487
0.121399 0.121399 0.121399
0.143341 0.143341 0.143341
0.165253 0.165253 0.165253
0.187195 0.187195 0.187195
0.209106 0.209106 0.209106
0.231018 0.231018 0.231018
0.252960 0.252960 0.252960
0.274872 0.274872 0.274872
0.296814 0.296814 0.296814
0.000000 0.000000 0.000000
0.000000 0.000000 0.000000
0.000000 0.000000 0.000000
0.000000 0.000000 0.000000
0.000000 0.000000 0.000000
0.000000 0.000000 0.000000
0.000000 0.000000 0.000000
0.000000 0.000000 0.000000
0.000000 0.000000 0.000000
0.000000 0.000000 0.000000
0.000000 0.000000 0.000000
0.000000 0.000000 0.000000
0.000000 0.000000 0.000000
0.000000 0.000000 0.000000
0.000000 0.000000 0.000000
0.000000 0.000000 0.000000
0.000000 0.000000 0.000000
0.016937 0.016937 0.016937
0.038879 0.038879 0.038879
0.060822 0.060822 0.060822
0.082733 0.082733 0.082733
0.104645 0.104645 0.104645
0.126587 0.126587 0.126587
0.148499 0.148499 0.148499
0.170410 0.170410 0.170410
0.192352 0.192352 0.192352
0.214264 0.214264 0.214264
0.236206 0.236206 0.236206
0.258118 0.258118 0.258118
0.280060 0.280060 0.280060
0.301971 0.301971 0.301971
0.323883 0.323883 0.323883
0.000000 0.000000 0.000000
0.000000 0.000000 0.000000
0.000000 0.000000 0.000000
0.000000 0.000000 0.000000
0.000000 0.000000 0.000000
0.000000 0.000000 0.000000
0.000000 0.000000 0.000000
0.000000 0.000000 0.000000
0.000000 0.000000 0.000000
0.000000 0.000000 0.000000
0.000000 0.000000 0.000000
0.000000 0.000000 0.000000
0.000000 0.000000 0.000000
0.000000 0.000000 0.000000
0.000000 0.000000 0.000000
0.000183 0.000183 0.000183
0.022125 0.022125 0.022125
0.044037 0.044037 0.044037
0.065979 0.065979 0.065979
0.087891 0.087891 0.087891
0.109772 0.109772 0.109772
0.131744 0.131744 0.131744
0.153656 0.153656 0.153656
0.175598 0.175598 0.175598
0.197510 0.197510 0.197510
0.219452 0.219452 0.219452
0.241364 0.241364 0.241364
0.263275 0.263275 0.263275
0.285217 0.285217 0.285217
0.307129 0.307129 0.307129
0.329071 0.329071 0.329071
0.350983 0.350983 0.350983
0.000000 0.000000 0.000000
0.000000 0.000000 0.000000
0.000000 0.000000 0.000000
0.000000 0.000000 0.000000
0.000000 0.000000 0.000000
0.000000 0.000000 0.000000
0.000000 0.000000 0.000000
0.000000 0.000000 0.000000
0.000000 0.000000 0.000000
0.000000 0.000000 0.000000
0.000000 0.000000 0.000000
0.000000 0.000000 0.000000
0.000000 0.000000 0.000000
0.000000 0.000000 0.000000
0.005341 0.005341 0.005341
0.027252 0.027252 0.027252
0.049164 0.049164 0.049164
0.071136 0.071136 0.071136
0.093079 0.093079 0.093079
0.114990 0.114990 0.114990
0.136902 0.136902 0.136902
0.158844 0.158844 0.158844
0.180756 0.180756 0.180756
0.202667 0.202667 0.202667
0.224609 0.224609 0.224609
0.246521 0.246521 0.246521
0.268463 0.268463 0.268463
0.290375 0.290375 0.290375
0.312317 0.312317 0.312317
0.334229 0.334229 0.334229
0.356140 0.356140 0.356140
0.378082 0.378082 0.378082
0.000000 0.000000 0.000000
0.000000 0.000000 0.000000
0.000000 0.000000 0.000000
0.000000 0.000000 0.000000
0.000000 0.000000 0.000000
0.000000 0.000000 0.000000
0.000000 0.000000 0.000000
0.000000 0.000000 0.000000
0.000000 0.000000 0.000000
0.000000 0.000000 0.000000
0.000000 0.000000 0.000000
0.000000 0.000000 0.000000
0.000000 0.000000 0.000000
0.010559 0.010559 0.010559
0.032471 0.032471 0.032471
0.054352 0.054352 0.054352
0.076294 0.076294 0.076294
0.098236 0.098236 0.098236
0.120148 0.120148 0.120148
0.142059 0.142059 0.142059
0.164001 0.164001 0.164001
0.185913 0.185913 0.185913
0.207855 0.207855 0.207855
0.229767 0.229767 0.229767
0.251709 0.251709 0.251709
0.273621 0.273621 0.273621
0.295532 0.295532 0.295532
0.317474 0.317474 0.317474
0.339386 0.339386 0.339386
0.361328 0.361328 0.361328
0.383240 0.383240 0.383240
0.405182 0.405182 0.405182
0.000000 0.000000 0.000000
0.000000 0.000000 0.000000
0.000000 0.000000 0.000000
0.000000 0.000000 0.000000
0.000000 0.000000 0.000000
0.000000 0.000000 0.000000
0.000000 0.000000 0.000000
0.000000 0.000000 0.000000
0.000000 0.000000 0.000000
0.000000 0.000000 0.000000
0.000000 0.000000 0.000000
0.000000 0.000000 0.000000
0.015656 0.015656 0.015656
0.037598 0.037598 0.037598
0.059479 0.059479 0.059479
0.081421 0.081421 0.081421
0.103363 0.103363 0.103363
0.125305 0.125305 0.125305
0.147247 0.147247 0.147247
0.169159 0.169159 0.169159
0.191101 0.191101 0.191101
0.213013 0.213013 0.213013
0.234924 0.234924 0.234924
0.256866 0.256866 0.256866
0.278778 0.278778 0.278778
0.300720 0.300720 0.300720
0.322632 0.322632 0.322632
0.344574 0.344574 0.344574
0.366486 0.366486 0.366486
0.388397 0.388397 0.388397
0.410339 0.410339 0.410339
0.432251 0.432251 0.432251
0.000000 0.000000 0.000000
0.000000 0.000000 0.000000
0.000000 0.000000 0.000000
0.000000 0.000000 0.000000
0.000000 0.000000 0.000000
0.000000 0.000000 0.000000
0.000000 0.000000 0.000000
0.000000 0.000000 0.000000
0.000000 0.000000 0.000000
0.000000 0.000000 0.000000
0.000000 0.000000 0.000000
0.020844 0.020844 0.020844
0.042786 0.042786 0.042786
0.064697 0.064697 0.064697
0.086609 0.086609 0.086609
0.108551 0.108551 0.108551
0.130493 0.130493 0.130493
0.152405 0.152405 0.152405
0.174316 0.174316 0.174316
0.196259 0.196259 0.196259
0.218170 0.218170 0.218170
0.240112 0.240112 0.240112
0.262024 0.262024 0.262024
0.283966 0.283966 0.283966
0.305878 0.305878 0.305878
0.327789 0.327789 0.327789
0.349731 0.349731 0.349731
0.371643 0.371643 0.371643
0.393585 0.393585 0.393585
0.415497 0.415497 0.415497
0.437439 0.437439 0.437439
0.459351 0.459351 0.459351
0.000000 0.000000 0.000000
0.000000 0.000000 0.000000
0.000000 0.000000 0.000000
0.000000 0.000000 0.000000
0.000000 0.000000 0.000000
0.000000 0.000000 0.000000
0.000000 0.000000 0.000000
0.000000 0.000000 0.000000
0.000000 0.000000 0.000000
0.004089 0.004089 0.004089
0.026001 0.026001 0.026001
0.047974 0.047974 0.047974
0.069855 0.069855 0.069855
0.091766 0.091766 0.091766
0.113708 0.113708 0.113708
0.135620 0.135620 0.135620
0.157562 0.157562 0.157562
0.179504 0.179504 0.179504
0.201416 0.201416 0.201416
0.223358 0.223358 0.223358
0.245270 0.245270 0.245270
0.267181 0.267181 0.267181
0.289124 0.289124 0.289124
0.311035 0.311035 0.311035
0.332977 0.332977 0.332977
0.354889 0.354889 0.354889
0.376831 0.376831 0.376831
0.398743 0.398743 0.398743
0.420654 0.420654 0.420654
0.442596 0.442596 0.442596
0.464508 0.464508 0.464508
0.486450 0.486450 0.486450
0.000000 0.000000 0.000000
0.000000 0.000000 0.000000
0.000000 0.000000 0.000000
0.000000 0.000000 0.000000
0.000000 0.000000 0.000000
0.000000 0.000000 0.000000
0.000000 0.000000 0.000000
0.000000 0.000000 0.000000
0.009277 0.009277 0.009277
0.031189 0.031189 0.031189
0.053131 0.053131 0.053131
0.075043 0.075043 0.075043
0.096954 0.096954 0.096954
0.118896 0.118896 0.118896
0.140808 0.140808 0.140808
0.162750 0.162750 0.162750
0.184692 0.184692 0.184692
0.206604 0.206604 0.206604
0.228546 0.228546 0.228546
0.250458 0.250458 0.250458
0.272400 0.272400 0.272400
0.294312 0.294312 0.294312
0.316223 0.316223 0.316223
0.338165 0.338165 0.338165
0.360077 0.360077 0.360077
0.382019 0.382019 0.382019
0.403931 0.403931 0.403931
0.425873 0.425873 0.425873
0.447784 0.447784 0.447784
0.469696 0.469696 0.469696
0.491638 0.491638 0.491638
0.521210 0.512512 0.501648
0.000000 0.000000 0.000000
0.000000 0.000000 0.000000
0.000000 0.000000 0.000000
0.000000 0.000000 0.000000
0.000000 0.000000 0.000000
0.000000 0.000000 0.000000
0.000000 0.000000 0.000000
0.014435 0.014435 0.014435
0.036285 0.036285 0.036285
0.058289 0.058289 0.058289
0.080200 0.080200 0.080200
0.102142 0.102142 0.102142
0.124054 0.124054 0.124054
0.145996 0.145996 0.145996
0.167908 0.167908 0.167908
0.189819 0.189819 0.189819
0.211792 0.211792 0.211792
0.233704 0.233704 0.233704
0.255615 0.255615 0.255615
0.277557 0.277557 0.277557
0.299469 0.299469 0.299469
0.321411 0.321411 0.321411
0.343323 0.343323 0.343323
0.365265 0.365265 0.365265
0.387177 0.387177 0.387177
0.409088 0.409088 0.409088
0.431030 0.431030 0.431030
0.452942 0.452942 0.452942
0.474884 0.474884 0.474884
0.496796 0.496796 0.496796
0.529175 0.517303 0.502380
0.562195 0.537659 0.506348
0.000000 0.000000 0.000000
0.000000 0.000000 0.000000
0.000000 0.000000 0.000000
0.000000 0.000000 0.000000
0.000000 0.000000 0.000000
0.000000 0.000000 0.000000
0.019592 0.019592 0.019592
0.041504 0.041504 0.041504
0.063416 0.063416 0.063416
0.085419 0.085419 0.085419
0.107300 0.107300 0.107300
0.129211 0.129211 0.129211
0.151154 0.151154 0.151154
0.173065 0.173065 0.173065
0.195007 0.195007 0.195007
0.216919 0.216919 0.216919
0.238861 0.238861 0.238861
0.260803 0.260803 0.260803
0.282715 0.282715 0.282715
0.304657 0.304657 0.304657
0.326569 0.326569 0.326569
0.348480 0.348480 0.348480
0.370422 0.370422 0.370422
0.392334 0.392334 0.392334
0.414276 0.414276 0.414276
0.436188 0.436188 0.436188
0.458130 0.458130 0.458130
0.480042 0.480042 0.480042
0.503082 0.501801 0.500183
0.537048 0.522095 0.503143
0.569763 0.542480 0.507446
0.601410 0.563019 0.513214
0.000000 0.000000 0.000000
0.000000 0.000000 0.000000
0.000000 0.000000 0.000000
0.000000 0.000000 0.000000
0.002838 0.002838 0.002838
0.024780 0.024780 0.024780
0.046692 0.046692 0.046692
0.068604 0.068604 0.068604
0.090546 0.090546 0.090546
0.112457 0.112457 0.112457
0.134399 0.134399 0.134399
0.156311 0.156311 0.156311
0.178253 0.178253 0.178253
0.200165 0.200165 0.200165
0.222076 0.222076 0.222076
0.244019 0.244019 0.244019
0.265961 0.265961 0.265961
0.287872 0.287872 0.287872
0.309814 0.309814 0.309814
0.331726 0.331726 0.331726
0.353668 0.353668 0.353668
0.375580 0.375580 0.375580
0.397522 0.397522 0.397522
0.419434 0.419434 0.419434
0.441345 0.441345 0.441345
0.463287 0.463287 0.463287
0.485199 0.485199 0.485199
0.511261 0.506592 0.500793
0.544891 0.526886 0.504059
0.577393 0.547302 0.508667
0.608673 0.567871 0.514832
0.638885 0.588562 0.522522
0.000000 0.000000 0.000000
0.000000 0.000000 0.000000
0.000000 0.000000 0.000000
0.007996 0.007996 0.007996
0.029938 0.029938 0.029938
0.051849 0.051849 0.051849
0.073792 0.073792 0.073792
0.095703 0.095703 0.095703
0.117645 0.117645 0.117645
0.139557 0.139557 0.139557
0.161469 0.161469 0.161469
0.183411 0.183411 0.183411
0.205322 0.205322 0.205322
0.227264 0.227264 0.227264
0.249176 0.249176 0.249176
0.271118 0.271118 0.271118
0.293060 0.293060 0.293060
0.314972 0.314972 0.314972
0.336914 0.336914 0.336914
0.358826 0.358826 0.358826
0.380737 0.380737 0.380737
0.402679 0.402679 0.402679
0.424591 0.424591 0.424591
0.446533 0.446533 0.446533
0.468445 0.468445 0.468445
0.490387 0.490387 0.490387
0.519287 0.511353 0.501434
0.552582 0.531677 0.505005
0.584839 0.552155 0.509979
0.615875 0.572754 0.516479
0.645844 0.593506 0.524628
0.674652 0.614380 0.534546
0.000000 0.000000 0.000000
0.000000 0.000000 0.000000
0.013184 0.013184 0.013184
0.035034 0.035034 0.035034
0.057007 0.057007 0.057007
0.078949 0.078949 0.078949
0.100861 0.100861 0.100861
0.122803 0.122803 0.122803
0.144714 0.144714 0.144714
0.166656 0.166656 0.166656
0.188568 0.188568 0.188568
0.210510 0.210510 0.210510
0.232422 0.232422 0.232422
0.254333 0.254333 0.254333
0.276276 0.276276 0.276276
0.298187 0.298187 0.298187
0.320129 0.320129 0.320129
0.342072 0.342072 0.342072
0.363983 0.363983 0.363983
0.385925 0.385925 0.385925
0.407837 0.407837 0.407837
0.429779 0.429779 0.429779
0.451691 0.451691 0.451691
0.473602 0.473602 0.473602
0.495544 0.495544 0.495544
0.527222 0.516113 0.502167
0.560364 0.536499 0.506042
0.592255 0.556976 0.511383
0.623077 0.577637 0.518250
0.652679 0.598389 0.526794
0.681274 0.619324 0.537140
0.708771 0.640411 0.549316
0.000000 0.000000 0.000000
0.018341 0.018341 0.018341
0.040253 0.040253 0.040253
0.062195 0.062195 0.062195
0.084076 0.084076 0.084076
0.106049 0.106049 0.106049
0.127960 0.127960 0.127960
0.149902 0.149902 0.149902
0.171814 0.171814 0.171814
0.193726 0.193726 0.193726
0.215668 0.215668 0.215668
0.237579 0.237579 0.237579
0.259521 0.259521 0.259521
0.281433 0.281433 0.281433
0.303375 0.303375 0.303375
0.325287 0.325287 0.325287
0.347229 0.347229 0.347229
0.369171 0.369171 0.369171
0.391083 0.391083 0.391083
0.412994 0.412994 0.412994
0.434937 0.434937 0.434937
0.456848 0.456848 0.456848
0.478790 0.478790 0.478790
0.501099 0.500641 0.500061
0.535156 0.520935 0.502960
0.567932 0.541290 0.507141
0.599609 0.561829 0.512848
0.630157 0.582489 0.520142
0.659546 0.603302 0.529083
0.687866 0.624298 0.539764
0.715088 0.645416 0.552399
0.741241 0.666718 0.566956
0.023499 0.023499 0.023499
0.045441 0.045441 0.045441
0.067352 0.067352 0.067352
0.089294 0.089294 0.089294
0.111206 0.111206 0.111206
0.133118 0.133118 0.133118
0.155060 0.155060 0.155060
0.176971 0.176971 0.176971
0.198914 0.198914 0.198914
0.220825 0.220825 0.220825
0.242767 0.242767 0.242767
0.264679 0.264679 0.264679
0.286591 0.286591 0.286591
0.308533 0.308533 0.308533
0.330444 0.330444 0.330444
0.352386 0.352386 0.352386
0.374329 0.374329 0.374329
0.396240 0.396240 0.396240
0.418182 0.418182 0.418182
0.440094 0.440094 0.440094
0.462036 0.462036 0.462036
0.483948 0.483948 0.483948
0.509216 0.505402 0.500610
0.542969 0.525726 0.503845
0.575531 0.546112 0.508362
0.606934 0.566711 0.514435
0.637146 0.587372 0.522064
0.666321 0.608246 0.531433
0.694366 0.629242 0.542633
0.721313 0.650421 0.555634
0.747192 0.671753 0.570618
0.771973 0.693237 0.587585
0.050598 0.050598 0.050598
0.072540 0.072540 0.072540
0.094421 0.094421 0.094421
0.116364 0.116364 0.116364
0.138306 0.138306 0.138306
0.160217 0.160217 0.160217
0.182159 0.182159 0.182159
0.204071 0.204071 0.204071
0.225983 0.225983 0.225983
0.247925 0.247925 0.247925
0.269836 0.269836 0.269836
0.291779 0.291779 0.291779
0.313690 0.313690 0.313690
0.335632 0.335632 0.335632
0.357544 0.357544 0.357544
0.379456 0.379456 0.379456
0.401428 0.401428 0.401428
0.423340 0.423340 0.423340
0.445251 0.445251 0.445251
0.467194 0.467194 0.467194
0.489105 0.489105 0.489105
0.517303 0.510193 0.501282
0.550751 0.530518 0.504761
0.583038 0.550964 0.509644
0.614136 0.571533 0.516052
0.644104 0.592285 0.524139
0.673035 0.613159 0.533905
0.700836 0.634216 0.545502
0.727509 0.655457 0.559021
0.753113 0.676819 0.574463
0.777740 0.698334 0.591888
0.801147 0.720062 0.611267
0.077698 0.077698 0.077698
0.099609 0.099609 0.099609
0.121552 0.121552 0.121552
0.143463 0.143463 0.143463
0.165375 0.165375 0.165375
0.187317 0.187317 0.187317
0.209229 0.209229 0.209229
0.231171 0.231171 0.231171
0.253082 0.253082 0.253082
0.275024 0.275024 0.275024
0.296936 0.296936 0.296936
0.318848 0.318848 0.318848
0.340790 0.340790 0.340790
0.362701 0.362701 0.362701
0.384644 0.384644 0.384644
0.406555 0.406555 0.406555
0.428497 0.428497 0.428497
0.450439 0.450439 0.450439
0.472351 0.472351 0.472351
0.494293 0.494293 0.494293
0.525269 0.514984 0.501953
0.558441 0.535309 0.505768
0.590454 0.555786 0.511047
0.621307 0.576416 0.517822
0.651031 0.597198 0.526276
0.679657 0.618103 0.536499
0.707214 0.639221 0.548492
0.733643 0.660431 0.562500
0.759033 0.681854 0.578369
0.783295 0.703461 0.596283
0.806519 0.725189 0.616150
0.828674 0.747101 0.638031
0.104767 0.104767 0.104767
0.126709 0.126709 0.126709
0.148621 0.148621 0.148621
0.170563 0.170563 0.170563
0.192474 0.192474 0.192474
0.214417 0.214417 0.214417
0.236328 0.236328 0.236328
0.258240 0.258240 0.258240
0.280182 0.280182 0.280182
0.302094 0.302094 0.302094
0.324036 0.324036 0.324036
0.345947 0.345947 0.345947
0.367889 0.367889 0.367889
0.389801 0.389801 0.389801
0.411713 0.411713 0.411713
0.433655 0.433655 0.433655
0.455597 0.455597 0.455597
0.477509 0.477509 0.477509
0.499451 0.499451 0.499451
0.533173 0.519745 0.502777
0.566101 0.540131 0.506897
0.597839 0.560638 0.512482
0.628448 0.581299 0.519623
0.657898 0.602112 0.528503
0.686249 0.623047 0.539154
0.713562 0.644196 0.551636
0.739746 0.665466 0.566040
0.764832 0.686951 0.582397
0.788879 0.708557 0.600769
0.811859 0.730347 0.621155
0.833710 0.752289 0.643433
0.854553 0.774384 0.667664
0.131866 0.131866 0.131866
0.153809 0.153809 0.153809
0.175720 0.175720 0.175720
0.197632 0.197632 0.197632
0.219574 0.219574 0.219574
0.241486 0.241486 0.241486
0.263428 0.263428 0.263428
0.285339 0.285339 0.285339
0.307281 0.307281 0.307281
0.329193 0.329193 0.329193
0.351105 0.351105 0.351105
0.373047 0.373047 0.373047
0.394958 0.394958 0.394958
0.416901 0.416901 0.416901
0.438812 0.438812 0.438812
0.460754 0.460754 0.460754
0.482697 0.482697 0.482697
0.507263 0.504242 0.500519
