portrait-pop-10.CUBE
#Created by: Adobe Photoshop Export Color Lookup Plugin
TITLE "pp-10"
#LUT size
LUT_3D_SIZE 8
#data domain
#LUT data points
DOMAIN_MIN 0.000000 0.000000 0.000000
DOMAIN_MAX 0.903226 0.903226 0.903226
0.000000 0.000000 0.000000
0.051147 0.051147 0.051147
0.097961 0.097961 0.097961
0.147034 0.147034 0.147034
0.200043 0.200043 0.200043
0.256378 0.256378 0.256378
0.315002 0.315002 0.315002
0.375153 0.375153 0.375153
0.096405 0.096405 0.096405
0.145294 0.145294 0.145294
0.198212 0.198212 0.198212
0.254456 0.254456 0.254456
0.313049 0.313049 0.313049
0.373169 0.373169 0.373169
0.433899 0.433899 0.433899
0.494568 0.494568 0.494568
0.196381 0.196381 0.196381
0.252563 0.252563 0.252563
0.311066 0.311066 0.311066
0.371124 0.371124 0.371124
0.431885 0.431885 0.431885
0.492554 0.492554 0.492554
0.552521 0.552521 0.552521
0.610962 0.610962 0.610962
0.309113 0.309113 0.309113
0.369080 0.369080 0.369080
0.429840 0.429840 0.429840
0.490570 0.490570 0.490570
0.550568 0.550568 0.550568
0.609070 0.609070 0.609070
0.665466 0.665466 0.665466
0.719238 0.719238 0.719238
0.427856 0.427856 0.427856
0.488556 0.488556 0.488556
0.548615 0.548615 0.548615
0.607147 0.607147 0.607147
0.663696 0.663696 0.663696
0.717468 0.717468 0.717468
0.767975 0.767975 0.767975
0.814606 0.814606 0.814606
0.546600 0.546600 0.546600
0.605255 0.605255 0.605255
0.661835 0.661835 0.661835
0.715729 0.715729 0.715729
0.766357 0.766357 0.766357
0.813141 0.813141 0.813141
0.856232 0.856232 0.856232
0.896454 0.896454 0.896454
0.659973 0.659973 0.659973
0.714020 0.714020 0.714020
0.764740 0.764740 0.764740
0.811615 0.811615 0.811615
0.854858 0.854858 0.854858
0.895142 0.895142 0.895142
0.933289 0.933289 0.933289
0.969910 0.969910 0.969910
0.763092 0.763092 0.763092
0.810150 0.810150 0.810150
0.853485 0.853485 0.853485
0.893860 0.893860 0.893860
0.932037 0.932037 0.932037
0.968719 0.968719 0.968719
1.000000 1.000000 1.000000
1.000000 1.000000 1.000000
0.020447 0.020447 0.020447
0.068268 0.068268 0.068268
0.115540 0.115540 0.115540
0.166016 0.166016 0.166016
0.220367 0.220367 0.220367
0.277649 0.277649 0.277649
0.336914 0.336914 0.336914
0.397369 0.397369 0.397369
0.113953 0.113953 0.113953
0.164276 0.164276 0.164276
0.218506 0.218506 0.218506
0.275696 0.275696 0.275696
0.334900 0.334900 0.334900
0.395416 0.395416 0.395416
0.456207 0.456207 0.456207
0.516663 0.516663 0.516663
0.216644 0.216644 0.216644
0.273773 0.273773 0.273773
0.332947 0.332947 0.332947
0.393341 0.393341 0.393341
0.454193 0.454193 0.454193
0.514648 0.514648 0.514648
0.574158 0.574158 0.574158
0.631897 0.631897 0.631897
0.330963 0.330963 0.330963
0.391327 0.391327 0.391327
0.452179 0.452179 0.452179
0.512695 0.512695 0.512695
0.572205 0.572205 0.572205
0.630035 0.630035 0.630035
0.685516 0.685516 0.685516
0.738098 0.738098 0.738098
0.450165 0.450165 0.450165
0.510651 0.510651 0.510651
0.570251 0.570251 0.570251
0.628143 0.628143 0.628143
0.683716 0.683716 0.683716
0.736420 0.736420 0.736420
0.785553 0.785553 0.785553
0.830780 0.830780 0.830780
0.568298 0.568298 0.568298
0.626251 0.626251 0.626251
0.681915 0.681915 0.681915
0.734711 0.734711 0.734711
0.783966 0.783966 0.783966
0.829346 0.829346 0.829346
0.871277 0.871277 0.871277
0.910645 0.910645 0.910645
0.680084 0.680084 0.680084
0.733032 0.733032 0.733032
0.782379 0.782379 0.782379
0.827881 0.827881 0.827881
0.869934 0.869934 0.869934
0.909332 0.909332 0.909332
0.946838 0.946838 0.946838
0.983124 0.983124 0.983124
0.780823 0.780823 0.780823
0.826416 0.826416 0.826416
0.868561 0.868561 0.868561
0.908051 0.908051 0.908051
0.945618 0.945618 0.945618
0.981934 0.981934 0.981934
1.000000 1.000000 1.000000
1.000000 1.000000 1.000000
0.038544 0.038544 0.038544
0.085388 0.085388 0.085388
0.133575 0.133575 0.133575
0.185547 0.185547 0.185547
0.241089 0.241089 0.241089
0.299164 0.299164 0.299164
0.359009 0.359009 0.359009
0.419708 0.419708 0.419708
0.131897 0.131897 0.131897
0.183716 0.183716 0.183716
0.239166 0.239166 0.239166
0.297241 0.297241 0.297241
0.356995 0.356995 0.356995
0.417694 0.417694 0.417694
0.478455 0.478455 0.478455
0.538605 0.538605 0.538605
0.237244 0.237244 0.237244
0.295288 0.295288 0.295288
0.354980 0.354980 0.354980
0.415619 0.415619 0.415619
0.476471 0.476471 0.476471
0.536621 0.536621 0.536621
0.595551 0.595551 0.595551
0.652527 0.652527 0.652527
0.352966 0.352966 0.352966
0.413635 0.413635 0.413635
0.474426 0.474426 0.474426
0.534668 0.534668 0.534668
0.593658 0.593658 0.593658
0.650665 0.650665 0.650665
0.705170 0.705170 0.705170
0.756500 0.756500 0.756500
0.472443 0.472443 0.472443
0.532715 0.532715 0.532715
0.591705 0.591705 0.591705
0.648804 0.648804 0.648804
0.703430 0.703430 0.703430
0.754852 0.754852 0.754852
0.802582 0.802582 0.802582
0.846466 0.846466 0.846466
0.589783 0.589783 0.589783
0.646973 0.646973 0.646973
0.701630 0.701630 0.701630
0.753204 0.753204 0.753204
0.801056 0.801056 0.801056
0.845062 0.845062 0.845062
0.885956 0.885956 0.885956
0.924530 0.924530 0.924530
0.699860 0.699860 0.699860
0.751556 0.751556 0.751556
0.799530 0.799530 0.799530
0.843628 0.843628 0.843628
0.884644 0.884644 0.884644
0.923248 0.923248 0.923248
0.960236 0.960236 0.960236
0.996246 0.996246 0.996246
0.798004 0.798004 0.798004
0.842224 0.842224 0.842224
0.883331 0.883331 0.883331
0.922028 0.922028 0.922028
0.959045 0.959045 0.959045
0.995087 0.995087 0.995087
1.000000 1.000000 1.000000
1.000000 1.000000 1.000000
0.055847 0.055847 0.055847
0.102692 0.102692 0.102692
0.152130 0.152130 0.152130
0.205536 0.205536 0.205536
0.262146 0.262146 0.262146
0.320953 0.320953 0.320953
0.381165 0.381165 0.381165
0.442017 0.442017 0.442017
0.150452 0.150452 0.150452
0.203674 0.203674 0.203674
0.260193 0.260193 0.260193
0.318970 0.318970 0.318970
0.379150 0.379150 0.379150
0.440002 0.440002 0.440002
0.500610 0.500610 0.500610
0.560364 0.560364 0.560364
0.258270 0.258270 0.258270
0.317017 0.317017 0.317017
0.377167 0.377167 0.377167
0.437958 0.437958 0.437958
0.498627 0.498627 0.498627
0.558411 0.558411 0.558411
0.616699 0.616699 0.616699
0.672791 0.672791 0.672791
0.375153 0.375153 0.375153
0.435883 0.435883 0.435883
0.496613 0.496613 0.496613
0.556427 0.556427 0.556427
0.614807 0.614807 0.614807
0.670990 0.670990 0.670990
0.724365 0.724365 0.724365
0.774414 0.774414 0.774414
0.494598 0.494598 0.494598
0.554535 0.554535 0.554535
0.612915 0.612915 0.612915
0.669159 0.669159 0.669159
0.722687 0.722687 0.722687
0.772827 0.772827 0.772827
0.819092 0.819092 0.819092
0.861755 0.861755 0.861755
0.611023 0.611023 0.611023
0.667358 0.667358 0.667358
0.720947 0.720947 0.720947
0.771210 0.771210 0.771210
0.817596 0.817596 0.817596
0.860352 0.860352 0.860352
0.900330 0.900330 0.900330
0.938232 0.938232 0.938232
0.719238 0.719238 0.719238
0.769592 0.769592 0.769592
0.816101 0.816101 0.816101
0.859009 0.859009 0.859009
0.899048 0.899048 0.899048
0.936951 0.936951 0.936951
0.973511 0.973511 0.973511
1.000000 1.000000 1.000000
0.814606 0.814606 0.814606
0.857605 0.857605 0.857605
0.897736 0.897736 0.897736
0.935730 0.935730 0.935730
0.972321 0.972321 0.972321
1.000000 1.000000 1.000000
1.000000 1.000000 1.000000
1.000000 1.000000 1.000000
0.072906 0.072906 0.072906
0.120422 0.120422 0.120422
0.171265 0.171265 0.171265
0.225952 0.225952 0.225952
0.283508 0.283508 0.283508
0.342926 0.342926 0.342926
0.403473 0.403473 0.403473
0.464294 0.464294 0.464294
0.169525 0.169525 0.169525
0.224091 0.224091 0.224091
0.281555 0.281555 0.281555
0.340942 0.340942 0.340942
0.401459 0.401459 0.401459
0.462311 0.462311 0.462311
0.522675 0.522675 0.522675
0.582001 0.582001 0.582001
0.279541 0.279541 0.279541
0.338959 0.338959 0.338959
0.399414 0.399414 0.399414
0.460205 0.460205 0.460205
0.520660 0.520660 0.520660
0.579987 0.579987 0.579987
0.637543 0.637543 0.637543
0.692719 0.692719 0.692719
0.397369 0.397369 0.397369
0.458191 0.458191 0.458191
0.518677 0.518677 0.518677
0.578033 0.578033 0.578033
0.635712 0.635712 0.635712
0.690918 0.690918 0.690918
0.743103 0.743103 0.743103
0.791748 0.791748 0.791748
0.516693 0.516693 0.516693
0.576141 0.576141 0.576141
0.633820 0.633820 0.633820
0.689117 0.689117 0.689117
0.741486 0.741486 0.741486
0.790222 0.790222 0.790222
0.835083 0.835083 0.835083
0.876648 0.876648 0.876648
0.631958 0.631958 0.631958
0.687317 0.687317 0.687317
0.739838 0.739838 0.739838
0.788666 0.788666 0.788666
0.833679 0.833679 0.833679
0.875336 0.875336 0.875336
0.914429 0.914429 0.914429
0.951721 0.951721 0.951721
0.738129 0.738129 0.738129
0.787109 0.787109 0.787109
0.832214 0.832214 0.832214
0.873993 0.873993 0.873993
0.913177 0.913177 0.913177
0.950500 0.950500 0.950500
0.986725 0.986725 0.986725
1.000000 1.000000 1.000000
0.830780 0.830780 0.830780
0.872650 0.872650 0.872650
0.911896 0.911896 0.911896
0.949249 0.949249 0.949249
0.985504 0.985504 0.985504
1.000000 1.000000 1.000000
1.000000 1.000000 1.000000
1.000000 1.000000 1.000000
0.090057 0.090057 0.090057
0.138580 0.138580 0.138580
0.190918 0.190918 0.190918
0.246765 0.246765 0.246765
0.305115 0.305115 0.305115
0.365051 0.365051 0.365051
0.425781 0.425781 0.425781
0.486511 0.486511 0.486511
0.189148 0.189148 0.189148
0.244873 0.244873 0.244873
0.303162 0.303162 0.303162
0.363037 0.363037 0.363037
0.423767 0.423767 0.423767
0.484497 0.484497 0.484497
0.544556 0.544556 0.544556
0.603271 0.603271 0.603271
0.301117 0.301117 0.301117
0.361023 0.361023 0.361023
0.421692 0.421692 0.421692
0.482483 0.482483 0.482483
0.542603 0.542603 0.542603
0.601349 0.601349 0.601349
0.658081 0.658081 0.658081
0.712219 0.712219 0.712219
0.419708 0.419708 0.419708
0.480438 0.480438 0.480438
0.540588 0.540588 0.540588
0.599426 0.599426 0.599426
0.656250 0.656250 0.656250
0.710449 0.710449 0.710449
0.761414 0.761414 0.761414
0.808594 0.808594 0.808594
0.538635 0.538635 0.538635
0.597534 0.597534 0.597534
0.654419 0.654419 0.654419
0.708710 0.708710 0.708710
0.759827 0.759827 0.759827
0.807129 0.807129 0.807129
0.850708 0.850708 0.850708
0.891235 0.891235 0.891235
0.652557 0.652557 0.652557
0.706970 0.706970 0.706970
0.758179 0.758179 0.758179
0.805603 0.805603 0.805603
0.849274 0.849274 0.849274
0.889923 0.889923 0.889923
0.928253 0.928253 0.928253
0.965088 0.965088 0.965088
0.756531 0.756531 0.756531
0.804108 0.804108 0.804108
0.847870 0.847870 0.847870
0.888611 0.888611 0.888611
0.927032 0.927032 0.927032
0.963898 0.963898 0.963898
0.999878 0.999878 0.999878
1.000000 1.000000 1.000000
0.846466 0.846466 0.846466
0.887299 0.887299 0.887299
0.925781 0.925781 0.925781
0.962646 0.962646 0.962646
0.998657 0.998657 0.998657
1.000000 1.000000 1.000000
1.000000 1.000000 1.000000
1.000000 1.000000 1.000000
0.107483 0.107483 0.107483
0.157288 0.157288 0.157288
0.211060 0.211060 0.211060
0.267883 0.267883 0.267883
0.326935 0.326935 0.326935
0.387268 0.387268 0.387268
0.448090 0.448090 0.448090
0.508667 0.508667 0.508667
0.209229 0.209229 0.209229
0.265961 0.265961 0.265961
0.324951 0.324951 0.324951
0.385254 0.385254 0.385254
0.446075 0.446075 0.446075
0.506653 0.506653 0.506653
0.566284 0.566284 0.566284
0.624329 0.624329 0.624329
0.322937 0.322937 0.322937
0.383240 0.383240 0.383240
0.444031 0.444031 0.444031
0.504669 0.504669 0.504669
0.564331 0.564331 0.564331
0.622437 0.622437 0.622437
0.678284 0.678284 0.678284
0.731262 0.731262 0.731262
0.442017 0.442017 0.442017
0.502625 0.502625 0.502625
0.562347 0.562347 0.562347
0.620483 0.620483 0.620483
0.676453 0.676453 0.676453
0.729523 0.729523 0.729523
0.779205 0.779205 0.779205
0.824921 0.824921 0.824921
0.560394 0.560394 0.560394
0.618652 0.618652 0.618652
0.674652 0.674652 0.674652
0.727844 0.727844 0.727844
0.777618 0.777618 0.777618
0.823456 0.823456 0.823456
0.865845 0.865845 0.865845
0.905457 0.905457 0.905457
0.672821 0.672821 0.672821
0.726135 0.726135 0.726135
0.776031 0.776031 0.776031
0.821991 0.821991 0.821991
0.864502 0.864502 0.864502
0.904205 0.904205 0.904205
0.941895 0.941895 0.941895
0.978333 0.978333 0.978333
0.774445 0.774445 0.774445
0.820557 0.820557 0.820557
0.863098 0.863098 0.863098
0.902924 0.902924 0.902924
0.940674 0.940674 0.940674
0.977142 0.977142 0.977142
1.000000 1.000000 1.000000
1.000000 1.000000 1.000000
0.861755 0.861755 0.861755
0.901642 0.901642 0.901642
0.939453 0.939453 0.939453
0.975922 0.975922 0.975922
1.000000 1.000000 1.000000
1.000000 1.000000 1.000000
1.000000 1.000000 1.000000
1.000000 1.000000 1.000000
0.125275 0.125275 0.125275
0.176605 0.176605 0.176605
0.231598 0.231598 0.231598
0.289368 0.289368 0.289368
0.348938 0.348938 0.348938
0.409546 0.409546 0.409546
0.470367 0.470367 0.470367
0.530640 0.530640 0.530640
0.229736 0.229736 0.229736
0.287384 0.287384 0.287384
0.346985 0.346985 0.346985
0.407501 0.407501 0.407501
0.468353 0.468353 0.468353
0.528687 0.528687 0.528687
0.587769 0.587769 0.587769
0.645081 0.645081 0.645081
0.344971 0.344971 0.344971
0.405518 0.405518 0.405518
0.466309 0.466309 0.466309
0.526672 0.526672 0.526672
0.585815 0.585815 0.585815
0.643188 0.643188 0.643188
0.698029 0.698029 0.698029
0.749817 0.749817 0.749817
0.464294 0.464294 0.464294
0.524658 0.524658 0.524658
0.583923 0.583923 0.583923
0.641327 0.641327 0.641327
0.696289 0.696289 0.696289
0.748169 0.748169 0.748169
0.796448 0.796448 0.796448
0.840790 0.840790 0.840790
0.582001 0.582001 0.582001
0.639465 0.639465 0.639465
0.694550 0.694550 0.694550
0.746490 0.746490 0.746490
0.794891 0.794891 0.794891
0.839355 0.839355 0.839355
0.880676 0.880676 0.880676
0.919464 0.919464 0.919464
0.692749 0.692749 0.692749
0.744843 0.744843 0.744843
0.793365 0.793365 0.793365
0.837952 0.837952 0.837952
0.879333 0.879333 0.879333
0.918213 0.918213 0.918213
0.955353 0.955353 0.955353
0.991516 0.991516 0.991516
0.791809 0.791809 0.791809
0.836548 0.836548 0.836548
0.877991 0.877991 0.877991
0.916962 0.916962 0.916962
0.954132 0.954132 0.954132
0.990295 0.990295 0.990295
1.000000 1.000000 1.000000
1.000000 1.000000 1.000000
0.876648 0.876648 0.876648
0.915710 0.915710 0.915710
0.952942 0.952942 0.952942
0.989105 0.989105 0.989105
1.000000 1.000000 1.000000
1.000000 1.000000 1.000000
1.000000 1.000000 1.000000
1.000000 1.000000 1.000000
