portrait-pop-3.CUBE
#Created by: Adobe Photoshop Export Color Lookup Plugin
TITLE "pp-3.psd"
#LUT size
LUT_3D_SIZE 5
#data domain
#LUT data points
DOMAIN_MIN 0.000000 0.000000 0.000000
DOMAIN_MAX 0.903226 0.903226 0.903226
0.000000 0.000000 0.000000
0.059814 0.000000 0.073029
0.304047 0.000000 0.131500
0.643066 0.000000 0.232330
0.975983 0.000000 0.349854
0.000000 0.119781 0.000000
0.093262 0.119781 0.000000
0.309204 0.109314 0.000000
0.619476 0.004700 0.000000
0.974579 0.000000 0.029999
0.000000 0.485504 0.000000
0.147491 0.485504 0.000000
0.393982 0.485504 0.000000
0.659393 0.445587 0.000000
0.975250 0.148743 0.000000
0.000000 0.742645 0.000000
0.175903 0.742645 0.000000
0.424164 0.742645 0.000000
0.676941 0.742645 0.000000
0.977844 0.726440 0.000000
0.000000 0.999054 0.000000
0.220245 0.999054 0.000000
0.469513 0.999054 0.000000
0.722961 0.999054 0.000000
0.979187 0.999054 0.000000
0.000000 0.000000 0.239258
0.093262 0.000000 0.239258
0.331604 0.000000 0.267059
0.658020 0.000000 0.435699
0.977295 0.000000 0.626068
0.000000 0.119781 0.239258
0.072174 0.119781 0.239258
0.275024 0.146362 0.279633
0.609009 0.154510 0.382355
0.925598 0.101501 0.501251
0.000000 0.485504 0.239258
0.104767 0.485504 0.239227
0.348511 0.485504 0.239258
0.613220 0.423737 0.212891
0.920593 0.125793 0.141052
0.000000 0.742645 0.239227
0.132050 0.742645 0.239258
0.378967 0.742645 0.239258
0.631134 0.742645 0.239258
0.929077 0.712738 0.209351
0.000000 0.999054 0.239258
0.175964 0.999054 0.239258
0.424042 0.999054 0.239258
0.677002 0.999054 0.239258
0.932709 0.999054 0.239258
0.000000 0.000000 0.488922
0.147491 0.000000 0.488922
0.393982 0.000000 0.488922
0.660919 0.000000 0.473877
0.977478 0.000000 0.664154
0.000000 0.234192 0.488922
0.104767 0.234161 0.488922
0.348511 0.207306 0.488922
0.620239 0.152924 0.511017
0.928772 0.098328 0.699463
0.000000 0.485504 0.488922
0.104767 0.485504 0.488922
0.303284 0.485504 0.488922
0.579285 0.460693 0.525757
0.879578 0.368988 0.645599
0.000000 0.742645 0.488983
0.132050 0.742645 0.488922
0.333862 0.742645 0.488892
0.585358 0.742645 0.488922
0.880890 0.689056 0.471008
0.000000 0.999054 0.488953
0.175964 0.999054 0.488831
0.378906 0.999054 0.488922
0.631134 0.999054 0.488922
0.886475 0.999054 0.488922
0.000000 0.000000 0.742645
0.175903 0.000000 0.742645
0.424164 0.000000 0.742645
0.676941 0.000000 0.742645
0.977844 0.000000 0.731110
0.000000 0.239227 0.742645
0.132050 0.239258 0.742645
0.378967 0.205841 0.742645
0.631134 0.145508 0.742645
0.929382 0.096008 0.736542
0.000000 0.488983 0.742645
0.132050 0.488922 0.742645
0.333862 0.488892 0.742645
0.585358 0.441772 0.742645
0.883087 0.329498 0.770447
0.000000 0.742645 0.742645
0.132050 0.742645 0.742645
0.333862 0.742645 0.742645
0.611511 0.742645 0.742645
0.910645 0.698029 0.812927
0.000000 0.999054 0.742645
0.175964 0.999054 0.742737
0.378906 0.999054 0.742615
0.657318 0.999054 0.742645
0.912933 0.999054 0.742645
0.000000 0.000000 0.999054
0.220245 0.000000 0.999054
0.469513 0.000000 0.999054
0.722961 0.000000 0.999054
0.979187 0.000000 0.999054
0.000000 0.239258 0.999054
0.175964 0.239258 0.999054
0.424042 0.195038 0.999054
0.677002 0.134521 0.999054
0.932709 0.073334 0.999054
0.000000 0.488953 0.999054
0.175964 0.488831 0.999054
0.378906 0.488922 0.999054
0.631134 0.419403 0.999054
0.886475 0.294556 0.999054
0.000000 0.742645 0.999054
0.175964 0.742737 0.999054
0.378906 0.742615 0.999054
0.657318 0.742645 0.999054
0.912933 0.657166 0.999054
0.000000 0.999054 0.999054
0.175964 0.999054 0.999054
0.378906 0.999054 0.999054
0.657318 0.999054 0.999054
0.959259 0.999054 0.999054
