portrait-pop-1.CUBE
#Created by: Adobe Photoshop Export Color Lookup Plugin
TITLE "pp-1"
#LUT size
LUT_3D_SIZE 32
#data domain
DOMAIN_MIN 0.0 0.0 0.0
DOMAIN_MAX 1.0 1.0 1.0
#LUT data points
0.000000 0.000000 0.000000
0.031067 0.001221 0.000793
0.062683 0.002411 0.001587
0.094330 0.003601 0.002380
0.125519 0.004822 0.003143
0.158600 0.006073 0.003937
0.197266 0.007324 0.004700
0.238129 0.008514 0.005524
0.281250 0.009735 0.006317
0.326477 0.011017 0.007141
0.373779 0.012268 0.007904
0.422852 0.013489 0.008728
0.472473 0.014740 0.009552
0.520691 0.016022 0.010345
0.565796 0.017273 0.011139
0.607574 0.018524 0.011963
0.646271 0.019806 0.012756
0.681885 0.021088 0.013580
0.714569 0.022339 0.014404
0.744568 0.023682 0.015228
0.771942 0.024963 0.016052
0.796753 0.026245 0.016815
0.819305 0.027557 0.017670
0.839691 0.028870 0.018463
0.858185 0.030182 0.019348
0.875092 0.031494 0.020142
0.890442 0.032776 0.020966
0.904572 0.034119 0.021790
0.917572 0.035461 0.022675
0.929504 0.036774 0.023499
0.940765 0.038116 0.024353
0.951141 0.039459 0.025177
0.000000 0.032135 0.000000
0.032501 0.032135 0.020569
0.065460 0.033447 0.021423
0.098541 0.034790 0.022217
0.131439 0.036072 0.023071
0.165649 0.037445 0.023926
0.204773 0.038757 0.024780
0.246094 0.040161 0.025635
0.289642 0.041473 0.026459
0.335236 0.042847 0.027313
0.382874 0.044189 0.028168
0.432281 0.045593 0.029022
0.481720 0.046936 0.029846
0.529449 0.048309 0.030701
0.573944 0.049713 0.031586
0.615082 0.051086 0.032410
0.653168 0.052490 0.033295
0.688232 0.053864 0.034149
0.720459 0.055298 0.035004
0.749908 0.056702 0.035889
0.776855 0.058105 0.036774
0.801208 0.059479 0.037628
0.823273 0.060913 0.038452
0.843292 0.062347 0.039337
0.861511 0.063751 0.040253
0.878021 0.065186 0.041138
0.893219 0.066650 0.041992
0.907043 0.068085 0.042908
0.919922 0.069550 0.043793
0.931732 0.071014 0.044678
0.942749 0.072449 0.045563
0.953033 0.073914 0.046448
0.000000 0.067352 0.000000
0.032501 0.067352 0.020569
0.068237 0.067352 0.042450
0.102844 0.068787 0.043335
0.137390 0.070282 0.044189
0.172852 0.071716 0.045105
0.212372 0.073181 0.045990
0.254089 0.074646 0.046906
0.298096 0.076111 0.047760
0.344086 0.077576 0.048676
0.392029 0.079102 0.049591
0.441681 0.080536 0.050507
0.490936 0.082092 0.051392
0.538055 0.083527 0.052307
0.581970 0.085022 0.053162
0.622498 0.086517 0.054108
0.660065 0.088043 0.055023
0.694489 0.089569 0.055939
0.726196 0.091095 0.056824
0.755157 0.092621 0.057770
0.781586 0.094147 0.058655
0.805511 0.095703 0.059601
0.827209 0.097229 0.060547
0.846924 0.098755 0.061432
0.864716 0.100311 0.062378
0.881042 0.101868 0.063293
0.895935 0.103424 0.064240
0.909576 0.104980 0.065186
0.922180 0.106567 0.066101
0.933868 0.108124 0.067047
0.944733 0.109741 0.067993
0.954956 0.111298 0.068939
0.000000 0.105774 0.000000
0.032501 0.105774 0.020569
0.068237 0.105774 0.042450
0.107178 0.105774 0.065643
0.143341 0.107330 0.066589
0.180115 0.108917 0.067505
0.220093 0.110474 0.068451
0.262177 0.112061 0.069397
0.306549 0.113647 0.070343
0.352936 0.115265 0.071259
0.401306 0.116882 0.072235
0.450989 0.118500 0.073181
0.500000 0.120087 0.074127
0.546570 0.121704 0.075104
0.589813 0.123322 0.076050
0.629791 0.124908 0.077026
0.666809 0.126587 0.077972
0.700714 0.128204 0.078949
0.731903 0.129852 0.079926
0.760345 0.131470 0.080872
0.786316 0.133179 0.081879
0.809784 0.134796 0.082825
0.831085 0.136475 0.083801
0.850342 0.138123 0.084747
0.867889 0.139771 0.085754
0.883911 0.141479 0.086731
0.898590 0.143097 0.087708
0.912048 0.144836 0.088684
0.924469 0.146515 0.089691
0.936005 0.148224 0.090668
0.946686 0.149902 0.091675
0.956787 0.151642 0.092651
0.000000 0.147369 0.000000
0.032501 0.147369 0.020569
0.068237 0.147369 0.042450
0.107178 0.147369 0.065643
0.149414 0.147369 0.090179
0.187469 0.149048 0.091156
0.227814 0.150757 0.092133
0.270386 0.152435 0.093170
0.315094 0.154175 0.094147
0.361908 0.155884 0.095154
0.410553 0.157623 0.096130
0.460327 0.159332 0.097137
0.509033 0.161072 0.098145
0.554993 0.162811 0.099152
0.597626 0.164551 0.100159
0.636932 0.166290 0.101166
0.673370 0.168060 0.102173
0.706787 0.169800 0.103180
0.737366 0.171509 0.104218
0.765442 0.173309 0.105225
0.790894 0.175110 0.106262
0.813965 0.176880 0.107300
0.834808 0.178650 0.108307
0.853790 0.180420 0.109344
0.871033 0.182190 0.110352
0.886780 0.183990 0.111420
0.901154 0.185822 0.112427
0.914429 0.187592 0.113464
0.926666 0.189423 0.114471
0.938049 0.191223 0.115570
0.948639 0.193085 0.116577
0.958618 0.194916 0.117645
0.000000 0.192139 0.000000
0.032501 0.192139 0.020569
0.068237 0.192139 0.042450
0.107178 0.192139 0.065643
0.149414 0.192139 0.090179
0.194916 0.192139 0.116058
0.235687 0.193970 0.117096
0.278656 0.195770 0.118134
0.323792 0.197601 0.119202
0.370880 0.199493 0.120209
0.419922 0.201294 0.121307
0.469574 0.203156 0.122314
0.517944 0.204987 0.123413
0.563232 0.206879 0.124481
0.605225 0.208679 0.125519
0.644073 0.210602 0.126617
0.679871 0.212463 0.127655
0.712738 0.214386 0.128754
0.742889 0.216187 0.129791
0.770416 0.218079 0.130859
0.795380 0.220001 0.131927
0.818054 0.221893 0.133057
0.838531 0.223755 0.134064
0.857178 0.225677 0.135193
0.874115 0.227600 0.136230
0.889557 0.229523 0.137390
0.903778 0.231415 0.138397
0.916809 0.233368 0.139526
0.928864 0.235260 0.140594
0.940094 0.237244 0.141724
0.950562 0.239136 0.142761
0.960419 0.241119 0.143921
0.000000 0.240082 0.000000
0.032501 0.240082 0.020569
0.068237 0.240082 0.042450
0.107178 0.240082 0.065643
0.149414 0.240082 0.090179
0.194916 0.240082 0.116058
0.243591 0.240082 0.143280
0.287018 0.242004 0.144409
0.332458 0.243988 0.145447
0.380005 0.245911 0.146606
0.429291 0.247894 0.147766
0.478821 0.249786 0.148773
0.526672 0.251831 0.149963
0.571381 0.253754 0.151031
0.612701 0.255768 0.152191
0.651031 0.257751 0.153229
0.686249 0.259735 0.154388
0.718658 0.261688 0.155487
0.748260 0.263702 0.156616
0.775299 0.265686 0.157684
0.799835 0.267761 0.158905
0.822052 0.269714 0.159973
0.842133 0.271729 0.161133
0.860474 0.273804 0.162231
0.877106 0.275818 0.163422
0.892334 0.277802 0.164490
0.906311 0.279846 0.165649
0.919189 0.281891 0.166748
0.931030 0.283936 0.167938
0.942108 0.285950 0.169037
0.952454 0.288055 0.170258
0.962189 0.290070 0.171356
0.000000 0.291046 0.000000
0.032501 0.291046 0.020569
0.068237 0.291046 0.042450
0.107178 0.291046 0.065643
0.149414 0.291046 0.090179
0.194916 0.291046 0.116058
0.243591 0.291046 0.143280
0.295349 0.291046 0.171936
0.341248 0.293091 0.173004
0.389130 0.295166 0.174255
0.438751 0.297241 0.175354
0.488007 0.299347 0.176544
0.535431 0.301392 0.177673
0.579468 0.303467 0.178864
0.620209 0.305573 0.179962
0.657867 0.307709 0.181213
0.692566 0.309784 0.182312
0.724396 0.311890 0.183533
0.753540 0.313965 0.184662
0.780090 0.316101 0.185883
0.804169 0.318176 0.187012
0.825989 0.320343 0.188202
0.845764 0.322418 0.189362
0.863708 0.324585 0.190582
0.880066 0.326660 0.191711
0.895050 0.328827 0.192963
0.908813 0.330963 0.194092
0.921478 0.333160 0.195282
0.933167 0.335236 0.196472
0.944061 0.337433 0.197693
0.954376 0.339539 0.198883
0.964050 0.341766 0.200104
0.000000 0.344910 0.000000
0.032501 0.344910 0.020569
0.068237 0.344910 0.042450
0.107178 0.344910 0.065643
0.149414 0.344910 0.090179
0.194916 0.344910 0.116058
0.243591 0.344910 0.143280
0.295349 0.344910 0.171936
0.350098 0.344910 0.201874
0.398407 0.347076 0.203033
0.448090 0.349304 0.204285
0.497192 0.351440 0.205444
0.543915 0.353668 0.206696
0.587372 0.355804 0.207855
0.627472 0.358002 0.209137
0.664612 0.360168 0.210297
0.698792 0.362427 0.211517
0.730133 0.364594 0.212738
0.758728 0.366852 0.214020
0.784851 0.369049 0.215149
0.808472 0.371246 0.216431
0.829865 0.373444 0.217621
0.849243 0.375702 0.218903
0.866943 0.377930 0.220123
0.883026 0.380188 0.221375
0.897766 0.382355 0.222565
0.911285 0.384644 0.223816
0.923706 0.386841 0.225067
0.935272 0.389130 0.226288
0.946106 0.391388 0.227570
0.956238 0.393646 0.228821
0.965790 0.395905 0.229980
0.000000 0.401489 0.000000
0.032501 0.401489 0.020569
0.068237 0.401489 0.042450
0.107178 0.401489 0.065643
0.149414 0.401489 0.090179
0.194916 0.401489 0.116058
0.243591 0.401489 0.143280
0.295349 0.401489 0.171936
0.350098 0.401489 0.201874
0.407623 0.401489 0.233124
0.457397 0.403748 0.234344
0.506195 0.406067 0.235657
0.552338 0.408295 0.236877
0.595154 0.410614 0.238190
0.634735 0.412903 0.239410
0.671265 0.415222 0.240723
0.704895 0.417480 0.241913
0.735687 0.419769 0.243195
0.763824 0.422058 0.244446
0.789490 0.424438 0.245758
0.812622 0.426666 0.247040
0.833649 0.429047 0.248291
0.852722 0.431305 0.249573
0.870056 0.433594 0.250854
0.885864 0.435913 0.252167
0.900391 0.438232 0.253448
0.913727 0.440491 0.254730
0.925964 0.442871 0.256012
0.937378 0.445099 0.257294
0.947998 0.447449 0.258606
0.958069 0.449646 0.259888
0.967529 0.451935 0.261200
0.000000 0.459930 0.000000
0.032501 0.459930 0.020569
0.068237 0.459930 0.042450
0.107178 0.459930 0.065643
0.149414 0.459930 0.090179
0.194916 0.459930 0.116058
0.243591 0.459930 0.143280
0.295349 0.459930 0.171936
0.350098 0.459930 0.201874
0.407623 0.459930 0.233124
0.466675 0.459930 0.265686
0.515228 0.462097 0.266937
0.560699 0.464417 0.268311
0.602875 0.466675 0.269562
0.641815 0.468964 0.270935
0.677795 0.471161 0.272247
0.710876 0.473511 0.273560
0.741211 0.475739 0.274841
0.768829 0.478027 0.276184
0.794037 0.480286 0.277466
0.816772 0.482513 0.278839
0.837402 0.484741 0.280182
0.856079 0.487030 0.281494
0.873138 0.489227 0.282837
0.888702 0.491516 0.284119
0.902985 0.493744 0.285461
0.916077 0.496002 0.286804
0.928192 0.498199 0.288147
0.939453 0.500397 0.289490
0.949951 0.502625 0.290802
0.959869 0.504883 0.292145
0.969238 0.507019 0.293488
0.000000 0.516846 0.000000
0.032501 0.516846 0.020569
0.068237 0.516846 0.042450
0.107178 0.516846 0.065643
0.149414 0.516846 0.090179
0.194916 0.516846 0.116058
0.243591 0.516846 0.143280
0.295349 0.516846 0.171936
0.350098 0.516846 0.201874
0.407623 0.516846 0.233124
0.466675 0.516846 0.265686
0.523987 0.516846 0.299500
0.568848 0.518982 0.300873
0.610443 0.521210 0.302277
0.648834 0.523346 0.303589
0.684235 0.525452 0.304932
0.716827 0.527618 0.306305
0.746613 0.529755 0.307709
0.773743 0.531860 0.309021
0.798431 0.534027 0.310425
0.820801 0.536102 0.311768
0.841034 0.538208 0.313171
0.859436 0.540253 0.314514
0.876221 0.542419 0.315887
0.891510 0.544464 0.317291
0.905518 0.546539 0.318634
0.918457 0.548584 0.320038
0.930389 0.550690 0.321381
0.941467 0.552673 0.322784
0.951874 0.554810 0.324188
0.961700 0.556793 0.325531
0.971008 0.558838 0.326935
0.000000 0.569824 0.000000
0.032501 0.569824 0.020569
0.068237 0.569824 0.042450
0.107178 0.569824 0.065643
0.149414 0.569824 0.090179
0.194916 0.569824 0.116058
0.243591 0.569824 0.143280
0.295349 0.569824 0.171936
0.350098 0.569824 0.201874
0.407623 0.569824 0.233124
0.466675 0.569824 0.265686
0.523987 0.569824 0.299500
0.576904 0.569824 0.334564
0.617950 0.571777 0.335968
0.655670 0.573792 0.337402
0.690582 0.575714 0.338745
0.722626 0.577728 0.340210
0.751923 0.579651 0.341583
0.778595 0.581635 0.343018
0.802765 0.583557 0.344421
0.824768 0.585541 0.345795
0.844635 0.587402 0.347260
0.862701 0.589355 0.348633
0.879181 0.591248 0.350067
0.894226 0.593231 0.351471
0.908020 0.595062 0.352905
0.920746 0.596954 0.354340
0.932495 0.598877 0.355743
0.943512 0.600739 0.357178
0.953796 0.602600 0.358612
0.963409 0.604492 0.360046
0.972687 0.606354 0.361450
0.000000 0.618256 0.000000
0.032501 0.618256 0.020569
0.068237 0.618256 0.042450
0.107178 0.618256 0.065643
0.149414 0.618256 0.090179
0.194916 0.618256 0.116058
0.243591 0.618256 0.143280
0.295349 0.618256 0.171936
0.350098 0.618256 0.201874
0.407623 0.618256 0.233124
0.466675 0.618256 0.265686
0.523987 0.618256 0.299500
0.576904 0.618256 0.334564
0.625244 0.618256 0.370758
0.662537 0.619995 0.372253
0.696808 0.621826 0.373688
0.728333 0.623627 0.375153
0.757141 0.625397 0.376587
0.783386 0.627197 0.378021
0.807129 0.628998 0.379456
0.828644 0.630737 0.380920
0.848145 0.632538 0.382355
0.865906 0.634277 0.383881
0.882111 0.636078 0.385315
0.896942 0.637756 0.386749
0.910492 0.639526 0.388245
0.923065 0.641205 0.389679
0.934692 0.642944 0.391144
0.945465 0.644653 0.392609
0.955658 0.646454 0.394043
0.965210 0.648102 0.395569
0.974396 0.649841 0.397034
0.000000 0.662323 0.000000
0.032501 0.662323 0.020569
0.068237 0.662323 0.042450
0.107178 0.662323 0.065643
0.149414 0.662323 0.090179
0.194916 0.662323 0.116058
0.243591 0.662323 0.143280
0.295349 0.662323 0.171936
0.350098 0.662323 0.201874
0.407623 0.662323 0.233124
0.466675 0.662323 0.265686
0.523987 0.662323 0.299500
0.576904 0.662323 0.334564
0.625244 0.662323 0.370758
0.669220 0.662323 0.408081
0.702972 0.663971 0.409607
0.733978 0.665588 0.411072
0.762268 0.667236 0.412567
0.787994 0.668884 0.414062
0.811310 0.670471 0.415558
0.832489 0.672089 0.416992
0.851624 0.673706 0.418518
0.869080 0.675323 0.419983
0.885010 0.676849 0.421539
0.899506 0.678497 0.423035
0.912933 0.680084 0.424561
0.925262 0.681702 0.426025
0.936737 0.683197 0.427521
0.947449 0.684814 0.429047
0.957489 0.686340 0.430511
0.966949 0.687958 0.432007
0.976074 0.689484 0.433533
0.000000 0.702332 0.000000
0.032501 0.702332 0.020569
0.068237 0.702332 0.042450
0.107178 0.702332 0.065643
0.149414 0.702332 0.090179
0.194916 0.702332 0.116058
0.243591 0.702332 0.143280
0.295349 0.702332 0.171936
0.350098 0.702332 0.201874
0.407623 0.702332 0.233124
0.466675 0.702332 0.265686
0.523987 0.702332 0.299500
0.576904 0.702332 0.334564
0.625244 0.702332 0.370758
0.669220 0.702332 0.408081
0.708954 0.702332 0.446167
0.739471 0.703827 0.447693
0.767273 0.705322 0.449188
0.792572 0.706848 0.450714
0.815491 0.708252 0.452118
0.836243 0.709747 0.453674
0.855042 0.711212 0.455109
0.872192 0.712646 0.456696
0.887848 0.714111 0.458069
0.902161 0.715546 0.459656
0.915344 0.716980 0.461060
0.927521 0.718414 0.462585
0.938812 0.719849 0.464020
0.949371 0.721252 0.465546
0.959320 0.722687 0.466949
0.968750 0.724121 0.468506
0.977722 0.725464 0.469910
0.000000 0.738556 0.000000
0.032501 0.738556 0.020569
0.068237 0.738556 0.042450
0.107178 0.738556 0.065643
0.149414 0.738556 0.090179
0.194916 0.738556 0.116058
0.243591 0.738556 0.143280
0.295349 0.738556 0.171936
0.350098 0.738556 0.201874
0.407623 0.738556 0.233124
0.466675 0.738556 0.265686
0.523987 0.738556 0.299500
0.576904 0.738556 0.334564
0.625244 0.738556 0.370758
0.669220 0.738556 0.408081
0.708954 0.738556 0.446167
0.744934 0.738556 0.483887
0.772247 0.739868 0.485352
0.797058 0.741211 0.486786
0.819550 0.742584 0.488281
0.839905 0.743896 0.489716
0.858398 0.745209 0.491180
0.875244 0.746521 0.492676
0.890656 0.747833 0.494110
0.904724 0.749115 0.495575
0.917725 0.750427 0.497040
0.929657 0.751709 0.498444
0.940857 0.753021 0.499908
0.951324 0.754303 0.501373
0.961090 0.755585 0.502777
0.970490 0.756836 0.504272
0.979431 0.758118 0.505707
0.000000 0.771027 0.000000
0.032501 0.771027 0.020569
0.068237 0.771027 0.042450
0.107178 0.771027 0.065643
0.149414 0.771027 0.090179
0.194916 0.771027 0.116058
0.243591 0.771027 0.143280
0.295349 0.771027 0.171936
0.350098 0.771027 0.201874
0.407623 0.771027 0.233124
0.466675 0.771027 0.265686
0.523987 0.771027 0.299500
0.576904 0.771027 0.334564
0.625244 0.771027 0.370758
0.669220 0.771027 0.408081
0.708954 0.771027 0.446167
0.744934 0.771027 0.483887
0.777130 0.771027 0.520569
0.801514 0.772247 0.522003
0.823547 0.773438 0.523376
0.843536 0.774658 0.524780
0.861664 0.775818 0.526215
0.878235 0.777008 0.527527
0.893372 0.778168 0.528961
0.907288 0.779358 0.530334
0.920044 0.780548 0.531738
0.931885 0.781677 0.533112
0.942871 0.782867 0.534454
0.953217 0.784027 0.535858
0.962921 0.785156 0.537231
0.972168 0.786316 0.538605
0.981079 0.787415 0.539917
0.000000 0.800110 0.000000
0.032501 0.800110 0.020569
0.068237 0.800110 0.042450
0.107178 0.800110 0.065643
0.149414 0.800110 0.090179
0.194916 0.800110 0.116058
0.243591 0.800110 0.143280
0.295349 0.800110 0.171936
0.350098 0.800110 0.201874
0.407623 0.800110 0.233124
0.466675 0.800110 0.265686
0.523987 0.800110 0.299500
0.576904 0.800110 0.334564
0.625244 0.800110 0.370758
0.669220 0.800110 0.408081
0.708954 0.800110 0.446167
0.744934 0.800110 0.483887
0.777130 0.800110 0.520569
0.805817 0.800110 0.555389
0.827454 0.801178 0.556671
0.847046 0.802216 0.557983
0.864899 0.803314 0.559357
0.881226 0.804321 0.560699
0.896088 0.805389 0.561951
0.909729 0.806427 0.563263
0.922333 0.807465 0.564575
0.933990 0.808533 0.565857
0.944855 0.809570 0.567169
0.955078 0.810577 0.568451
0.964661 0.811646 0.569824
0.973877 0.812622 0.571075
0.982727 0.813629 0.572449
0.000000 0.825958 0.000000
0.032501 0.825958 0.020569
0.068237 0.825958 0.042450
0.107178 0.825958 0.065643
0.149414 0.825958 0.090179
0.194916 0.825958 0.116058
0.243591 0.825958 0.143280
0.295349 0.825958 0.171936
0.350098 0.825958 0.201874
0.407623 0.825958 0.233124
0.466675 0.825958 0.265686
0.523987 0.825958 0.299500
0.576904 0.825958 0.334564
0.625244 0.825958 0.370758
0.669220 0.825958 0.408081
0.708954 0.825958 0.446167
0.744934 0.825958 0.483887
0.777130 0.825958 0.520569
0.805817 0.825958 0.555389
0.831268 0.825958 0.588226
0.850586 0.826843 0.589447
0.868073 0.827789 0.590698
0.884125 0.828796 0.591919
0.898743 0.829742 0.593231
0.912170 0.830658 0.594421
0.924591 0.831604 0.595673
0.936096 0.832520 0.596924
0.946838 0.833435 0.598114
0.956940 0.834381 0.599426
0.966461 0.835266 0.600555
0.975555 0.836212 0.601868
0.984344 0.837097 0.603027
0.000000 0.848938 0.000000
0.032501 0.848938 0.020569
0.068237 0.848938 0.042450
0.107178 0.848938 0.065643
0.149414 0.848938 0.090179
0.194916 0.848938 0.116058
0.243591 0.848938 0.143280
0.295349 0.848938 0.171936
0.350098 0.848938 0.201874
0.407623 0.848938 0.233124
0.466675 0.848938 0.265686
0.523987 0.848938 0.299500
0.576904 0.848938 0.334564
0.625244 0.848938 0.370758
0.669220 0.848938 0.408081
0.708954 0.848938 0.446167
0.744934 0.848938 0.483887
0.777130 0.848938 0.520569
0.805817 0.848938 0.555389
0.831268 0.848938 0.588226
0.854004 0.848938 0.619141
0.871216 0.849792 0.620392
0.886963 0.850647 0.621490
0.901337 0.851501 0.622711
0.914612 0.852325 0.623840
0.926819 0.853180 0.625031
0.938202 0.854034 0.626160
0.948761 0.854858 0.627350
0.958740 0.855652 0.628510
0.968170 0.856445 0.629669
0.977234 0.857330 0.630768
0.986023 0.858124 0.631989
0.000000 0.869568 0.000000
0.032501 0.869568 0.020569
0.068237 0.869568 0.042450
0.107178 0.869568 0.065643
0.149414 0.869568 0.090179
0.194916 0.869568 0.116058
0.243591 0.869568 0.143280
0.295349 0.869568 0.171936
0.350098 0.869568 0.201874
0.407623 0.869568 0.233124
0.466675 0.869568 0.265686
0.523987 0.869568 0.299500
0.576904 0.869568 0.334564
0.625244 0.869568 0.370758
0.669220 0.869568 0.408081
0.708954 0.869568 0.446167
0.744934 0.869568 0.483887
0.777130 0.869568 0.520569
0.805817 0.869568 0.555389
0.831268 0.869568 0.588226
0.854004 0.869568 0.619141
0.874268 0.869568 0.648285
0.889709 0.870361 0.649384
0.903931 0.871094 0.650482
0.916992 0.871826 0.651642
0.928986 0.872589 0.652710
0.940247 0.873352 0.653839
0.950684 0.874084 0.654846
0.960541 0.874847 0.655975
0.969910 0.875580 0.657013
0.978882 0.876343 0.658173
0.987610 0.877014 0.659210
0.000000 0.888031 0.000000
0.032501 0.888031 0.020569
0.068237 0.888031 0.042450
0.107178 0.888031 0.065643
0.149414 0.888031 0.090179
0.194916 0.888031 0.116058
0.243591 0.888031 0.143280
0.295349 0.888031 0.171936
0.350098 0.888031 0.201874
0.407623 0.888031 0.233124
0.466675 0.888031 0.265686
0.523987 0.888031 0.299500
0.576904 0.888031 0.334564
0.625244 0.888031 0.370758
0.669220 0.888031 0.408081
0.708954 0.888031 0.446167
0.744934 0.888031 0.483887
0.777130 0.888031 0.520569
0.805817 0.888031 0.555389
0.831268 0.888031 0.588226
0.854004 0.888031 0.619141
0.874268 0.888031 0.648285
0.892456 0.888031 0.675629
0.906494 0.888733 0.676697
0.919281 0.889374 0.677673
0.931183 0.890106 0.678772
0.942261 0.890778 0.679810
0.952576 0.891418 0.680847
0.962372 0.892120 0.681854
0.971649 0.892792 0.682861
0.980530 0.893494 0.683868
0.989258 0.894135 0.684906
0.000000 0.904724 0.000000
0.032501 0.904724 0.020569
0.068237 0.904724 0.042450
0.107178 0.904724 0.065643
0.149414 0.904724 0.090179
0.194916 0.904724 0.116058
0.243591 0.904724 0.143280
0.295349 0.904724 0.171936
0.350098 0.904724 0.201874
0.407623 0.904724 0.233124
0.466675 0.904724 0.265686
0.523987 0.904724 0.299500
0.576904 0.904724 0.334564
0.625244 0.904724 0.370758
0.669220 0.904724 0.408081
0.708954 0.904724 0.446167
0.744934 0.904724 0.483887
0.777130 0.904724 0.520569
0.805817 0.904724 0.555389
0.831268 0.904724 0.588226
0.854004 0.904724 0.619141
0.874268 0.904724 0.648285
0.892456 0.904724 0.675629
0.908966 0.904724 0.701263
0.921600 0.905334 0.702301
0.933319 0.905975 0.703217
0.944214 0.906586 0.704285
0.954498 0.907196 0.705170
0.964111 0.907806 0.706177
0.973358 0.908447 0.707092
0.982208 0.909058 0.708099
0.990845 0.909637 0.709015
0.000000 0.919922 0.000000
0.032501 0.919922 0.020569
0.068237 0.919922 0.042450
0.107178 0.919922 0.065643
0.149414 0.919922 0.090179
0.194916 0.919922 0.116058
0.243591 0.919922 0.143280
0.295349 0.919922 0.171936
0.350098 0.919922 0.201874
0.407623 0.919922 0.233124
0.466675 0.919922 0.265686
0.523987 0.919922 0.299500
0.576904 0.919922 0.334564
0.625244 0.919922 0.370758
0.669220 0.919922 0.408081
0.708954 0.919922 0.446167
0.744934 0.919922 0.483887
0.777130 0.919922 0.520569
0.805817 0.919922 0.555389
0.831268 0.919922 0.588226
0.854004 0.919922 0.619141
0.874268 0.919922 0.648285
0.892456 0.919922 0.675629
0.908966 0.919922 0.701263
0.923828 0.919922 0.725311
0.935455 0.920471 0.726257
0.946228 0.921021 0.727173
0.956360 0.921570 0.728058
0.965912 0.922119 0.729004
0.975006 0.922699 0.729858
0.983856 0.923248 0.730774
0.992462 0.923737 0.731689
0.000000 0.933655 0.000000
0.032501 0.933655 0.020569
0.068237 0.933655 0.042450
0.107178 0.933655 0.065643
0.149414 0.933655 0.090179
0.194916 0.933655 0.116058
0.243591 0.933655 0.143280
0.295349 0.933655 0.171936
0.350098 0.933655 0.201874
0.407623 0.933655 0.233124
0.466675 0.933655 0.265686
0.523987 0.933655 0.299500
0.576904 0.933655 0.334564
0.625244 0.933655 0.370758
0.669220 0.933655 0.408081
0.708954 0.933655 0.446167
0.744934 0.933655 0.483887
0.777130 0.933655 0.520569
0.805817 0.933655 0.555389
0.831268 0.933655 0.588226
0.854004 0.933655 0.619141
0.874268 0.933655 0.648285
0.892456 0.933655 0.675629
0.908966 0.933655 0.701263
0.923828 0.933655 0.725311
0.937469 0.933655 0.747803
0.948181 0.934265 0.748627
0.958130 0.934723 0.749481
0.967651 0.935211 0.750336
0.976685 0.935760 0.751221
0.985504 0.936310 0.752045
0.994080 0.936798 0.752869
0.000000 0.946350 0.000000
0.032501 0.946350 0.020569
0.068237 0.946350 0.042450
0.107178 0.946350 0.065643
0.149414 0.946350 0.090179
0.194916 0.946350 0.116058
0.243591 0.946350 0.143280
0.295349 0.946350 0.171936
0.350098 0.946350 0.201874
0.407623 0.946350 0.233124
0.466675 0.946350 0.265686
0.523987 0.946350 0.299500
0.576904 0.946350 0.334564
0.625244 0.946350 0.370758
0.669220 0.946350 0.408081
0.708954 0.946350 0.446167
0.744934 0.946350 0.483887
0.777130 0.946350 0.520569
0.805817 0.946350 0.555389
0.831268 0.946350 0.588226
0.854004 0.946350 0.619141
0.874268 0.946350 0.648285
0.892456 0.946350 0.675629
0.908966 0.946350 0.701263
0.923828 0.946350 0.725311
0.937469 0.946350 0.747803
0.950073 0.946350 0.768738
0.959991 0.946899 0.769531
0.969360 0.947357 0.770325
0.978394 0.947815 0.771118
0.987091 0.948334 0.771881
0.995667 0.948822 0.772644
0.000000 0.958191 0.000000
0.032501 0.958191 0.020569
0.068237 0.958191 0.042450
0.107178 0.958191 0.065643
0.149414 0.958191 0.090179
0.194916 0.958191 0.116058
0.243591 0.958191 0.143280
0.295349 0.958191 0.171936
0.350098 0.958191 0.201874
0.407623 0.958191 0.233124
0.466675 0.958191 0.265686
0.523987 0.958191 0.299500
0.576904 0.958191 0.334564
0.625244 0.958191 0.370758
0.669220 0.958191 0.408081
0.708954 0.958191 0.446167
0.744934 0.958191 0.483887
0.777130 0.958191 0.520569
