portrait-pop-6.CUBE
#Created by: Adobe Photoshop Export Color Lookup Plugin
TITLE "pp-6"
#LUT size
LUT_3D_SIZE 32
#data domain
DOMAIN_MIN 0.0 0.0 0.0
DOMAIN_MAX 1.0 1.0 1.0
#LUT data points
0.000000 0.000000 0.000000
0.065186 0.000000 0.012268
0.128662 0.000000 0.024567
0.190643 0.000000 0.036957
0.251221 0.000000 0.049438
0.310272 0.000000 0.062012
0.367279 0.000000 0.074585
0.421844 0.000000 0.087067
0.473572 0.000000 0.099304
0.522125 0.000000 0.111237
0.567322 0.000000 0.122742
0.608948 0.000000 0.133759
0.647003 0.000000 0.144165
0.681793 0.000000 0.154053
0.713562 0.000000 0.163391
0.742737 0.000000 0.172241
0.769440 0.000000 0.180664
0.793945 0.000000 0.188629
0.816437 0.000000 0.196167
0.837158 0.000000 0.203339
0.856293 0.000000 0.210175
0.873962 0.000000 0.216675
0.890350 0.000000 0.222900
0.905609 0.000000 0.228851
0.919861 0.000000 0.234589
0.933197 0.000000 0.240112
0.945770 0.000000 0.245453
0.957642 0.000000 0.250671
0.968933 0.000000 0.255737
0.979706 0.000000 0.260742
0.990021 0.000000 0.265686
1.000000 0.000000 0.270599
0.000000 0.075989 0.000000
0.045319 0.045319 0.000000
0.109772 0.043243 0.012299
0.172668 0.041199 0.024689
0.234222 0.039093 0.037170
0.294250 0.036987 0.049774
0.352234 0.034882 0.062317
0.407745 0.032806 0.074799
0.460419 0.030731 0.087036
0.509857 0.028748 0.098969
0.555969 0.026825 0.110474
0.598450 0.024963 0.121490
0.637268 0.023224 0.131897
0.672821 0.021576 0.141785
0.705322 0.020020 0.151123
0.735168 0.018524 0.160004
0.762543 0.017120 0.168396
0.787659 0.015778 0.176361
0.810730 0.014526 0.183899
0.832001 0.013306 0.191071
0.851654 0.012177 0.197906
0.869812 0.011078 0.204407
0.886688 0.010040 0.210632
0.902405 0.009033 0.216583
0.917084 0.008087 0.222321
0.930847 0.007172 0.227844
0.943848 0.006256 0.233185
0.956116 0.005402 0.238403
0.967773 0.004547 0.243469
0.978943 0.003693 0.248474
0.989655 0.002869 0.253418
1.000000 0.002045 0.258331
0.000000 0.150574 0.000000
0.043854 0.120605 0.000000
0.090790 0.090790 0.000000
0.154663 0.086639 0.012390
0.217194 0.082458 0.024872
0.278168 0.078217 0.037445
0.337097 0.074005 0.050018
0.393585 0.069824 0.062500
0.447205 0.065704 0.074738
0.497589 0.061707 0.086670
0.544586 0.057861 0.098175
0.587891 0.054169 0.109192
0.627533 0.050659 0.119598
0.663849 0.047363 0.129486
0.697083 0.044220 0.138824
0.727600 0.041229 0.147675
0.755585 0.038422 0.156097
0.781342 0.035736 0.164062
0.804993 0.033203 0.171600
0.826813 0.030792 0.178772
0.846985 0.028503 0.185608
0.865662 0.026337 0.192108
0.882996 0.024261 0.198334
0.899170 0.022247 0.204285
0.914307 0.020325 0.210022
0.928497 0.018463 0.215546
0.941895 0.016693 0.220886
0.954590 0.014923 0.226074
0.966644 0.013214 0.231171
0.978180 0.011536 0.236176
0.989258 0.009888 0.241119
1.000000 0.008240 0.246033
0.000000 0.224152 0.000000
0.042389 0.194824 0.000000
0.087830 0.165558 0.000000
0.136536 0.136536 0.000000
0.200012 0.131012 0.012482
0.261993 0.125458 0.025085
0.321899 0.119904 0.037659
0.379333 0.114410 0.050110
0.433899 0.109009 0.062347
0.485229 0.103729 0.074280
0.533112 0.098633 0.085815
0.577271 0.093781 0.096802
0.617737 0.089172 0.107208
0.654785 0.084808 0.117096
0.688751 0.080688 0.126434
0.719971 0.076782 0.135315
0.748627 0.073059 0.143707
0.774963 0.069550 0.151672
0.799225 0.066223 0.159210
0.821594 0.063049 0.166412
0.842316 0.060028 0.173218
0.861481 0.057159 0.179749
0.879303 0.054413 0.185944
0.895935 0.051788 0.191895
0.911499 0.049255 0.197632
0.926147 0.046814 0.203156
0.939941 0.044464 0.208496
0.953033 0.042145 0.213715
0.965485 0.039917 0.218811
0.977417 0.037689 0.223816
0.988892 0.035522 0.228729
1.000000 0.033356 0.233643
0.000000 0.295654 0.000000
0.040924 0.267517 0.000000
0.084930 0.239227 0.000000
0.132111 0.210968 0.000000
0.182709 0.182709 0.000000
0.245667 0.177460 0.012573
0.306549 0.172180 0.025146
0.364990 0.166992 0.037628
0.420502 0.161865 0.049866
0.472748 0.156891 0.061798
0.521515 0.152069 0.073303
0.566559 0.147461 0.084320
0.607819 0.143097 0.094727
0.645660 0.138977 0.104614
0.680359 0.135071 0.113953
0.712250 0.131378 0.122803
0.741577 0.127838 0.131226
0.768555 0.124512 0.139191
0.793396 0.121368 0.146729
0.816315 0.118378 0.153900
0.837585 0.115509 0.160736
0.857269 0.112793 0.167236
0.875580 0.110199 0.173462
0.892670 0.107697 0.179413
0.908691 0.105316 0.185150
0.923737 0.102997 0.190674
0.937988 0.100769 0.196014
0.951477 0.098602 0.201202
0.964325 0.096466 0.206299
0.976654 0.094360 0.211304
0.988495 0.092316 0.216248
1.000000 0.090240 0.221161
0.000000 0.363708 0.000000
0.039459 0.337280 0.000000
0.081940 0.310516 0.000000
0.127625 0.283600 0.000000
0.176727 0.256439 0.000000
0.229218 0.229218 0.000000
0.291107 0.224274 0.012573
0.350494 0.219360 0.025024
0.406982 0.214508 0.037262
0.460175 0.209808 0.049194
0.509857 0.205292 0.060730
0.555756 0.200928 0.071716
0.597839 0.196838 0.082153
0.636475 0.192932 0.092010
0.671906 0.189240 0.101379
0.704498 0.185760 0.110229
0.734497 0.182434 0.118622
0.762085 0.179291 0.126587
0.787506 0.176331 0.134155
0.811035 0.173492 0.141327
0.832794 0.170807 0.148163
0.852997 0.168243 0.154663
0.871796 0.165802 0.160889
0.889374 0.163452 0.166840
0.905853 0.161194 0.172546
0.921326 0.158997 0.178070
0.936005 0.156891 0.183441
0.949890 0.154846 0.188629
0.963135 0.152832 0.193726
0.975861 0.150879 0.198730
0.988098 0.148926 0.203674
1.000000 0.146973 0.208588
0.000000 0.427307 0.000000
0.038025 0.402985 0.000000
0.079010 0.378174 0.000000
0.123199 0.352997 0.000000
0.170746 0.327454 0.000000
0.221710 0.301666 0.000000
0.275665 0.275665 0.000000
0.336060 0.271057 0.012451
0.393494 0.266510 0.024719
0.447632 0.262085 0.036621
0.498230 0.257812 0.048157
0.544983 0.253754 0.059143
0.587891 0.249878 0.069580
0.627289 0.246216 0.079437
0.663452 0.242767 0.088806
0.696747 0.239471 0.097656
0.727417 0.236359 0.106079
0.755615 0.233429 0.114014
0.781647 0.230621 0.121582
0.805725 0.227966 0.128754
0.828033 0.225433 0.135590
0.848755 0.223022 0.142090
0.868042 0.220734 0.148315
0.886108 0.218506 0.154266
0.903015 0.216400 0.160004
0.918945 0.214355 0.165497
0.934021 0.212372 0.170868
0.948334 0.210449 0.176056
0.961975 0.208557 0.181152
0.975098 0.206696 0.186157
0.987732 0.204865 0.191101
1.000000 0.203064 0.196014
0.000000 0.485626 0.000000
0.036530 0.463654 0.000000
0.076080 0.441132 0.000000
0.118774 0.418060 0.000000
0.164795 0.394531 0.000000
0.214172 0.370544 0.000000
0.266663 0.346283 0.000000
0.321716 0.321716 0.000000
0.380127 0.317474 0.012238
0.435181 0.313324 0.024170
0.486694 0.309326 0.035706
0.534302 0.305511 0.046692
0.578033 0.301910 0.057098
0.618195 0.298492 0.066986
0.655090 0.295227 0.076324
0.689087 0.292175 0.085205
0.720398 0.289246 0.093597
0.749237 0.286469 0.101562
0.775848 0.283875 0.109100
0.800476 0.281372 0.116302
0.823334 0.278992 0.123108
0.844543 0.276733 0.129639
0.864319 0.274597 0.135834
0.882843 0.272522 0.141785
0.900208 0.270538 0.147522
0.916565 0.268616 0.153046
0.932037 0.266754 0.158386
0.946747 0.264954 0.163605
0.960815 0.263184 0.168701
0.974335 0.261475 0.173706
0.987335 0.259735 0.178619
1.000000 0.258057 0.183533
0.000000 0.538116 0.000000
0.035065 0.518585 0.000000
0.073151 0.498474 0.000000
0.114380 0.477814 0.000000
0.158783 0.456604 0.000000
0.206696 0.434845 0.000000
0.257721 0.412628 0.000000
0.311340 0.389954 0.000000
0.366974 0.366974 0.000000
0.422943 0.363098 0.011932
0.475342 0.359375 0.023438
0.523804 0.355835 0.034454
0.568329 0.352448 0.044861
0.609253 0.349243 0.054749
0.646881 0.346222 0.064087
0.681519 0.343353 0.072937
0.713470 0.340637 0.081360
0.742950 0.338043 0.089325
0.770142 0.335602 0.096863
0.795319 0.333282 0.104034
0.818695 0.331085 0.110870
0.840424 0.328979 0.117371
0.860657 0.326965 0.123596
0.879639 0.325012 0.129547
0.897430 0.323181 0.135284
0.914215 0.321381 0.140808
0.930115 0.319641 0.146149
0.945221 0.317963 0.151367
0.959686 0.316315 0.156433
0.973572 0.314697 0.161438
0.986969 0.313110 0.166382
1.000000 0.311523 0.171295
0.000000 0.585327 0.000000
0.033600 0.567963 0.000000
0.070251 0.550079 0.000000
0.109924 0.531769 0.000000
0.152863 0.512878 0.000000
0.199188 0.493500 0.000000
0.248688 0.473633 0.000000
0.300995 0.453217 0.000000
0.355377 0.432373 0.000000
0.411041 0.411041 0.000000
0.464294 0.407562 0.011505
0.513580 0.404266 0.022522
0.558868 0.401123 0.032928
0.600555 0.398132 0.042816
0.638855 0.395325 0.052155
0.674164 0.392670 0.061035
0.706757 0.390137 0.069427
0.736816 0.387726 0.077393
0.764557 0.385468 0.084930
0.790283 0.383301 0.092133
0.814178 0.381226 0.098938
0.836395 0.379272 0.105469
0.857117 0.377411 0.111664
0.876495 0.375610 0.117615
0.894745 0.373871 0.123352
0.911926 0.372223 0.128876
0.928223 0.370605 0.134216
0.943726 0.369049 0.139435
0.958557 0.367523 0.144501
0.972839 0.365997 0.149506
0.986603 0.364502 0.154449
1.000000 0.363037 0.159363
0.000000 0.627869 0.000000
0.032135 0.612366 0.000000
0.067261 0.596497 0.000000
0.105499 0.580200 0.000000
0.146912 0.563477 0.000000
0.191711 0.546295 0.000000
0.239716 0.528687 0.000000
0.290588 0.510620 0.000000
0.343689 0.492126 0.000000
0.398895 0.473114 0.000000
0.453613 0.453613 0.000000
0.503693 0.450531 0.010986
0.549744 0.447632 0.021423
0.592133 0.444855 0.031311
0.631134 0.442261 0.040649
0.667084 0.439789 0.049500
0.700256 0.437439 0.057922
0.730896 0.435211 0.065887
0.759186 0.433105 0.073425
0.785431 0.431091 0.080597
0.809814 0.429169 0.087433
0.832489 0.427368 0.093933
0.853668 0.425629 0.100159
0.873505 0.423950 0.106110
0.892151 0.422363 0.111847
0.909729 0.420807 0.117340
0.926422 0.419312 0.122711
0.942291 0.417877 0.127899
0.957489 0.416443 0.132996
0.972107 0.415039 0.138000
0.986237 0.413666 0.142944
1.000000 0.412292 0.147858
0.000000 0.666199 0.000000
0.030701 0.652405 0.000000
0.064362 0.638245 0.000000
0.101074 0.623779 0.000000
0.140961 0.608948 0.000000
0.184174 0.593719 0.000000
0.230713 0.578156 0.000000
0.280121 0.562164 0.000000
0.332001 0.545807 0.000000
0.386566 0.529053 0.000000
0.442413 0.511871 0.000000
0.494263 0.494263 0.000000
0.541046 0.491577 0.010406
0.584106 0.489014 0.020294
0.623749 0.486603 0.029633
0.660309 0.484314 0.038513
0.694061 0.482117 0.046906
0.725250 0.480072 0.054871
0.754059 0.478119 0.062408
0.780792 0.476257 0.069611
0.805634 0.474487 0.076416
0.828766 0.472809 0.082947
0.850372 0.471222 0.089142
0.870605 0.469666 0.095093
0.889679 0.468201 0.100830
0.907623 0.466766 0.106354
0.924683 0.465363 0.111694
0.940918 0.464020 0.116913
0.956451 0.462708 0.122009
0.971436 0.461426 0.127014
0.985901 0.460144 0.131927
1.000000 0.458862 0.136841
0.000000 0.700836 0.000000
0.029236 0.688507 0.000000
0.061432 0.675934 0.000000
0.096649 0.663055 0.000000
0.135040 0.649902 0.000000
0.176727 0.636383 0.000000
0.221710 0.622589 0.000000
0.269684 0.608490 0.000000
0.320251 0.594055 0.000000
0.374176 0.579254 0.000000
0.431122 0.564117 0.000000
0.484161 0.548615 0.000000
0.532776 0.532776 0.000000
0.576477 0.530426 0.009888
0.616730 0.528168 0.019226
0.653870 0.526062 0.028076
0.688202 0.524048 0.036499
0.719879 0.522156 0.044464
0.749207 0.520355 0.052002
0.776398 0.518646 0.059174
0.801697 0.516998 0.066010
0.825256 0.515442 0.072510
0.847260 0.513947 0.078735
0.867889 0.512543 0.084686
0.887329 0.511169 0.090424
0.905640 0.509857 0.095947
0.923035 0.508575 0.101288
0.939606 0.507324 0.106476
0.955505 0.506104 0.111572
0.970795 0.504913 0.116577
0.985596 0.503723 0.121521
1.000000 0.502563 0.126434
0.000000 0.732178 0.000000
0.027771 0.721222 0.000000
0.058502 0.709961 0.000000
0.092255 0.698517 0.000000
0.129150 0.686829 0.000000
0.169250 0.674866 0.000000
0.212677 0.662659 0.000000
0.259216 0.650146 0.000000
0.308411 0.637421 0.000000
0.361725 0.624390 0.000000
0.419708 0.611053 0.000000
0.473877 0.597443 0.000000
0.523682 0.583496 0.000000
0.569275 0.569275 0.000000
0.610107 0.567230 0.009338
0.647797 0.565277 0.018219
0.682617 0.563416 0.026611
0.714813 0.561646 0.034576
0.744598 0.559998 0.042114
0.772247 0.558411 0.049286
0.797974 0.556915 0.056122
0.821930 0.555481 0.062622
0.844299 0.554108 0.068848
0.865295 0.552795 0.074799
0.885101 0.551544 0.080536
0.903748 0.550323 0.086060
0.921478 0.549133 0.091400
0.938385 0.548004 0.096619
0.954559 0.546875 0.101685
0.970184 0.545776 0.106689
0.985291 0.544678 0.111633
1.000000 0.543610 0.116547
0.000000 0.760651 0.000000
0.026306 0.750824 0.000000
0.055573 0.740845 0.000000
0.087830 0.730621 0.000000
0.123199 0.720215 0.000000
0.161804 0.709625 0.000000
0.203674 0.698792 0.000000
0.248688 0.687744 0.000000
0.296509 0.676483 0.000000
0.349121 0.664978 0.000000
0.408142 0.653259 0.000000
0.463501 0.641296 0.000000
0.514465 0.629059 0.000000
0.561066 0.616577 0.000000
0.603821 0.603821 0.000000
0.642029 0.602020 0.008850
0.677368 0.600311 0.017273
0.710022 0.598694 0.025238
0.740234 0.597168 0.032776
0.768311 0.595734 0.039948
0.794434 0.594330 0.046783
0.818756 0.593018 0.053284
0.841522 0.591766 0.059509
0.862854 0.590546 0.065460
0.882965 0.589386 0.071198
0.901947 0.588287 0.076721
0.920013 0.587189 0.082062
0.937225 0.586151 0.087250
0.953705 0.585114 0.092346
0.969604 0.584076 0.097351
0.984985 0.583099 0.102295
1.000000 0.582092 0.107208
0.000000 0.786530 0.000000
0.024872 0.777771 0.000000
0.052673 0.768829 0.000000
0.083435 0.759735 0.000000
0.117310 0.750488 0.000000
0.154358 0.741058 0.000000
0.194702 0.731476 0.000000
0.238220 0.721710 0.000000
0.284637 0.711761 0.000000
0.336456 0.701630 0.000000
0.396515 0.691284 0.000000
0.452942 0.680756 0.000000
0.505127 0.670013 0.000000
0.552826 0.659088 0.000000
0.596527 0.647949 0.000000
0.636566 0.636566 0.000000
0.672363 0.635010 0.008392
0.705475 0.633514 0.016357
0.736115 0.632111 0.023926
0.764557 0.630798 0.031097
0.791077 0.629517 0.037933
0.815765 0.628296 0.044434
0.838867 0.627136 0.050659
0.860535 0.626038 0.056610
0.880981 0.624969 0.062317
0.900269 0.623962 0.067841
0.918610 0.622955 0.073212
0.936096 0.621979 0.078400
0.952881 0.621033 0.083496
0.969055 0.620117 0.088501
0.984711 0.619202 0.093445
1.000000 0.618286 0.098358
0.000000 0.810150 0.000000
0.023407 0.802307 0.000000
0.049713 0.794312 0.000000
0.079010 0.786255 0.000000
0.111389 0.778015 0.000000
0.146912 0.769623 0.000000
0.185699 0.761139 0.000000
0.227722 0.752502 0.000000
0.272675 0.743713 0.000000
0.323730 0.734772 0.000000
0.384705 0.725647 0.000000
0.442261 0.716431 0.000000
0.495636 0.706970 0.000000
0.544464 0.697418 0.000000
0.589111 0.687653 0.000000
0.630066 0.677734 0.000000
0.667633 0.667633 0.000000
0.701141 0.666290 0.007965
0.732178 0.665009 0.015503
0.761017 0.663788 0.022675
0.787872 0.662628 0.029510
0.812927 0.661499 0.036011
0.836365 0.660461 0.042236
0.858337 0.659454 0.048187
0.879089 0.658478 0.053925
0.898651 0.657532 0.059448
0.917297 0.656616 0.064789
0.935059 0.655731 0.070007
0.952087 0.654877 0.075073
0.968536 0.654022 0.080078
0.984467 0.653168 0.085022
1.000000 0.652344 0.089935
0.000000 0.831757 0.000000
0.021912 0.824738 0.000000
0.046783 0.817627 0.000000
0.074615 0.810364 0.000000
0.105499 0.803070 0.000000
0.139496 0.795654 0.000000
0.176697 0.788086 0.000000
0.217194 0.780457 0.000000
0.260712 0.772675 0.000000
0.310913 0.764801 0.000000
0.372894 0.756775 0.000000
0.431519 0.748688 0.000000
0.486023 0.740387 0.000000
0.535980 0.731995 0.000000
0.581635 0.723480 0.000000
0.623474 0.714813 0.000000
0.661835 0.705994 0.000000
0.697052 0.697052 0.000000
0.728455 0.695892 0.007538
0.757660 0.694763 0.014709
0.784851 0.693726 0.021545
0.810242 0.692719 0.028046
0.833984 0.691742 0.034271
0.856262 0.690826 0.040222
0.877289 0.689941 0.045959
0.897125 0.689087 0.051483
0.916046 0.688232 0.056824
0.934052 0.687439 0.062042
0.951355 0.686646 0.067108
0.968048 0.685883 0.072113
0.984222 0.685120 0.077057
1.000000 0.684357 0.081970
0.000000 0.851532 0.000000
0.020447 0.845215 0.000000
0.043854 0.838898 0.000000
0.070251 0.832458 0.000000
0.099640 0.825928 0.000000
0.132111 0.819366 0.000000
0.167755 0.812653 0.000000
0.206665 0.805908 0.000000
0.248688 0.799042 0.000000
0.298096 0.792084 0.000000
0.360992 0.785065 0.000000
0.420624 0.777924 0.000000
0.476349 0.770660 0.000000
0.527405 0.763336 0.000000
0.574097 0.755890 0.000000
0.616791 0.748322 0.000000
0.655975 0.740631 0.000000
0.691895 0.732849 0.000000
0.724945 0.724945 0.000000
0.754486 0.723938 0.007172
0.782013 0.722961 0.014008
0.807678 0.722046 0.020508
0.831726 0.721191 0.026733
0.854279 0.720337 0.032684
0.875580 0.719543 0.038422
0.895691 0.718750 0.043945
0.914856 0.718018 0.049286
0.933105 0.717285 0.054474
0.950653 0.716553 0.059570
0.967590 0.715851 0.064575
0.983978 0.715149 0.069519
1.000000 0.714478 0.074432
0.000000 0.869659 0.000000
0.018982 0.864075 0.000000
0.040924 0.858429 0.000000
0.065796 0.852692 0.000000
0.093689 0.846893 0.000000
0.124664 0.841064 0.000000
0.158783 0.835144 0.000000
0.196198 0.829163 0.000000
0.236694 0.823120 0.000000
0.285187 0.816986 0.000000
0.348969 0.810791 0.000000
0.409668 0.804535 0.000000
0.466492 0.798187 0.000000
0.518707 0.791779 0.000000
0.566437 0.785278 0.000000
0.610107 0.778687 0.000000
0.650085 0.772034 0.000000
0.686768 0.765228 0.000000
0.720428 0.758423 0.000000
0.751465 0.751465 0.000000
0.779297 0.750610 0.006836
0.805267 0.749756 0.013336
0.829590 0.748993 0.019562
0.852417 0.748230 0.025513
0.873962 0.747498 0.031250
0.894318 0.746796 0.036743
0.913727 0.746124 0.042114
0.932220 0.745453 0.047302
0.949982 0.744812 0.052399
0.967133 0.744171 0.057404
0.983765 0.743530 0.062347
1.000000 0.742920 0.067261
0.000000 0.886383 0.000000
0.017517 0.881378 0.000000
0.037964 0.876373 0.000000
0.061432 0.871277 0.000000
0.087830 0.866119 0.000000
0.117310 0.860962 0.000000
0.149872 0.855743 0.000000
0.185699 0.850494 0.000000
0.224731 0.845154 0.000000
0.272247 0.839783 0.000000
0.336884 0.834320 0.000000
0.398560 0.828857 0.000000
0.456512 0.823334 0.000000
0.509918 0.817719 0.000000
0.558716 0.812042 0.000000
0.603302 0.806335 0.000000
0.644135 0.800537 0.000000
0.681519 0.794678 0.000000
0.715881 0.788757 0.000000
0.747498 0.782745 0.000000
0.776703 0.776703 0.000000
0.802948 0.775970 0.006500
0.827545 0.775238 0.012726
0.850616 0.774567 0.018677
0.872437 0.773926 0.024414
0.893005 0.773285 0.029938
0.912628 0.772675 0.035278
0.931366 0.772064 0.040466
0.949341 0.771484 0.045563
0.966705 0.770935 0.050568
0.983551 0.770355 0.055511
1.000000 0.769806 0.060425
0.000000 0.901764 0.000000
0.016083 0.897339 0.000000
0.035065 0.892853 0.000000
0.057037 0.888367 0.000000
0.081940 0.883850 0.000000
0.109924 0.879303 0.000000
0.140961 0.874695 0.000000
0.175201 0.870056 0.000000
0.212677 0.865387 0.000000
0.259308 0.860687 0.000000
0.324738 0.855927 0.000000
0.387390 0.851135 0.000000
0.446442 0.846313 0.000000
0.501007 0.841461 0.000000
0.550842 0.836517 0.000000
0.596405 0.831573 0.000000
0.638092 0.826569 0.000000
0.676270 0.821503 0.000000
0.711304 0.816376 0.000000
0.743530 0.811218 0.000000
0.773254 0.806030 0.000000
0.800751 0.800751 0.000000
0.825592 0.800110 0.006226
0.848907 0.799500 0.012177
0.870941 0.798920 0.017914
0.891785 0.798370 0.023407
0.911621 0.797821 0.028778
0.930542 0.797302 0.033966
0.948730 0.796783 0.039062
0.966309 0.796265 0.044067
0.983337 0.795746 0.049011
1.000000 0.795258 0.053925
0.000000 0.915955 0.000000
0.014618 0.912048 0.000000
0.032135 0.908142 0.000000
0.052612 0.904144 0.000000
0.076080 0.900177 0.000000
0.102570 0.896210 0.000000
0.132111 0.892181 0.000000
0.164795 0.888123 0.000000
0.200684 0.884033 0.000000
0.246338 0.879944 0.000000
0.312531 0.875793 0.000000
0.376160 0.871674 0.000000
0.436279 0.867462 0.000000
0.491974 0.863220 0.000000
0.542938 0.859009 0.000000
0.589447 0.854706 0.000000
0.632019 0.850372 0.000000
0.670990 0.846039 0.000000
0.706665 0.841644 0.000000
0.739502 0.837219 0.000000
0.769775 0.832764 0.000000
0.797760 0.828247 0.000000
0.823730 0.823730 0.000000
0.847290 0.823181 0.005951
0.869537 0.822662 0.011688
0.890594 0.822174 0.017212
0.910645 0.821686 0.022552
0.929779 0.821228 0.027740
0.948151 0.820770 0.032837
0.965942 0.820312 0.037842
0.983154 0.819885 0.042786
1.000000 0.819427 0.047699
0.000000 0.929047 0.000000
0.013153 0.925598 0.000000
0.029236 0.922180 0.000000
0.048248 0.918732 0.000000
0.070251 0.915253 0.000000
0.095184 0.911804 0.000000
0.123199 0.908295 0.000000
0.154358 0.904785 0.000000
0.188690 0.901245 0.000000
0.233307 0.897705 0.000000
0.300262 0.894165 0.000000
0.364807 0.890533 0.000000
0.425934 0.886932 0.000000
0.482849 0.883301 0.000000
0.534912 0.879669 0.000000
0.582428 0.875977 0.000000
0.625885 0.872284 0.000000
0.665619 0.868591 0.000000
0.702026 0.864838 0.000000
0.735474 0.861084 0.000000
0.766296 0.857269 0.000000
0.794769 0.853455 0.000000
0.821167 0.849609 0.000000
0.845734 0.845734 0.000000
0.868195 0.845276 0.005737
0.889435 0.844849 0.011261
0.909698 0.844421 0.016602
0.929016 0.844025 0.021790
0.947601 0.843597 0.026886
0.965576 0.843201 0.031891
0.982971 0.842834 0.036835
1.000000 0.842438 0.041748
0.000000 0.941040 0.000000
0.011688 0.938080 0.000000
0.026306 0.935120 0.000000
0.043854 0.932159 0.000000
0.064362 0.929199 0.000000
0.087830 0.926208 0.000000
0.114319 0.923218 0.000000
0.143921 0.920197 0.000000
0.176697 0.917145 0.000000
0.220306 0.914154 0.000000
0.287964 0.911072 0.000000
0.353394 0.908020 0.000000
0.415558 0.904938 0.000000
0.473602 0.901855 0.000000
0.526794 0.898773 0.000000
0.575317 0.895660 0.000000
0.619659 0.892548 0.000000
0.660187 0.889374 0.000000
0.697327 0.886200 0.000000
0.731384 0.883026 0.000000
0.762756 0.879852 0.000000
0.791718 0.876648 0.000000
0.818573 0.873413 0.000000
0.843567 0.870178 0.000000
0.866913 0.866913 0.000000
0.888367 0.866547 0.005524
0.908783 0.866180 0.010864
0.928314 0.865814 0.016083
0.947083 0.865479 0.021149
0.965210 0.865143 0.026154
0.982788 0.864807 0.031097
1.000000 0.864471 0.036011
0.000000 0.952118 0.000000
0.010254 0.949615 0.000000
0.023407 0.947113 0.000000
0.039459 0.944580 0.000000
0.058502 0.942078 0.000000
0.080475 0.939545 0.000000
0.105499 0.937012 0.000000
0.133575 0.934479 0.000000
0.164795 0.931946 0.000000
0.207336 0.929352 0.000000
0.275635 0.926819 0.000000
0.341919 0.924255 0.000000
0.405090 0.921692 0.000000
0.464264 0.919098 0.000000
0.518585 0.916473 0.000000
0.568115 0.913879 0.000000
0.613403 0.911255 0.000000
0.654724 0.908630 0.000000
0.692566 0.906006 0.000000
0.727295 0.903381 0.000000
0.759216 0.900726 0.000000
0.788666 0.898071 0.000000
0.815979 0.895386 0.000000
0.841339 0.892731 0.000000
0.865051 0.890045 0.000000
0.887299 0.887299 0.000000
0.907928 0.886993 0.005341
0.927612 0.886688 0.010559
0.946564 0.886383 0.015656
0.964874 0.886108 0.020630
0.982635 0.885834 0.025574
1.000000 0.885529 0.030487
0.000000 0.962250 0.000000
0.008789 0.960175 0.000000
0.020447 0.958099 0.000000
0.035065 0.956024 0.000000
0.052612 0.953949 0.000000
0.073151 0.951874 0.000000
0.096649 0.949768 0.000000
0.123199 0.947693 0.000000
0.152863 0.945618 0.000000
0.194305 0.943481 0.000000
0.263245 0.941406 0.000000
0.330383 0.939301 0.000000
0.394531 0.937195 0.000000
0.454803 0.935059 0.000000
0.510284 0.932953 0.000000
0.560852 0.930817 0.000000
0.607086 0.928711 0.000000
0.649200 0.926544 0.000000
0.687775 0.924408 0.000000
0.723145 0.922272 0.000000
0.755615 0.920105 0.000000
0.785614 0.917969 0.000000
0.813354 0.915802 0.000000
0.839142 0.913635 0.000000
0.863190 0.911469 0.000000
0.885773 0.909271 0.000000
0.907074 0.907074 0.000000
0.926941 0.906830 0.005188
0.946045 0.906586 0.010284
0.964539 0.906342 0.015289
0.982452 0.906097 0.020233
1.000000 0.905884 0.025146
0.000000 0.971497 0.000000
0.007294 0.969849 0.000000
0.017517 0.968201 0.000000
0.030701 0.966553 0.000000
0.046783 0.964905 0.000000
0.065796 0.963226 0.000000
0.087830 0.961578 0.000000
0.112854 0.959930 0.000000
0.140961 0.958282 0.000000
0.181335 0.956635 0.000000
0.250885 0.954956 0.000000
0.318756 0.953278 0.000000
0.383881 0.951630 0.000000
0.445221 0.949982 0.000000
0.501862 0.948273 0.000000
0.553528 0.946594 0.000000
0.600647 0.944946 0.000000
0.643646 0.943268 0.000000
