portrait-pop-3.CUBE
#Created by: Adobe Photoshop Export Color Lookup Plugin
TITLE "pp-3.psd"
#LUT size
LUT_3D_SIZE 8
#data domain
#LUT data points
DOMAIN_MIN 0.000000 0.000000 0.000000
DOMAIN_MAX 0.903226 0.903226 0.903226
0.000000 0.000000 0.000000
0.023621 0.000000 0.045837
0.077393 0.000000 0.082245
0.217834 0.000000 0.115295
0.397217 0.000000 0.154449
0.598145 0.000000 0.216370
0.781799 0.000000 0.281494
0.975983 0.000000 0.349854
0.000000 0.036102 0.000000
0.031311 0.036102 0.000000
0.079376 0.037415 0.000000
0.187164 0.013519 0.000000
0.364716 0.000000 0.021942
0.584381 0.000000 0.063080
0.774445 0.000000 0.105652
0.975189 0.000000 0.171967
0.000000 0.176117 0.000000
0.054260 0.176117 0.000000
0.122833 0.176117 0.000000
0.254059 0.185577 0.000000
0.400818 0.137177 0.000000
0.582336 0.050507 0.000000
0.764099 0.000122 0.000000
0.974213 0.000000 0.011536
0.000000 0.387970 0.000000
0.067688 0.387970 0.000000
0.165466 0.387970 0.000000
0.304565 0.387970 0.000000
0.441803 0.394440 0.000000
0.608032 0.323395 0.000000
0.777618 0.151276 0.000000
0.974518 0.026306 0.000000
0.000000 0.561096 0.000000
0.067871 0.561096 0.000000
0.179382 0.561096 0.000000
0.320465 0.561096 0.000000
0.463501 0.561096 0.000000
0.626953 0.552582 0.000000
0.791443 0.489807 0.000000
0.975983 0.327240 0.000000
0.000000 0.706238 0.000000
0.085602 0.706238 0.000000
0.204681 0.706238 0.000000
0.346161 0.706238 0.000000
0.489410 0.706238 0.000000
0.634155 0.706238 0.000000
0.800873 0.698364 0.000000
0.977509 0.659149 0.000000
0.000000 0.852264 0.000000
0.103119 0.852264 0.000000
0.230072 0.852264 0.000000
0.371826 0.852264 0.000000
0.515472 0.852264 0.000000
0.660339 0.852264 0.000000
0.805969 0.852264 0.000000
0.978455 0.847229 0.000000
0.000000 0.999054 0.000000
0.121094 0.999054 0.000000
0.255432 0.999054 0.000000
0.397644 0.999054 0.000000
0.541443 0.999054 0.000000
0.686646 0.999054 0.000000
0.832520 0.999054 0.000000
0.979187 0.999054 0.000000
0.000000 0.000000 0.134369
0.031311 0.000000 0.134369
0.088318 0.000000 0.148590
0.242371 0.000000 0.216095
0.420319 0.000000 0.289459
0.612122 0.000000 0.384796
0.789276 0.000000 0.451813
0.976776 0.000000 0.521759
0.000000 0.036102 0.134369
0.026550 0.036102 0.134369
0.073059 0.048126 0.156189
0.202423 0.065704 0.196198
0.378021 0.079529 0.240112
0.579437 0.078094 0.302704
0.757874 0.061371 0.368378
0.946655 0.046417 0.437225
0.000000 0.176117 0.134369
0.044556 0.176117 0.134369
0.108917 0.176117 0.134369
0.220734 0.181610 0.129059
0.363953 0.122498 0.102448
0.562408 0.073120 0.107117
0.749451 0.056824 0.195953
0.944855 0.041351 0.262878
0.000000 0.387970 0.134338
0.053040 0.387970 0.134369
0.144379 0.387970 0.134369
0.277496 0.387970 0.134369
0.410706 0.390778 0.131622
0.581299 0.311096 0.100372
0.748169 0.138489 0.062714
0.942291 0.025970 0.025055
0.000000 0.561096 0.134369
0.050476 0.561096 0.134399
0.154205 0.561096 0.134369
0.294891 0.561096 0.134369
0.437622 0.561096 0.134369
0.602997 0.555542 0.128082
0.763885 0.476898 0.098389
0.945618 0.313751 0.060394
0.000000 0.706238 0.134338
0.067932 0.706238 0.134369
0.179382 0.706238 0.134369
0.320465 0.706238 0.134369
0.463501 0.706238 0.134369
0.607880 0.706238 0.134369
0.775391 0.700500 0.124512
0.949036 0.645447 0.096436
0.000000 0.852264 0.134430
0.085541 0.852264 0.134308
0.204712 0.852264 0.134369
0.346191 0.852264 0.134369
0.489471 0.852264 0.134369
0.634186 0.852264 0.134369
0.779755 0.852264 0.134369
0.951355 0.848297 0.120880
0.000000 0.999054 0.134338
0.103210 0.999054 0.134491
0.229980 0.999054 0.134369
0.371979 0.999054 0.134369
0.515594 0.999054 0.134369
0.660278 0.999054 0.134369
0.806091 0.999054 0.134369
0.952515 0.999054 0.134369
0.000000 0.000000 0.274597
0.054260 0.000000 0.274597
0.122833 0.000000 0.274597
0.254059 0.000000 0.265564
0.424164 0.000000 0.311401
0.614685 0.000000 0.414703
0.792419 0.000000 0.521515
0.977325 0.000000 0.631561
0.000000 0.073792 0.274597
0.044556 0.073792 0.274597
0.108917 0.069061 0.274597
0.220734 0.068115 0.269104
0.395416 0.081543 0.333679
0.591614 0.077362 0.436462
0.766388 0.060364 0.534760
0.948517 0.045929 0.605194
0.000000 0.176117 0.274597
0.044556 0.176117 0.274597
0.095062 0.176117 0.274597
0.189331 0.177948 0.279480
0.360626 0.196930 0.323853
0.562164 0.202515 0.386993
0.735321 0.160797 0.453156
0.918762 0.124237 0.522339
0.000000 0.387970 0.274628
0.053040 0.387970 0.274597
0.123413 0.387970 0.274628
0.250549 0.387970 0.274597
0.380402 0.387970 0.274597
0.554810 0.298889 0.241150
0.724457 0.176636 0.259247
0.915924 0.131744 0.351868
0.000000 0.561096 0.274628
0.050476 0.561096 0.274567
0.129211 0.561096 0.274628
0.269287 0.561096 0.274597
0.411774 0.561096 0.274597
0.579498 0.558685 0.271729
0.736511 0.463959 0.239136
0.915497 0.300262 0.199829
0.000000 0.706238 0.274506
0.067932 0.706238 0.274506
0.154236 0.706238 0.274597
0.294830 0.706238 0.274597
0.437622 0.706238 0.274597
0.581818 0.706238 0.274597
0.750275 0.702484 0.268036
0.920807 0.631927 0.237122
0.000000 0.852264 0.274506
0.085541 0.852264 0.274567
0.179382 0.852264 0.274658
0.320465 0.852264 0.274597
0.463501 0.852264 0.274597
0.607880 0.852264 0.274597
0.753326 0.852264 0.274597
0.924683 0.849396 0.264343
0.000000 0.999054 0.274506
0.103210 0.999054 0.274475
0.204651 0.999054 0.274628
0.346222 0.999054 0.274597
0.489502 0.999054 0.274597
0.634064 0.999054 0.274597
0.779785 0.999054 0.274597
0.926178 0.999054 0.274597
0.000000 0.000000 0.417084
0.067688 0.000000 0.417084
0.165466 0.000000 0.417084
0.304565 0.000000 0.417084
0.441803 0.000000 0.411865
0.616577 0.000000 0.436737
0.793427 0.000000 0.543335
0.977448 0.000000 0.653473
0.000000 0.112061 0.417084
0.053040 0.112091 0.417084
0.144379 0.107727 0.417084
0.277496 0.091949 0.417084
0.410706 0.082031 0.414795
0.593628 0.076904 0.458130
0.767944 0.059601 0.564240
0.949280 0.044037 0.673706
0.000000 0.238403 0.417084
0.053040 0.238373 0.417084
0.123413 0.238403 0.417084
0.250549 0.234375 0.417084
0.380402 0.198822 0.417084
0.571350 0.196228 0.479431
0.743042 0.156982 0.584961
0.921631 0.122131 0.686035
0.000000 0.387970 0.417084
0.053040 0.387970 0.417084
0.123413 0.387970 0.417084
0.223633 0.387970 0.417084
0.353210 0.387970 0.417084
0.546326 0.379242 0.469116
0.714172 0.331085 0.535583
0.892273 0.281006 0.605072
0.000000 0.561096 0.417114
0.050476 0.561096 0.417084
0.129211 0.561096 0.417053
0.243805 0.561096 0.417084
0.385925 0.561096 0.417084
0.555725 0.561096 0.417084
0.709320 0.451111 0.389984
0.887817 0.328491 0.413544
0.000000 0.706238 0.416992
0.067932 0.706238 0.417084
0.154236 0.706238 0.417084
0.269287 0.706238 0.417114
0.411743 0.706238 0.417114
0.555725 0.706238 0.417084
0.725555 0.704620 0.414764
0.892761 0.618378 0.388397
0.000000 0.852264 0.417114
0.085541 0.852264 0.417053
0.179382 0.852264 0.416992
0.294861 0.852264 0.417084
0.437653 0.852264 0.417084
0.581818 0.852264 0.417084
0.727081 0.852264 0.417084
0.898407 0.850342 0.411774
0.000000 0.999054 0.416962
0.103210 0.999054 0.416992
0.204651 0.999054 0.417084
0.320465 0.999054 0.417145
0.463501 0.999054 0.417084
0.607880 0.999054 0.417084
0.753326 0.999054 0.417084
0.899597 0.999054 0.417084
0.000000 0.000000 0.561096
0.067871 0.000000 0.561096
0.179382 0.000000 0.561096
0.320465 0.000000 0.561096
0.463501 0.000000 0.561096
0.626953 0.000000 0.555054
0.794434 0.000000 0.565063
0.977539 0.000000 0.675018
0.000000 0.134369 0.561096
0.050476 0.134399 0.561096
0.154205 0.131714 0.561096
0.294891 0.112793 0.561096
0.437622 0.093628 0.561096
0.602997 0.073425 0.557129
0.769073 0.058899 0.585907
0.949524 0.043243 0.695160
0.000000 0.274628 0.561096
0.050476 0.274567 0.561096
0.129211 0.274628 0.561096
0.269287 0.274597 0.561096
0.411774 0.236938 0.561096
0.579498 0.191864 0.559387
0.744324 0.155975 0.606293
0.922180 0.120514 0.714996
0.000000 0.417114 0.561096
0.050476 0.417084 0.561096
0.129211 0.417053 0.561096
0.243805 0.417084 0.561096
0.385925 0.417084 0.561096
0.555725 0.359253 0.561096
0.720184 0.309998 0.626587
0.895447 0.251038 0.734680
0.000000 0.561096 0.561096
0.050476 0.561096 0.561096
0.129211 0.561096 0.561096
0.243805 0.561096 0.561096
0.366608 0.561096 0.561096
0.536194 0.561096 0.561096
0.700836 0.518829 0.618408
0.874023 0.467316 0.688232
0.000000 0.706238 0.561127
0.067932 0.706238 0.561188
0.154236 0.706238 0.561096
0.269287 0.706238 0.561127
0.392395 0.706238 0.561127
0.536194 0.706238 0.561096
0.707275 0.706146 0.561005
0.871643 0.599365 0.539642
0.000000 0.852264 0.561188
0.085541 0.852264 0.561066
0.179382 0.852264 0.561035
0.294861 0.852264 0.561066
0.418243 0.852264 0.561066
0.562225 0.852264 0.561096
0.707367 0.852264 0.561096
0.878967 0.851196 0.558777
0.000000 0.999054 0.561218
0.103210 0.999054 0.561035
0.204651 0.999054 0.561035
0.320465 0.999054 0.561188
0.444092 0.999054 0.561035
0.588348 0.999054 0.561096
0.733612 0.999054 0.561096
0.879883 0.999054 0.561096
0.000000 0.000000 0.706238
0.085602 0.000000 0.706238
0.204681 0.000000 0.706238
0.346161 0.000000 0.706238
0.489410 0.000000 0.706238
0.634155 0.000000 0.706238
0.800873 0.000000 0.700623
0.977661 0.000000 0.696686
0.000000 0.134338 0.706238
0.067932 0.134369 0.706238
0.179382 0.128326 0.706238
0.320465 0.109375 0.706238
0.463501 0.090149 0.706238
0.607880 0.070740 0.706238
0.775391 0.053314 0.702179
0.949768 0.042328 0.716492
0.000000 0.274506 0.706238
0.067932 0.274506 0.706238
0.154236 0.274597 0.706238
0.294830 0.269043 0.706238
0.437622 0.229828 0.706238
0.581818 0.190247 0.706238
0.750275 0.148712 0.703552
0.922546 0.119080 0.736267
0.000000 0.416992 0.706238
0.067932 0.417084 0.706238
0.154236 0.417084 0.706238
0.269287 0.417114 0.706238
0.411743 0.417114 0.706238
0.555725 0.359253 0.706238
0.725555 0.292542 0.705109
0.895966 0.246399 0.755554
0.000000 0.561127 0.706238
0.067932 0.561188 0.706238
0.154236 0.561096 0.706238
0.269287 0.561127 0.706238
0.392395 0.561127 0.706238
0.536194 0.561096 0.706238
0.707275 0.488098 0.706177
0.876740 0.435394 0.778961
0.000000 0.706238 0.706238
0.067932 0.706238 0.706238
0.154236 0.706238 0.706238
0.269287 0.706238 0.706238
0.392395 0.706238 0.706238
0.562225 0.706238 0.706238
0.732574 0.699036 0.717255
0.903442 0.652527 0.788239
0.000000 0.852264 0.706146
0.085541 0.852264 0.706207
0.179382 0.852264 0.706207
0.294861 0.852264 0.706238
0.418243 0.852264 0.706238
0.588348 0.852264 0.706238
0.733673 0.852264 0.706238
0.904846 0.845917 0.702972
0.000000 0.999054 0.706299
0.103210 0.999054 0.706146
0.204651 0.999054 0.706299
0.320465 0.999054 0.706146
0.444092 0.999054 0.706238
0.614502 0.999054 0.706268
0.759979 0.999054 0.706238
0.906311 0.999054 0.706238
0.000000 0.000000 0.852264
0.103119 0.000000 0.852264
0.230072 0.000000 0.852264
0.371826 0.000000 0.852264
0.515472 0.000000 0.852264
0.660339 0.000000 0.852264
0.805969 0.000000 0.852264
0.978455 0.000000 0.848663
0.000000 0.134430 0.852264
0.085541 0.134308 0.852264
0.204712 0.124908 0.852264
0.346191 0.105896 0.852264
0.489471 0.086639 0.852264
0.634186 0.067200 0.852264
0.779755 0.047638 0.852264
0.951355 0.034088 0.849426
0.000000 0.274506 0.852264
0.085541 0.274567 0.852264
0.179382 0.274658 0.852264
0.320465 0.261993 0.852264
0.463501 0.222717 0.852264
0.607880 0.183075 0.852264
0.753326 0.143127 0.852264
0.924683 0.107391 0.850220
0.000000 0.417114 0.852264
0.085541 0.417053 0.852264
0.179382 0.416992 0.852264
0.294861 0.417084 0.852264
0.437653 0.408508 0.852264
0.581818 0.348389 0.852264
0.727081 0.287781 0.852264
0.898407 0.225861 0.850891
0.000000 0.561188 0.852264
0.085541 0.561066 0.852264
0.179382 0.561035 0.852264
0.294861 0.561066 0.852264
0.418243 0.561066 0.852264
0.562225 0.560516 0.852264
0.707367 0.487671 0.852264
0.878967 0.410583 0.851501
0.000000 0.706146 0.852264
0.085541 0.706207 0.852264
0.179382 0.706207 0.852264
0.294861 0.706238 0.852264
0.418243 0.706238 0.852264
0.588348 0.706238 0.852264
0.733673 0.692474 0.852264
0.904968 0.627350 0.851410
0.000000 0.852264 0.852264
0.085541 0.852264 0.852264
0.179382 0.852264 0.852264
0.294861 0.852264 0.852264
0.418243 0.852264 0.852264
0.588348 0.852264 0.852264
0.759979 0.852264 0.852264
0.931946 0.832764 0.886139
0.000000 0.999054 0.852295
0.103210 0.999054 0.852234
0.204651 0.999054 0.852295
0.320465 0.999054 0.852234
0.444092 0.999054 0.852203
0.614502 0.999054 0.852234
0.786285 0.999054 0.852264
0.932770 0.999054 0.852264
0.000000 0.000000 0.999054
0.121094 0.000000 0.999054
0.255432 0.000000 0.999054
0.397644 0.000000 0.999054
0.541443 0.000000 0.999054
0.686646 0.000000 0.999054
0.832520 0.000000 0.999054
0.979187 0.000000 0.999054
0.000000 0.134338 0.999054
0.103210 0.134491 0.999054
0.229980 0.121521 0.999054
0.371979 0.102448 0.999054
0.515594 0.083130 0.999054
0.660278 0.063690 0.999054
0.806091 0.044098 0.999054
0.952515 0.024445 0.999054
0.000000 0.274506 0.999054
0.103210 0.274475 0.999054
0.204651 0.274628 0.999054
0.346222 0.254944 0.999054
0.489502 0.215576 0.999054
0.634064 0.175903 0.999054
0.779785 0.135864 0.999054
0.926178 0.095673 0.999054
0.000000 0.416962 0.999054
0.103210 0.416992 0.999054
0.204651 0.417084 0.999054
0.320465 0.417145 0.999054
0.463501 0.397736 0.999054
0.607880 0.337494 0.999054
0.753326 0.276855 0.999054
0.899597 0.215820 0.999054
0.000000 0.561218 0.999054
0.103210 0.561035 0.999054
0.204651 0.561035 0.999054
0.320465 0.561188 0.999054
0.444092 0.561035 0.999054
0.588348 0.547424 0.999054
0.733612 0.474487 0.999054
0.879883 0.401093 0.999054
0.000000 0.706299 0.999054
0.103210 0.706146 0.999054
0.204651 0.706299 0.999054
0.320465 0.706146 0.999054
0.444092 0.706238 0.999054
0.614502 0.706268 0.999054
0.759979 0.679260 0.999054
0.906311 0.605804 0.999054
0.000000 0.852295 0.999054
0.103210 0.852234 0.999054
0.204651 0.852295 0.999054
0.320465 0.852234 0.999054
0.444092 0.852203 0.999054
0.614502 0.852234 0.999054
0.786285 0.852264 0.999054
0.932770 0.811859 0.999054
0.000000 0.999054 0.999054
0.103210 0.999054 0.999054
0.204651 0.999054 0.999054
0.320465 0.999054 0.999054
0.444092 0.999054 0.999054
0.614502 0.999054 0.999054
0.786285 0.999054 0.999054
0.959259 0.999054 0.999054
